assets/luts/Aqua and Orange Dark.cube
# Created by Adobe Lightroom plugin Export LUT (1.18.0)
# www.johnrellis.com/lightroom/exportlut.htm
# Preset: Aqua and Orange Dark
# Color profile: /Library/Application Support/Adobe/Color/Profiles/Recommended/AdobeRGB1998.icc
LUT_3D_SIZE 8
DOMAIN_MIN 0.000000 0.000000 0.000000
DOMAIN_MAX 0.903226 0.903226 0.903226
0.101472 0.101472 0.101472
0.104707 0.100954 0.101442
0.156466 0.088380 0.100557
0.238376 0.067903 0.096895
0.370031 0.051972 0.082673
0.532952 0.000000 0.057435
0.692531 0.000000 0.000000
0.806851 0.000000 0.000000
0.100649 0.107393 0.101015
0.105440 0.110018 0.100649
0.156069 0.102998 0.099428
0.236728 0.101442 0.094636
0.367803 0.105135 0.080232
0.529625 0.093385 0.051270
0.688960 0.059022 0.000000
0.805020 0.000000 0.000000
0.089662 0.160311 0.094972
0.099580 0.161379 0.094545
0.156252 0.161593 0.092378
0.238651 0.170871 0.087160
0.373754 0.192874 0.072541
0.536126 0.209171 0.009979
0.694911 0.212894 0.000000
0.807675 0.201907 0.000000
0.058503 0.253910 0.081971
0.094179 0.254490 0.081880
0.167910 0.258335 0.080018
0.260716 0.270420 0.074006
0.389929 0.299229 0.033906
0.547265 0.327855 0.000000
0.697292 0.339544 0.000000
0.807156 0.330541 0.000000
0.000000 0.406470 0.000000
0.000000 0.407263 0.000000
0.173648 0.411231 0.000000
0.291844 0.419043 0.000000
0.410651 0.427100 0.000000
0.550164 0.447761 0.000000
0.696529 0.463905 0.000000
0.805844 0.454047 0.000000
0.000000 0.572045 0.000000
0.000000 0.574975 0.000000
0.143099 0.576715 0.000000
0.300084 0.580163 0.000000
0.434180 0.583825 0.000000
0.565789 0.588403 0.000000
0.699184 0.593500 0.000000
0.805814 0.578363 0.000000
0.000000 0.713283 0.000000
0.000000 0.713588 0.000000
0.010498 0.712917 0.000000
0.278904 0.712337 0.000000
0.422858 0.710933 0.000000
0.554498 0.709438 0.000000
0.681178 0.707271 0.000000
0.803342 0.703029 0.000000
0.000000 0.816770 0.000000
0.000000 0.816617 0.000000
0.000000 0.816526 0.000000
0.246128 0.817014 0.000000
0.398138 0.814572 0.000000
0.533440 0.815885 0.000000
0.663233 0.817716 0.000000
0.791073 0.819730 0.000000
0.099214 0.101442 0.112093
0.106752 0.100160 0.112673
0.156558 0.089082 0.112032
0.239017 0.074495 0.113252
0.371527 0.000000 0.108003
0.531304 0.000000 0.093568
0.689540 0.000000 0.062074
0.805020 0.000000 0.000000
0.097963 0.107362 0.113375
0.107546 0.109682 0.113802
0.156191 0.109316 0.114199
0.238743 0.103456 0.112947
0.370947 0.084779 0.106569
0.530358 0.003235 0.090730
0.687129 0.000000 0.054353
0.803128 0.000000 0.000000
0.085969 0.159792 0.112367
0.105196 0.160739 0.114565
0.156924 0.161959 0.113649
0.240391 0.169986 0.111452
0.375647 0.184756 0.100801
0.534630 0.192599 0.077974
0.690303 0.190524 0.000000
0.805020 0.178836 0.000000
0.059266 0.252445 0.116640
0.081605 0.255222 0.108980
0.162387 0.260136 0.103273
0.257816 0.268406 0.098939
0.385534 0.292210 0.082155
0.540520 0.316381 0.023529
0.691951 0.326970 0.000000
0.804440 0.318975 0.000000
0.000000 0.406134 0.101717
0.000000 0.408392 0.069612
0.154147 0.411536 0.047669
0.283635 0.416938 0.014679
0.406134 0.423377 0.000000
0.547936 0.443061 0.000000
0.694697 0.457588 0.000000
0.804471 0.447547 0.000000
0.000000 0.570001 0.000000
0.000000 0.572168 0.000000
0.100679 0.574029 0.000000
0.287114 0.578027 0.000000
0.428351 0.582483 0.000000
0.564385 0.587671 0.000000
0.699092 0.591485 0.000000
0.804990 0.574762 0.000000
0.000000 0.711269 0.000000
0.000000 0.711299 0.000000
0.000000 0.710994 0.000000
0.264103 0.711116 0.000000
0.415961 0.710262 0.000000
0.550958 0.708461 0.000000
0.679194 0.705623 0.000000
0.801633 0.700404 0.000000
0.000000 0.815946 0.000000
0.000000 0.816068 0.000000
0.000000 0.816098 0.000000
0.231998 0.816617 0.000000
0.393194 0.816770 0.000000
0.530999 0.817014 0.000000
0.661677 0.817502 0.000000
0.789944 0.818692 0.000000
0.078431 0.101228 0.171908
0.098054 0.098390 0.172305
0.160525 0.086641 0.173373
0.243229 0.071382 0.184756
0.378943 0.000000 0.200137
0.543816 0.000000 0.195285
0.700160 0.000000 0.159365
0.811032 0.000000 0.147951
0.083009 0.108095 0.172946
0.104891 0.108370 0.173281
0.159762 0.107546 0.174166
0.243900 0.093080 0.183719
0.381048 0.000000 0.194064
0.543969 0.000000 0.180240
0.698329 0.000000 0.157107
0.809964 0.000000 0.145693
0.079316 0.164157 0.174319
0.099947 0.164218 0.175082
0.152712 0.160555 0.175540
0.246525 0.154757 0.175540
0.389380 0.134401 0.171908
0.548089 0.102907 0.163821
0.699001 0.060487 0.151186
0.809537 0.027283 0.139712
0.013153 0.254887 0.187747
0.064698 0.257969 0.187198
0.133608 0.266514 0.176944
0.257450 0.272648 0.165896
0.395972 0.283146 0.165530
0.552300 0.292515 0.155337
0.700465 0.293156 0.139986
0.809232 0.284550 0.128969
0.000000 0.407813 0.209110
0.000000 0.410712 0.202853
0.048463 0.419104 0.168490
0.257572 0.425208 0.143252
0.408209 0.429480 0.137148
0.558984 0.440101 0.120394
0.700252 0.444312 0.119142
0.807797 0.431586 0.111482
0.000000 0.571405 0.207797
0.000000 0.573571 0.196170
0.000000 0.579614 0.135561
0.239261 0.583062 0.095918
0.412543 0.585595 0.084627
0.562768 0.588678 0.067414
0.702358 0.587640 0.012482
0.807584 0.567712 0.067384
0.000000 0.712490 0.176486
0.000000 0.713130 0.158938
0.000000 0.715267 0.039826
0.209140 0.714534 0.000000
0.395148 0.712642 0.000000
0.543389 0.710262 0.000000
0.679561 0.707271 0.000000
0.805112 0.700008 0.000000
0.000000 0.816495 0.106111
0.000000 0.816770 0.072145
0.000000 0.817807 0.000000
0.185153 0.818601 0.000000
0.375311 0.818296 0.000000
0.522942 0.818418 0.000000
0.658991 0.818784 0.000000
0.791043 0.820035 0.000000
0.005127 0.094209 0.286961
0.094697 0.086793 0.287938
0.178988 0.068452 0.290257
0.266575 0.004089 0.294285
0.386816 0.000000 0.315251
0.546410 0.000000 0.338933
0.698207 0.000000 0.334783
0.810391 0.000000 0.304845
0.031861 0.104677 0.290929
0.091890 0.102754 0.291691
0.174350 0.093324 0.293523
0.266423 0.062531 0.296727
0.389624 0.000000 0.315801
0.547539 0.000000 0.335119
0.698482 0.000000 0.328679
0.810483 0.000000 0.299382
0.000000 0.178866 0.294804
0.000000 0.172854 0.296300
0.134676 0.150881 0.299138
0.261601 0.136873 0.303044
0.396948 0.104311 0.314855
0.555505 0.000000 0.324193
0.705013 0.000000 0.313451
0.812192 0.000000 0.295109
0.000000 0.278721 0.301823
0.000000 0.278782 0.303197
0.093782 0.276432 0.306798
0.240391 0.265019 0.308202
0.398901 0.261967 0.308171
0.557824 0.249516 0.305058
0.703822 0.245518 0.300420
0.810452 0.250858 0.295018
0.000000 0.412543 0.324987
0.000000 0.414435 0.324254
0.000000 0.421210 0.320134
0.215824 0.429114 0.307958
0.402228 0.430732 0.295689
0.562646 0.430793 0.302220
0.703090 0.429358 0.301152
0.808530 0.419379 0.295964
0.000000 0.575708 0.345800
0.000000 0.579217 0.343053
0.000000 0.583886 0.327245
0.167544 0.590204 0.295415
0.388312 0.592157 0.278386
0.562005 0.591699 0.277195
0.705715 0.581750 0.272129
0.807187 0.562768 0.293278
0.000000 0.713466 0.335576
0.000000 0.714473 0.329747
0.000000 0.717006 0.307988
0.122194 0.719265 0.272496
0.370733 0.716945 0.266117
0.535882 0.713008 0.266484
0.679713 0.708309 0.267765
0.806027 0.697292 0.266178
0.000000 0.817868 0.303990
0.000000 0.818448 0.297398
0.000000 0.819791 0.274022
0.125643 0.820584 0.258305
0.361212 0.819821 0.261326
0.517235 0.819516 0.261265
0.657618 0.819669 0.260197
0.792538 0.821012 0.258122
0.000000 0.060945 0.446967
0.087861 0.045655 0.447944
0.194583 0.000000 0.449989
0.299962 0.000000 0.453407
0.416815 0.000000 0.463142
0.552087 0.000000 0.477882
0.697414 0.000000 0.484474
0.807218 0.000000 0.460578
0.000000 0.090303 0.450416
0.040467 0.084688 0.451575
0.183078 0.056977 0.453132
0.295415 0.000000 0.456458
0.416297 0.000000 0.465126
0.553826 0.000000 0.478462
0.698451 0.000000 0.482490
0.807614 0.000000 0.458015
0.000000 0.167178 0.456580
0.000000 0.152224 0.457954
0.105989 0.138216 0.460517
0.273136 0.110842 0.465187
0.412146 0.000000 0.470069
0.556970 0.000000 0.477821
0.700130 0.000000 0.475166
0.807736 0.000000 0.450019
0.000000 0.301274 0.463630
0.000000 0.296880 0.464881
0.000000 0.278477 0.469184
0.212467 0.246891 0.473884
0.401312 0.236484 0.476326
0.561822 0.226383 0.477241
0.702022 0.216495 0.466224
0.807706 0.222477 0.444068
0.000000 0.433112 0.471382
0.000000 0.432959 0.472450
0.000000 0.430732 0.474830
0.181888 0.425452 0.477455
0.381353 0.415473 0.476112
0.558984 0.417426 0.471412
0.696376 0.427893 0.471229
0.801053 0.435248 0.467170
0.000000 0.575006 0.481819
0.000000 0.576501 0.481666
0.000000 0.580407 0.479866
0.125734 0.585565 0.475166
0.360967 0.587884 0.462104
0.555444 0.586725 0.460945
0.696376 0.578759 0.470680
0.799619 0.571618 0.473243
0.000000 0.713558 0.479408
0.000000 0.714046 0.476997
0.000000 0.715633 0.468513
0.031159 0.717372 0.453834
0.350652 0.716243 0.439551
0.535180 0.710994 0.449104
0.679377 0.706172 0.450141
0.801846 0.693751 0.444282
0.000000 0.816587 0.451392
0.000000 0.816892 0.448310
0.000000 0.817929 0.438056
0.000000 0.820462 0.423163
0.357702 0.819120 0.426947
0.525902 0.817472 0.441688
0.661769 0.817899 0.441016
0.793606 0.819547 0.439734
0.000000 0.000000 0.605432
0.024262 0.000000 0.605798
0.193790 0.000000 0.606256
0.313085 0.000000 0.611505
0.433448 0.000000 0.616480
0.559167 0.000000 0.620935
0.695705 0.000000 0.626734
0.803647 0.000000 0.602564
0.000000 0.049500 0.605585
0.000000 0.023163 0.605768
0.176455 0.000000 0.607538
0.304540 0.000000 0.612085
0.429053 0.000000 0.616541
0.557610 0.000000 0.620966
0.695857 0.000000 0.626246
0.803616 0.000000 0.601129
0.000000 0.139345 0.613794
0.000000 0.135134 0.614130
0.049195 0.118502 0.615625
0.271214 0.075441 0.618311
0.415442 0.000000 0.621180
0.555016 0.000000 0.624292
0.697932 0.000000 0.626062
0.804623 0.000000 0.597559
0.000000 0.290257 0.619257
0.000000 0.282628 0.619745
0.000000 0.255161 0.622461
0.194125 0.234073 0.625910
0.392035 0.221103 0.627955
0.551629 0.203098 0.629511
0.700587 0.187778 0.624872
0.805386 0.205295 0.593378
0.000000 0.434638 0.621149
0.000000 0.432013 0.621820
0.000000 0.422919 0.623865
0.122469 0.408515 0.626581
0.361730 0.394568 0.628077
0.544884 0.393072 0.628626
0.697017 0.400092 0.617334
0.800656 0.417182 0.593561
0.000000 0.573724 0.623072
0.000000 0.573785 0.623926
0.000000 0.572808 0.625269
0.061646 0.571252 0.626734
0.352087 0.570489 0.627008
0.547204 0.574212 0.625147
0.687953 0.583459 0.618952
0.790555 0.597406 0.621424
0.000000 0.715206 0.624903
0.000000 0.715908 0.624720
0.000000 0.716945 0.622736
0.000000 0.717403 0.617945
0.345800 0.715053 0.609949
0.542290 0.708064 0.606958
0.682155 0.702998 0.614923
0.792996 0.701564 0.617731
0.000000 0.816983 0.593347
0.000000 0.817136 0.592004
0.000000 0.817746 0.587427
0.000000 0.818845 0.580438
0.341833 0.818387 0.575647
0.537499 0.814939 0.587823
0.675837 0.814817 0.601617
0.796658 0.818143 0.599573
0.000000 0.000000 0.723384
0.000000 0.000000 0.721584
0.177096 0.000000 0.722683
0.300359 0.000000 0.724544
0.418250 0.000000 0.726406
0.538384 0.000000 0.729152
0.663264 0.000000 0.732509
0.801511 0.000000 0.740932
0.000000 0.000000 0.731228
0.000000 0.000000 0.729702
0.159030 0.000000 0.730282
0.294255 0.000000 0.731868
0.418189 0.000000 0.734646
0.543175 0.000000 0.738552
0.671748 0.000000 0.742367
0.813535 0.000000 0.752041
0.000000 0.121340 0.728939
0.000000 0.116701 0.729366
0.000000 0.098848 0.731411
0.258274 0.035004 0.733181
0.401709 0.000000 0.736751
0.535882 0.000000 0.739406
0.667109 0.000000 0.739742
0.806790 0.000000 0.743771
0.000000 0.250675 0.728786
0.000000 0.243900 0.730068
0.000000 0.231846 0.732998
0.187259 0.223941 0.733211
0.374548 0.215976 0.735409
0.522667 0.204013 0.735744
0.660365 0.188113 0.734707
0.802762 0.175662 0.736355
0.000000 0.409979 0.735592
0.000000 0.408698 0.737392
0.000000 0.403449 0.740322
0.156344 0.396429 0.741207
0.372686 0.397284 0.741787
0.530968 0.402472 0.742397
0.671443 0.408881 0.741726
0.805966 0.412360 0.737484
0.000000 0.550958 0.738216
0.000000 0.550195 0.738430
0.000000 0.548119 0.739071
0.135500 0.545495 0.738582
0.375738 0.550286 0.737881
0.546288 0.565026 0.734157
0.673487 0.569848 0.732937
0.801144 0.580224 0.733150
0.000000 0.681086 0.734005
0.000000 0.680079 0.733089
0.000000 0.680140 0.733242
0.080507 0.680537 0.732784
0.373419 0.686091 0.734218
0.555962 0.695186 0.734585
0.685695 0.701656 0.732876
0.802029 0.705287 0.730953
0.000000 0.826291 0.743587
0.000000 0.826688 0.743496
0.000000 0.820951 0.735836
0.000000 0.819852 0.731594
0.363348 0.819944 0.729976
0.542901 0.818601 0.728115
0.673518 0.819577 0.719661
0.803708 0.823178 0.719265
0.000000 0.000000 0.861234
0.000000 0.000000 0.860166
0.164462 0.000000 0.863218
0.298985 0.000000 0.863615
0.422126 0.000000 0.865354
0.545159 0.000000 0.868315
0.669459 0.000000 0.869963
0.799832 0.000000 0.875395
0.000000 0.000000 0.866911
0.000000 0.000000 0.865843
0.143862 0.000000 0.867826
0.292393 0.000000 0.869383
0.420447 0.000000 0.870939
0.546746 0.000000 0.873838
0.674525 0.000000 0.876829
0.806821 0.000000 0.882658
0.000000 0.116701 0.872465
0.000000 0.112612 0.872251
0.000000 0.099458 0.875914
0.262730 0.052064 0.872160
0.408545 0.000000 0.874998
0.545281 0.000000 0.879728
0.677974 0.000000 0.882292
0.811795 0.000000 0.887022
0.000000 0.262852 0.875700
0.000000 0.261387 0.874815
0.000000 0.262211 0.877073
0.232364 0.259556 0.877043
0.399573 0.258518 0.878050
0.544274 0.262699 0.881041
0.680598 0.269780 0.883238
0.815061 0.286961 0.887480
0.000000 0.426154 0.882109
0.000000 0.424964 0.880949
0.000000 0.429175 0.882567
0.257603 0.432441 0.882811
0.422553 0.440101 0.885496
0.565972 0.450996 0.888609
0.698756 0.461524 0.890135
0.826169 0.473945 0.891875
0.000000 0.570428 0.888396
0.000000 0.572686 0.890043
0.000000 0.579370 0.893339
0.301061 0.589960 0.895048
0.469642 0.605035 0.893980
0.592798 0.606683 0.889372
0.707881 0.603479 0.885374
0.828824 0.605676 0.887510
0.000000 0.706874 0.891356
0.000000 0.708736 0.892668
0.000000 0.714229 0.895781
0.302037 0.721187 0.896971
0.471992 0.731563 0.898161
0.599817 0.736202 0.898924
0.711055 0.726040 0.899107
0.842802 0.722744 0.900542
0.000000 0.848997 0.897429
0.000000 0.850919 0.898985
0.000000 0.853483 0.900114
0.294133 0.853666 0.897429
0.458778 0.855772 0.895476
0.584680 0.859312 0.895293
0.695583 0.861601 0.896269
0.847135 0.866514 0.899046
