assets/luts/Aqua and Orange Dark.cube
# Created by Adobe Lightroom plugin Export LUT (1.18.0)
# www.johnrellis.com/lightroom/exportlut.htm
# Preset: Aqua and Orange Dark
# Color profile: /Library/Application Support/Adobe/Color/Profiles/Recommended/AdobeRGB1998.icc
LUT_3D_SIZE 5
DOMAIN_MIN 0.000000 0.000000 0.000000
DOMAIN_MAX 0.903226 0.903226 0.903226
0.101472 0.101472 0.101472
0.142733 0.092531 0.100832
0.299596 0.060243 0.091646
0.576471 0.000000 0.037659
0.806851 0.000000 0.000000
0.093416 0.145510 0.097017
0.141024 0.146365 0.095308
0.299657 0.161135 0.083162
0.578576 0.182162 0.000000
0.808316 0.167117 0.000000
0.000000 0.325414 0.065003
0.149569 0.329656 0.060273
0.334813 0.347967 0.009827
0.588159 0.393103 0.000000
0.806302 0.392370 0.000000
0.000000 0.613458 0.000000
0.017975 0.615290 0.000000
0.367742 0.619440 0.000000
0.599542 0.623285 0.000000
0.805234 0.609369 0.000000
0.000000 0.816770 0.000000
0.000000 0.816495 0.000000
0.325536 0.814359 0.000000
0.566217 0.816342 0.000000
0.791073 0.819730 0.000000
0.086702 0.101289 0.153353
0.143984 0.089326 0.154421
0.304784 0.000855 0.171115
0.582086 0.000000 0.142458
0.808347 0.000000 0.116609
0.083345 0.146883 0.155001
0.139620 0.145144 0.155703
0.309361 0.127840 0.152377
0.584039 0.062623 0.136141
0.808408 0.000000 0.108156
0.000000 0.326757 0.177127
0.086305 0.335973 0.150729
0.330266 0.347173 0.129000
0.590417 0.374395 0.106935
0.808316 0.367956 0.069642
0.000000 0.614221 0.164645
0.000000 0.620172 0.064698
0.339910 0.623285 0.000000
0.598383 0.624414 0.000000
0.807126 0.602899 0.000000
0.000000 0.817716 0.000000
0.000000 0.818723 0.000000
0.299168 0.818448 0.000000
0.559930 0.818753 0.000000
0.792081 0.821073 0.000000
0.000000 0.082490 0.365484
0.165438 0.052338 0.367651
0.338750 0.000000 0.375708
0.589441 0.000000 0.412573
0.808927 0.000000 0.385534
0.000000 0.149538 0.373907
0.108522 0.129732 0.376013
0.338170 0.070039 0.384710
0.593774 0.000000 0.405249
0.810391 0.000000 0.375128
0.000000 0.355444 0.386175
0.000000 0.353643 0.389441
0.306920 0.337896 0.392126
0.597620 0.335424 0.389075
0.806821 0.345068 0.382238
0.000000 0.615259 0.416327
0.000000 0.618738 0.406989
0.262577 0.627375 0.373693
0.594659 0.624964 0.367163
0.803525 0.596216 0.379797
0.000000 0.816709 0.378943
0.000000 0.818479 0.364446
0.256443 0.820035 0.343542
0.553704 0.818448 0.351568
0.792233 0.819760 0.349065
0.000000 0.000000 0.637232
0.158511 0.000000 0.638239
0.371221 0.000000 0.645838
0.588098 0.000000 0.652399
0.801724 0.000000 0.636286
0.000000 0.111574 0.643091
0.000000 0.089937 0.644709
0.349401 0.000000 0.649226
0.584833 0.000000 0.653956
0.802029 0.000000 0.632593
0.000000 0.356390 0.649928
0.000000 0.340856 0.653010
0.272953 0.307774 0.658564
0.586755 0.307347 0.666316
0.803616 0.314000 0.627741
0.000000 0.603510 0.654444
0.000000 0.602167 0.654902
0.234928 0.601129 0.656519
0.585046 0.608667 0.653803
0.788876 0.626642 0.649836
0.000000 0.816861 0.628504
0.000000 0.817685 0.625208
0.225162 0.818936 0.616144
0.576287 0.814664 0.623896
0.796994 0.817563 0.631312
0.000000 0.000000 0.861234
0.122469 0.000000 0.862608
0.360815 0.000000 0.864042
0.575860 0.000000 0.868559
0.799832 0.000000 0.875395
0.000000 0.073884 0.868925
0.000000 0.025818 0.870115
0.343053 0.000000 0.871397
0.577569 0.000000 0.877806
0.807614 0.000000 0.883085
0.000000 0.349187 0.878782
0.000000 0.351995 0.880552
0.332311 0.353277 0.884245
0.593378 0.370794 0.890898
0.821592 0.387915 0.891051
0.000000 0.599573 0.884123
0.000000 0.605097 0.887663
0.380865 0.622980 0.890501
0.626520 0.640223 0.890867
0.834195 0.637263 0.891936
0.000000 0.848997 0.897429
0.000000 0.853086 0.900206
0.381750 0.854185 0.895995
0.611475 0.859922 0.895323
0.847135 0.866514 0.899046
