assets/luts/Aqua and Orange Dark.cube
# Created by Adobe Lightroom plugin Export LUT (1.18.0)
# www.johnrellis.com/lightroom/exportlut.htm
# Preset: Aqua and Orange Dark
# Color profile: /Library/Application Support/Adobe/Color/Profiles/Recommended/AdobeRGB1998.icc
LUT_3D_SIZE 32
0.101472 0.101472 0.101472
0.101472 0.101472 0.101472
0.101472 0.101472 0.101472
0.101472 0.101472 0.101472
0.104707 0.100954 0.101442
0.117617 0.098512 0.101259
0.130343 0.095705 0.101045
0.142733 0.092531 0.100832
0.156466 0.088380 0.100557
0.172610 0.082551 0.100191
0.191409 0.075563 0.099611
0.213077 0.071931 0.098451
0.238376 0.067903 0.096895
0.267399 0.063539 0.094667
0.299596 0.060243 0.091646
0.333989 0.056001 0.087709
0.370031 0.051972 0.082673
0.407416 0.038605 0.078126
0.445289 0.014374 0.073243
0.488808 0.000000 0.066804
0.532952 0.000000 0.057435
0.576471 0.000000 0.037659
0.618219 0.000000 0.012512
0.656947 0.000000 0.000000
0.692531 0.000000 0.000000
0.725216 0.000000 0.000000
0.754543 0.000000 0.000000
0.781308 0.000000 0.000000
0.806851 0.000000 0.000000
0.832578 0.000000 0.000000
0.860105 0.000000 0.000000
0.891447 0.000000 0.000000
0.101472 0.101472 0.101472
0.101472 0.101472 0.101472
0.101472 0.101472 0.101472
0.101472 0.101472 0.101472
0.105013 0.100893 0.101442
0.117617 0.098512 0.101259
0.130343 0.095705 0.101045
0.142733 0.092531 0.100832
0.156466 0.088380 0.100557
0.172427 0.082612 0.100191
0.191012 0.078248 0.099458
0.212589 0.075288 0.098299
0.237827 0.071992 0.096712
0.266819 0.068849 0.094453
0.298863 0.065675 0.091432
0.333104 0.063996 0.087465
0.369024 0.062593 0.082368
0.406348 0.054353 0.077882
0.444251 0.034241 0.073304
0.487648 0.003052 0.066499
0.531365 0.000000 0.057801
0.574731 0.000000 0.037110
0.616449 0.000000 0.012146
0.655268 0.000000 0.000000
0.691005 0.000000 0.000000
0.723903 0.000000 0.000000
0.753414 0.000000 0.000000
0.780331 0.000000 0.000000
0.805966 0.000000 0.000000
0.831754 0.000000 0.000000
0.859251 0.000000 0.000000
0.890532 0.000000 0.000000
0.101472 0.101472 0.101472
0.101472 0.101472 0.101472
0.101472 0.101472 0.101472
0.101472 0.101472 0.101472
0.105013 0.100893 0.101442
0.118105 0.098421 0.101259
0.130556 0.095644 0.101045
0.142947 0.092470 0.100832
0.156466 0.088380 0.100557
0.172335 0.084657 0.100069
0.190829 0.082124 0.099214
0.212284 0.079774 0.098054
0.237552 0.077058 0.096437
0.266453 0.075044 0.094118
0.298344 0.073487 0.091035
0.332647 0.072023 0.087037
0.368505 0.071839 0.081880
0.405798 0.066438 0.077668
0.443946 0.056886 0.073030
0.487068 0.032959 0.066194
0.530663 0.001678 0.056306
0.573968 0.000000 0.035279
0.615625 0.000000 0.009979
0.654475 0.000000 0.000000
0.690272 0.000000 0.000000
0.723201 0.000000 0.000000
0.752834 0.000000 0.000000
0.779782 0.000000 0.000000
0.805509 0.000000 0.000000
0.831296 0.000000 0.000000
0.858762 0.000000 0.000000
0.890043 0.000000 0.000000
0.101472 0.101472 0.101472
0.101472 0.101472 0.101472
0.101472 0.101472 0.101472
0.101472 0.101472 0.101472
0.105867 0.100740 0.101411
0.118624 0.098299 0.101228
0.130983 0.095827 0.101015
0.142977 0.094453 0.100679
0.156497 0.092866 0.100252
0.172213 0.091432 0.099580
0.190524 0.090150 0.098695
0.212131 0.088624 0.097475
0.237125 0.087648 0.095735
0.265965 0.086915 0.093355
0.297978 0.086244 0.090181
0.332158 0.086793 0.086000
0.368017 0.086610 0.081422
0.405249 0.083528 0.077089
0.444038 0.078004 0.072175
0.486519 0.071046 0.065278
0.529656 0.060914 0.055299
0.572595 0.037018 0.032776
0.614282 0.005005 0.007324
0.653437 0.000000 0.000000
0.689479 0.000000 0.000000
0.722774 0.000000 0.000000
0.752590 0.000000 0.000000
0.779660 0.000000 0.000000
0.805417 0.000000 0.000000
0.831205 0.000000 0.000000
0.858610 0.000000 0.000000
0.889738 0.000000 0.000000
0.100649 0.107393 0.101015
0.100618 0.107637 0.100984
0.100526 0.108125 0.100954
0.100404 0.109102 0.100862
0.105440 0.110018 0.100649
0.118410 0.108522 0.100404
0.130587 0.106111 0.100191
0.142672 0.104402 0.099886
0.156069 0.102998 0.099428
0.171633 0.102083 0.098756
0.190127 0.101442 0.097810
0.211704 0.101167 0.096498
0.236728 0.101442 0.094636
0.265446 0.102205 0.092103
0.297368 0.103548 0.088746
0.331579 0.105257 0.084352
0.367803 0.105135 0.080232
0.405035 0.103761 0.076051
0.444892 0.101167 0.070649
0.486946 0.097902 0.063722
0.529625 0.093385 0.051270
0.572290 0.087373 0.028138
0.613825 0.080140 0.002411
0.652888 0.070497 0.000000
0.688960 0.059022 0.000000
0.722286 0.033326 0.000000
0.752163 0.004456 0.000000
0.779263 0.000000 0.000000
0.805020 0.000000 0.000000
0.830808 0.000000 0.000000
0.858213 0.000000 0.000000
0.889342 0.000000 0.000000
0.098573 0.120119 0.099855
0.098512 0.120577 0.099825
0.098421 0.121004 0.099763
0.098299 0.121645 0.099702
0.102632 0.122316 0.099519
0.116579 0.121981 0.099153
0.129885 0.119722 0.098909
0.142123 0.117342 0.098695
0.155795 0.115663 0.098268
0.171542 0.115053 0.097566
0.190005 0.115175 0.096559
0.211521 0.115877 0.095094
0.236606 0.117372 0.093111
0.265354 0.119326 0.090364
0.297215 0.122133 0.086671
0.331731 0.124178 0.082643
0.367956 0.125307 0.079225
0.405280 0.125704 0.074739
0.446143 0.125521 0.068574
0.487984 0.124758 0.061128
0.530480 0.123140 0.045472
0.573144 0.120516 0.021180
0.625666 0.118227 0.000000
0.663630 0.113710 0.000000
0.698451 0.108370 0.000000
0.730343 0.102052 0.000000
0.758785 0.095827 0.000000
0.784909 0.088563 0.000000
0.809964 0.081575 0.000000
0.835447 0.074342 0.000000
0.862852 0.065705 0.000000
0.894102 0.051637 0.000000
0.096193 0.132784 0.098512
0.096132 0.133181 0.098482
0.096101 0.133364 0.098451
0.095979 0.133944 0.098390
0.101015 0.134463 0.098207
0.113710 0.133974 0.097871
0.128450 0.133700 0.097414
0.142184 0.131960 0.097108
0.156008 0.130434 0.096681
0.172183 0.130007 0.095918
0.190921 0.130800 0.094759
0.212863 0.132570 0.093111
0.238193 0.135195 0.090822
0.267308 0.138430 0.087739
0.299474 0.141787 0.084321
0.333959 0.144564 0.081209
0.370031 0.146944 0.077394
0.409369 0.149020 0.071962
0.450263 0.151003 0.065736
0.492317 0.152041 0.056245
0.535485 0.152560 0.034089
0.579004 0.152193 0.007568
0.621180 0.151125 0.000000
0.660426 0.148959 0.000000
0.696407 0.145968 0.000000
0.728908 0.142275 0.000000
0.757717 0.137972 0.000000
0.783963 0.133425 0.000000
0.809140 0.128786 0.000000
0.834623 0.124208 0.000000
0.861967 0.119692 0.000000
0.893217 0.114687 0.000000
0.093416 0.145510 0.097017
0.093355 0.145876 0.096956
0.093324 0.146029 0.096956
0.093141 0.146731 0.096864
0.099947 0.146883 0.096651
0.111940 0.146700 0.096345
0.126009 0.146578 0.095857
0.141024 0.146365 0.095308
0.155642 0.145266 0.094789
0.171817 0.145388 0.093965
0.190799 0.146700 0.092714
0.212802 0.149233 0.090822
0.238132 0.152804 0.088289
0.267277 0.156954 0.086030
0.299657 0.161135 0.083162
0.334020 0.165164 0.079713
0.371221 0.169100 0.075227
0.410925 0.172976 0.069306
0.451118 0.176272 0.061982
0.492775 0.178775 0.049134
0.535454 0.180728 0.023835
0.578576 0.182162 0.000000
0.620417 0.182712 0.000000
0.659510 0.181827 0.000000
0.695369 0.180148 0.000000
0.727932 0.177523 0.000000
0.756710 0.174441 0.000000
0.783047 0.170748 0.000000
0.808316 0.167117 0.000000
0.833799 0.163394 0.000000
0.861204 0.159976 0.000000
0.892485 0.156832 0.000000
0.089662 0.160311 0.094972
0.089631 0.160464 0.094942
0.089540 0.160769 0.094911
0.090730 0.161257 0.094820
0.099580 0.161379 0.094545
0.111849 0.161349 0.094179
0.125429 0.161440 0.093721
0.140475 0.161440 0.093141
0.156252 0.161593 0.092378
0.171633 0.161105 0.091646
0.190829 0.163119 0.090150
0.212894 0.166476 0.088624
0.238651 0.170871 0.087160
0.268040 0.176059 0.084840
0.300114 0.181460 0.081575
0.335454 0.187106 0.077668
0.373754 0.192874 0.072541
0.412909 0.197787 0.065949
0.452583 0.201999 0.057191
0.493782 0.205844 0.037232
0.536126 0.209171 0.009979
0.578882 0.211704 0.000000
0.620417 0.213321 0.000000
0.659205 0.213718 0.000000
0.694911 0.212894 0.000000
0.727321 0.211002 0.000000
0.756100 0.208316 0.000000
0.782406 0.205142 0.000000
0.807675 0.201907 0.000000
0.833219 0.198703 0.000000
0.860624 0.196048 0.000000
0.891905 0.193698 0.000000
0.084291 0.177890 0.092195
0.084260 0.178012 0.092164
0.084932 0.178225 0.092103
0.090394 0.178500 0.091920
0.100160 0.178683 0.091615
0.112581 0.178775 0.091218
0.126497 0.179049 0.090669
0.141756 0.179263 0.089998
0.157809 0.179751 0.089418
0.174502 0.180362 0.089204
0.191196 0.180301 0.089296
0.213107 0.184054 0.087861
0.239109 0.189395 0.086061
0.268528 0.195743 0.083284
0.302281 0.203128 0.079744
0.338567 0.210575 0.074861
0.376532 0.217350 0.068879
0.415381 0.223362 0.061128
0.454749 0.228580 0.047578
0.495613 0.233280 0.022065
0.537499 0.237705 0.000000
0.579522 0.241215 0.000000
0.620386 0.243626 0.000000
0.658595 0.244633 0.000000
0.693965 0.244419 0.000000
0.726284 0.243076 0.000000
0.755123 0.240909 0.000000
0.781552 0.238102 0.000000
0.807004 0.234958 0.000000
0.832670 0.232090 0.000000
0.860258 0.229862 0.000000
0.891783 0.228244 0.000000
0.078401 0.198428 0.088563
0.080354 0.198550 0.088502
0.083711 0.198581 0.088411
0.090578 0.198856 0.088441
0.100557 0.199100 0.088380
0.113313 0.199496 0.088167
0.127871 0.200015 0.088075
0.143374 0.200687 0.087800
0.160311 0.201450 0.087617
0.178012 0.202365 0.087251
0.196597 0.203311 0.086976
0.215335 0.203983 0.086885
0.240360 0.209415 0.084993
0.271336 0.217746 0.081239
0.305150 0.226352 0.076905
0.341039 0.234653 0.071565
0.378515 0.242222 0.064698
0.416968 0.249088 0.054200
0.456092 0.255192 0.031922
0.496681 0.260899 0.004486
0.538262 0.266087 0.000000
0.580041 0.270481 0.000000
0.620691 0.273808 0.000000
0.658656 0.275486 0.000000
0.693782 0.275822 0.000000
0.725948 0.274846 0.000000
0.754604 0.272740 0.000000
0.780972 0.269993 0.000000
0.806363 0.267124 0.000000
0.832059 0.264378 0.000000
0.859739 0.262272 0.000000
0.891325 0.261265 0.000000
0.071382 0.223148 0.086030
0.074250 0.223301 0.086213
0.078309 0.223423 0.086091
0.086458 0.223636 0.086152
0.098360 0.224063 0.086000
0.112673 0.224582 0.085664
0.128359 0.225254 0.085451
0.145449 0.226108 0.085328
0.163546 0.227085 0.084993
0.182681 0.228367 0.084382
0.202945 0.230014 0.083680
0.224491 0.232670 0.082673
0.251133 0.238987 0.080842
0.279576 0.245457 0.077546
0.314214 0.255222 0.071809
0.350713 0.264530 0.064790
0.388525 0.273014 0.052461
0.426917 0.280552 0.030671
0.465827 0.287022 0.004944
0.506126 0.293248 0.000000
0.547112 0.298894 0.000000
0.588006 0.303593 0.000000
0.627314 0.306859 0.000000
0.664027 0.308537 0.000000
0.698177 0.308843 0.000000
0.729305 0.307744 0.000000
0.757229 0.305394 0.000000
0.783078 0.302556 0.000000
0.808133 0.299596 0.000000
0.833677 0.296788 0.000000
0.861357 0.294926 0.000000
0.893095 0.294133 0.000000
0.058503 0.253910 0.081971
0.062715 0.254032 0.081880
0.068574 0.254032 0.082063
0.079622 0.254215 0.081758
0.094179 0.254490 0.081880
0.110750 0.254948 0.081483
0.128695 0.255650 0.081117
0.147738 0.256535 0.080842
0.167910 0.258335 0.080018
0.189517 0.261021 0.078859
0.212131 0.263951 0.077638
0.235874 0.267063 0.075959
0.260716 0.270420 0.074006
0.286290 0.273808 0.071870
0.315648 0.279606 0.066804
0.352239 0.290013 0.056519
0.389929 0.299229 0.033906
0.427955 0.307378 0.007416
0.466621 0.314641 0.000000
0.506554 0.321508 0.000000
0.547265 0.327855 0.000000
0.587793 0.333165 0.000000
0.626825 0.336889 0.000000
0.663325 0.338964 0.000000
0.697292 0.339544 0.000000
0.728298 0.338659 0.000000
0.756222 0.336522 0.000000
0.782071 0.333623 0.000000
0.807156 0.330541 0.000000
0.832822 0.327855 0.000000
0.860624 0.326146 0.000000
0.892515 0.325689 0.000000
0.015290 0.286717 0.075807
0.028351 0.286809 0.075654
0.045502 0.286839 0.075502
0.067170 0.287114 0.075410
0.086305 0.287785 0.074952
0.106569 0.288823 0.074495
0.127840 0.290227 0.073610
0.149386 0.291844 0.072786
0.171847 0.293828 0.071809
0.195224 0.296178 0.070344
0.219425 0.298955 0.068147
0.244511 0.301976 0.065736
0.270359 0.305241 0.062898
0.296941 0.308476 0.058930
0.324193 0.311528 0.052399
0.353582 0.315923 0.039612
0.390997 0.325933 0.010346
0.428992 0.334752 0.000000
0.467414 0.342596 0.000000
0.507134 0.350134 0.000000
0.547631 0.357061 0.000000
0.587945 0.362982 0.000000
0.626642 0.367224 0.000000
0.662989 0.369665 0.000000
0.696773 0.370428 0.000000
0.727626 0.369635 0.000000
0.755520 0.367407 0.000000
0.781338 0.364477 0.000000
0.806485 0.361425 0.000000
0.832212 0.358770 0.000000
0.860166 0.357153 0.000000
0.892332 0.357031 0.000000
0.000000 0.325414 0.065003
0.000000 0.325536 0.064759
0.000000 0.325689 0.064485
0.031495 0.326055 0.064210
0.073548 0.326482 0.063630
0.099825 0.327276 0.062989
0.124666 0.328313 0.061921
0.149569 0.329656 0.060273
0.174350 0.331365 0.058320
0.199710 0.333532 0.054383
0.225437 0.336156 0.049012
0.251957 0.339025 0.041871
0.279057 0.342046 0.032380
0.306737 0.345129 0.021180
0.334813 0.347967 0.009827
0.363226 0.350591 0.000000
0.392279 0.353338 0.000000
0.429969 0.362707 0.000000
0.468544 0.371221 0.000000
0.508080 0.379309 0.000000
0.548241 0.386755 0.000000
0.588159 0.393103 0.000000
0.626612 0.397650 0.000000
0.662623 0.400305 0.000000
0.696315 0.401251 0.000000
0.727108 0.400580 0.000000
0.754971 0.398352 0.000000
0.780972 0.395422 0.000000
0.806302 0.392370 0.000000
0.832334 0.389837 0.000000
0.860685 0.388373 0.000000
0.893278 0.388617 0.000000
0.000000 0.365911 0.035981
0.000000 0.366064 0.035309
0.000000 0.366217 0.034424
0.000000 0.366552 0.033631
0.039399 0.366979 0.031861
0.087922 0.367712 0.028717
0.118959 0.368688 0.025422
0.147585 0.370031 0.021607
0.175418 0.371649 0.016297
0.202945 0.373510 0.009369
0.230594 0.375616 0.001801
0.258335 0.378088 0.000000
0.286473 0.380468 0.000000
0.314946 0.382910 0.000000
0.343633 0.385229 0.000000
0.372717 0.387549 0.000000
0.402045 0.389746 0.000000
0.430854 0.391089 0.000000
0.469520 0.400366 0.000000
0.509361 0.409247 0.000000
0.549584 0.417304 0.000000
0.589380 0.424048 0.000000
0.627558 0.428870 0.000000
0.663264 0.431708 0.000000
0.696773 0.432746 0.000000
0.727321 0.431922 0.000000
0.755032 0.429572 0.000000
0.780941 0.426551 0.000000
0.806302 0.423346 0.000000
0.832364 0.420722 0.000000
0.860868 0.419348 0.000000
0.893614 0.419928 0.000000
0.000000 0.406470 0.000000
0.000000 0.406531 0.000000
0.000000 0.406622 0.000000
0.000000 0.406897 0.000000
0.000000 0.407263 0.000000
0.067597 0.407904 0.000000
0.108705 0.408728 0.000000
0.142458 0.409796 0.000000
0.173648 0.411231 0.000000
0.203647 0.412818 0.000000
0.233127 0.414801 0.000000
0.262486 0.416846 0.000000
0.291844 0.419043 0.000000
0.321355 0.421241 0.000000
0.351019 0.423285 0.000000
0.380682 0.425238 0.000000
0.410651 0.427100 0.000000
0.440955 0.429084 0.000000
0.470344 0.429938 0.000000
0.510033 0.439277 0.000000
0.550164 0.447761 0.000000
0.589776 0.454902 0.000000
0.627619 0.459876 0.000000
0.663203 0.462776 0.000000
0.696529 0.463905 0.000000
0.726864 0.463050 0.000000
0.754452 0.460548 0.000000
0.780423 0.457343 0.000000
0.805844 0.454047 0.000000
0.832090 0.451392 0.000000
0.860899 0.450172 0.000000
0.894041 0.451057 0.000000
0.000000 0.447456 0.000000
0.000000 0.447669 0.000000
0.000000 0.453895 0.000000
0.000000 0.454078 0.000000
0.000000 0.454353 0.000000
0.000000 0.454688 0.000000
0.093233 0.455177 0.000000
0.135317 0.455818 0.000000
0.171206 0.456794 0.000000
0.204349 0.458106 0.000000
0.236271 0.459571 0.000000
0.267552 0.461189 0.000000
0.298436 0.462776 0.000000
0.329320 0.464485 0.000000
0.359991 0.466072 0.000000
0.390723 0.467659 0.000000
0.421546 0.469215 0.000000
0.452552 0.470741 0.000000
0.483742 0.472297 0.000000
0.514031 0.472816 0.000000
0.553613 0.481270 0.000000
0.592767 0.488197 0.000000
0.630182 0.493019 0.000000
0.665156 0.495644 0.000000
0.697719 0.496193 0.000000
0.727352 0.494820 0.000000
0.754421 0.491859 0.000000
0.780087 0.488258 0.000000
0.805386 0.484779 0.000000
0.831754 0.482063 0.000000
0.860807 0.480995 0.000000
0.894224 0.482124 0.000000
0.000000 0.490486 0.000000
0.000000 0.491402 0.000000
0.000000 0.492256 0.000000
0.000000 0.493233 0.000000
0.000000 0.494026 0.000000
0.000000 0.494667 0.000000
0.068147 0.495247 0.000000
0.123476 0.495857 0.000000
0.164584 0.496773 0.000000
0.200748 0.497871 0.000000
0.235019 0.499123 0.000000
0.268040 0.500572 0.000000
0.300481 0.501976 0.000000
0.332433 0.503441 0.000000
0.364111 0.504936 0.000000
0.395697 0.506218 0.000000
0.427253 0.507561 0.000000
0.458839 0.508873 0.000000
0.490639 0.510338 0.000000
0.522698 0.511894 0.000000
0.554711 0.513237 0.000000
0.592950 0.519768 0.000000
0.630182 0.524681 0.000000
0.665095 0.527306 0.000000
0.697536 0.527825 0.000000
0.726986 0.526116 0.000000
0.753964 0.522942 0.000000
0.779568 0.519127 0.000000
0.804959 0.515496 0.000000
0.831510 0.512749 0.000000
0.860807 0.511803 0.000000
0.894560 0.513359 0.000000
0.000000 0.531456 0.000000
0.000000 0.532219 0.000000
0.000000 0.533104 0.000000
0.000000 0.533928 0.000000
0.000000 0.534722 0.000000
0.000000 0.535271 0.000000
0.000000 0.535698 0.000000
0.106874 0.536278 0.000000
0.155276 0.537102 0.000000
0.195590 0.538018 0.000000
0.232395 0.539178 0.000000
0.267277 0.540429 0.000000
0.301122 0.541588 0.000000
0.334295 0.542840 0.000000
0.367071 0.544030 0.000000
0.399420 0.545068 0.000000
0.431678 0.546166 0.000000
0.463813 0.547204 0.000000
0.496040 0.548333 0.000000
0.528435 0.549615 0.000000
0.560998 0.550958 0.000000
0.594202 0.552758 0.000000
0.630335 0.556878 0.000000
0.665003 0.559350 0.000000
0.697322 0.559655 0.000000
0.726589 0.557641 0.000000
0.753384 0.554070 0.000000
0.778958 0.549981 0.000000
0.804410 0.546136 0.000000
0.831022 0.543359 0.000000
0.860685 0.542596 0.000000
0.894743 0.544457 0.000000
0.000000 0.572045 0.000000
0.000000 0.572778 0.000000
0.000000 0.573571 0.000000
0.000000 0.574334 0.000000
0.000000 0.574975 0.000000
0.000000 0.575372 0.000000
0.000000 0.575769 0.000000
0.081727 0.576226 0.000000
0.143099 0.576715 0.000000
0.188144 0.577447 0.000000
0.227695 0.578332 0.000000
0.264714 0.579248 0.000000
0.300084 0.580163 0.000000
0.334325 0.581109 0.000000
0.368017 0.581964 0.000000
0.401190 0.582910 0.000000
0.434180 0.583825 0.000000
0.467109 0.584894 0.000000
0.499947 0.586023 0.000000
0.532830 0.587152 0.000000
0.565789 0.588403 0.000000
0.598840 0.589563 0.000000
0.632532 0.591272 0.000000
0.667201 0.593622 0.000000
0.699184 0.593500 0.000000
0.728115 0.591028 0.000000
0.754757 0.586969 0.000000
0.780270 0.582452 0.000000
0.805814 0.578363 0.000000
0.832761 0.575555 0.000000
0.862882 0.575036 0.000000
0.897459 0.577356 0.000000
0.000000 0.613458 0.000000
0.000000 0.613764 0.000000
0.000000 0.614069 0.000000
0.000000 0.614343 0.000000
0.000000 0.614618 0.000000
0.000000 0.614771 0.000000
0.000000 0.615015 0.000000
0.017975 0.615290 0.000000
0.127260 0.615778 0.000000
0.178836 0.616297 0.000000
0.221775 0.617029 0.000000
0.260899 0.617700 0.000000
0.297765 0.618311 0.000000
0.333227 0.618891 0.000000
0.367742 0.619440 0.000000
0.401617 0.619959 0.000000
0.435065 0.620478 0.000000
0.468330 0.621027 0.000000
0.501244 0.621607 0.000000
0.534112 0.622156 0.000000
0.566827 0.622736 0.000000
0.599542 0.623285 0.000000
0.632166 0.623774 0.000000
0.665431 0.624811 0.000000
0.698695 0.625727 0.000000
0.727382 0.622797 0.000000
0.753994 0.618372 0.000000
0.779599 0.613611 0.000000
0.805234 0.609369 0.000000
0.832395 0.606561 0.000000
0.862882 0.606195 0.000000
0.897490 0.608606 0.000000
0.000000 0.649226 0.000000
0.000000 0.649470 0.000000
0.000000 0.649775 0.000000
0.000000 0.649989 0.000000
0.000000 0.650141 0.000000
0.000000 0.650202 0.000000
0.000000 0.650324 0.000000
0.000000 0.650416 0.000000
0.106966 0.650629 0.000000
0.166842 0.650935 0.000000
0.213382 0.651392 0.000000
0.254520 0.651789 0.000000
0.292638 0.652186 0.000000
0.329259 0.652522 0.000000
0.364599 0.652857 0.000000
0.399054 0.653193 0.000000
0.432929 0.653437 0.000000
0.466377 0.653773 0.000000
0.499550 0.654047 0.000000
0.532464 0.654322 0.000000
0.565179 0.654566 0.000000
0.597711 0.654688 0.000000
0.630121 0.654810 0.000000
0.662287 0.654810 0.000000
0.693538 0.653956 0.000000
0.726070 0.654261 0.000000
0.752651 0.649531 0.000000
0.778317 0.644495 0.000000
0.804135 0.640040 0.000000
0.831632 0.637201 0.000000
0.862486 0.637110 0.000000
0.897124 0.639643 0.000000
0.000000 0.684047 0.000000
0.000000 0.684352 0.000000
0.000000 0.684535 0.000000
0.000000 0.684596 0.000000
0.000000 0.684565 0.000000
0.000000 0.684474 0.000000
0.000000 0.684321 0.000000
0.000000 0.684169 0.000000
0.079469 0.684016 0.000000
0.153048 0.683986 0.000000
0.203616 0.683925 0.000000
0.246891 0.683925 0.000000
0.286473 0.683894 0.000000
0.323919 0.683772 0.000000
0.359625 0.683558 0.000000
0.394354 0.683345 0.000000
0.428382 0.683101 0.000000
0.461799 0.682856 0.000000
0.494881 0.682734 0.000000
0.527672 0.682643 0.000000
0.560204 0.682582 0.000000
0.592493 0.682429 0.000000
0.624506 0.682124 0.000000
0.656153 0.681636 0.000000
0.687587 0.680995 0.000000
0.718990 0.680476 0.000000
0.751827 0.681270 0.000000
0.777462 0.675807 0.000000
0.803372 0.671168 0.000000
0.831113 0.668330 0.000000
0.862089 0.668147 0.000000
0.897093 0.671015 0.000000
0.000000 0.713283 0.000000
0.000000 0.713497 0.000000
0.000000 0.713649 0.000000
0.000000 0.713710 0.000000
0.000000 0.713588 0.000000
0.000000 0.713497 0.000000
0.000000 0.713283 0.000000
0.000000 0.713100 0.000000
0.010498 0.712917 0.000000
0.136873 0.712764 0.000000
0.192447 0.712612 0.000000
0.238163 0.712459 0.000000
0.278904 0.712337 0.000000
0.317082 0.712062 0.000000
0.353521 0.711788 0.000000
0.388617 0.711360 0.000000
0.422858 0.710933 0.000000
0.456428 0.710506 0.000000
0.489509 0.710140 0.000000
0.522148 0.709804 0.000000
0.554498 0.709438 0.000000
0.586664 0.709071 0.000000
0.618433 0.708583 0.000000
0.649928 0.708003 0.000000
0.681178 0.707271 0.000000
0.712123 0.706447 0.000000
0.742916 0.705562 0.000000
0.777157 0.707820 0.000000
0.803342 0.703029 0.000000
0.831388 0.700221 0.000000
0.862608 0.700160 0.000000
0.898161 0.703456 0.000000
0.000000 0.740047 0.000000
0.000000 0.740200 0.000000
0.000000 0.740230 0.000000
0.000000 0.740169 0.000000
0.000000 0.739986 0.000000
0.000000 0.739803 0.000000
0.000000 0.739528 0.000000
0.000000 0.739254 0.000000
0.000000 0.738979 0.000000
0.118288 0.738766 0.000000
0.180240 0.738521 0.000000
0.228153 0.738338 0.000000
0.270451 0.738094 0.000000
0.309422 0.737789 0.000000
0.346258 0.737362 0.000000
0.381659 0.736904 0.000000
0.416144 0.736385 0.000000
0.449744 0.735836 0.000000
0.482856 0.735378 0.000000
0.515465 0.734951 0.000000
0.547814 0.734554 0.000000
0.579828 0.734127 0.000000
0.611505 0.733639 0.000000
0.642939 0.733089 0.000000
0.674098 0.732448 0.000000
0.705043 0.731716 0.000000
0.735836 0.731014 0.000000
0.766445 0.730220 0.000000
0.802548 0.734432 0.000000
0.830594 0.731411 0.000000
0.862211 0.731594 0.000000
0.898222 0.735348 0.000000
0.000000 0.764706 0.000000
0.000000 0.764767 0.000000
0.000000 0.764797 0.000000
0.000000 0.764767 0.000000
0.000000 0.764645 0.000000
0.000000 0.764584 0.000000
0.000000 0.764553 0.000000
0.000000 0.764523 0.000000
0.000000 0.764553 0.000000
0.097719 0.764645 0.000000
0.167758 0.764706 0.000000
0.218723 0.764767 0.000000
0.262516 0.764736 0.000000
0.302464 0.764614 0.000000
0.340002 0.764340 0.000000
0.375982 0.763912 0.000000
0.410773 0.763485 0.000000
0.444648 0.763027 0.000000
0.477913 0.762570 0.000000
0.510735 0.762203 0.000000
0.543114 0.761868 0.000000
0.575219 0.761532 0.000000
0.607019 0.761166 0.000000
0.638605 0.760769 0.000000
0.669947 0.760342 0.000000
0.701137 0.759945 0.000000
0.732204 0.759518 0.000000
0.763149 0.759060 0.000000
0.793881 0.758541 0.000000
0.832059 0.764767 0.000000
0.864652 0.765713 0.000000
0.901213 0.769955 0.000000
0.000000 0.790951 0.000000
0.000000 0.791012 0.000000
0.000000 0.791012 0.000000
0.000000 0.790890 0.000000
0.000000 0.790768 0.000000
0.000000 0.790616 0.000000
0.000000 0.790463 0.000000
0.000000 0.790341 0.000000
0.000000 0.790219 0.000000
0.069947 0.790127 0.000000
0.154910 0.790036 0.000000
0.208927 0.789975 0.000000
0.254002 0.789853 0.000000
0.294835 0.789670 0.000000
0.332952 0.789456 0.000000
