assets/luts/Berlin Sky.cube
# Created by: Lutify.me
# Copyright: (c) Copyright Lutify.me 2016, G.T. Colord LTD
# Website: https://lutify.me
# Contact: help@lutify.me
LUT_3D_SIZE 9
0.000000 0.000000 0.000000
0.037292 0.014374 0.029449
0.100342 0.021851 0.050537
0.170197 0.033722 0.066650
0.245880 0.045471 0.082916
0.323608 0.057556 0.099152
0.414642 0.070374 0.117645
0.518829 0.084717 0.138977
0.636475 0.100189 0.163605
0.019104 0.048248 0.041779
0.056335 0.056274 0.049866
0.114899 0.069855 0.064850
0.186066 0.084137 0.080475
0.262604 0.098907 0.096680
0.340881 0.113617 0.113129
0.431671 0.130310 0.131683
0.535431 0.148163 0.153046
0.652130 0.167877 0.177460
0.031250 0.114471 0.069153
0.075256 0.121735 0.075226
0.129272 0.129059 0.081940
0.202698 0.146881 0.097992
0.280884 0.164398 0.114502
0.360199 0.182343 0.131592
0.451599 0.201538 0.150757
0.555542 0.222229 0.172424
0.672272 0.244781 0.197266
0.047821 0.194031 0.097900
0.095764 0.201721 0.104034
0.154083 0.210266 0.111237
0.219696 0.219208 0.119171
0.299286 0.238892 0.136017
0.379608 0.258728 0.153473
0.471497 0.279510 0.172791
0.575714 0.301819 0.194855
0.692627 0.325714 0.219788
0.063477 0.280579 0.128876
0.116882 0.287903 0.134644
0.178680 0.297150 0.142273
0.247009 0.306824 0.150665
0.316895 0.316193 0.159424
0.397980 0.336426 0.176880
0.490204 0.358093 0.196350
0.594727 0.380951 0.218506
0.711700 0.404907 0.243195
0.079681 0.368927 0.161285
0.137787 0.375824 0.166779
0.203461 0.385345 0.174805
0.274170 0.395416 0.183594
0.345062 0.405029 0.192535
0.415405 0.414307 0.201691
0.508240 0.437073 0.221405
0.613525 0.461578 0.244019
0.731110 0.487366 0.269257
0.097504 0.471191 0.200073
0.161652 0.477203 0.204712
0.230865 0.486633 0.212891
0.303680 0.496826 0.221954
0.375580 0.506561 0.231140
0.447205 0.516174 0.240601
0.528259 0.526855 0.251648
0.634277 0.552917 0.274719
0.752563 0.580536 0.300415
0.118591 0.586884 0.248260
0.188019 0.592773 0.249725
0.260925 0.602051 0.257965
0.335693 0.612183 0.267212
0.408539 0.622040 0.276611
0.481873 0.631958 0.286407
0.564667 0.642944 0.297791
0.656891 0.655121 0.310791
0.775970 0.684479 0.337006
0.141846 0.716766 0.305908
0.217072 0.722809 0.302094
0.293945 0.731750 0.310150
0.370636 0.741730 0.319550
0.443756 0.751495 0.328949
0.519073 0.761597 0.339050
0.603729 0.772949 0.350647
0.697784 0.785370 0.363953
0.801239 0.798950 0.379028
0.009155 0.009155 0.040466
0.036591 0.016418 0.075012
0.100403 0.024231 0.094299
0.170837 0.036224 0.111023
0.247223 0.048065 0.128967
0.325562 0.060181 0.147034
0.416687 0.073303 0.167755
0.521484 0.087738 0.191193
0.639313 0.103638 0.217682
0.026093 0.047058 0.083801
0.060974 0.068329 0.098297
0.124542 0.080505 0.117981
0.197571 0.095459 0.135406
0.275085 0.110413 0.153381
0.354919 0.126282 0.172577
0.447601 0.143372 0.193787
0.553253 0.162201 0.217712
0.671875 0.182617 0.244476
0.043091 0.109192 0.120270
0.086304 0.132660 0.131958
0.139862 0.142731 0.135101
0.215149 0.160461 0.153229
0.294189 0.178741 0.171844
0.375031 0.197021 0.191650
0.468109 0.216705 0.213318
0.574005 0.238312 0.237701
0.692505 0.261139 0.264587
0.058746 0.188721 0.154907
0.105865 0.216370 0.160553
0.165253 0.226135 0.165070
0.232941 0.234955 0.173523
0.313538 0.254974 0.192688
0.394958 0.274811 0.212830
0.488495 0.295929 0.234772
0.594574 0.318787 0.259399
0.713226 0.342957 0.286560
0.074005 0.275635 0.190796
0.126251 0.305115 0.190186
0.190979 0.314301 0.196869
0.261261 0.323730 0.205627
0.331696 0.332977 0.214569
0.413818 0.353363 0.234894
0.507721 0.375092 0.257050
0.613892 0.397949 0.281647
0.732574 0.422394 0.308807
0.090424 0.364349 0.225647
0.147675 0.395599 0.223206
0.216644 0.404266 0.230865
0.288849 0.413940 0.239838
0.360443 0.423431 0.248962
0.432007 0.432770 0.258270
0.526581 0.455933 0.280884
0.633514 0.480621 0.306091
0.752777 0.506897 0.333771
0.108307 0.467072 0.268799
0.172272 0.499268 0.262451
0.244873 0.507843 0.270203
0.319031 0.517609 0.279388
0.391602 0.527191 0.288696
0.464783 0.536804 0.298279
0.547455 0.547607 0.309357
0.655029 0.573944 0.335114
0.774994 0.602020 0.363220
0.130127 0.583557 0.316406
0.199707 0.617310 0.308502
0.276123 0.625610 0.316193
0.352112 0.635345 0.325409
0.425079 0.644897 0.334717
0.500244 0.654785 0.344635
0.584656 0.665924 0.356079
0.678619 0.678223 0.369232
0.799194 0.707916 0.397675
0.154236 0.714264 0.373016
0.229675 0.749725 0.361389
0.309814 0.757538 0.368805
0.387756 0.767059 0.377838
0.461212 0.776520 0.387146
0.538391 0.786682 0.397308
0.624756 0.798096 0.408997
0.720337 0.810669 0.422302
0.825348 0.824341 0.437256
0.015869 0.020050 0.082794
0.030762 0.031982 0.132965
0.097168 0.028046 0.148193
0.169769 0.039246 0.167480
0.246826 0.051025 0.187408
0.325592 0.063202 0.207916
0.417114 0.076416 0.230469
0.522095 0.091125 0.255554
0.640533 0.107025 0.283875
0.024017 0.064362 0.128235
0.057068 0.087280 0.148499
0.116394 0.087311 0.175018
0.196808 0.098907 0.195374
0.275177 0.113861 0.215637
0.355499 0.129730 0.236572
0.448792 0.146851 0.259430
0.554718 0.165802 0.285004
0.673706 0.186432 0.312683
0.056152 0.107513 0.159882
0.095367 0.132629 0.182098
0.144531 0.160400 0.197083
0.225555 0.175201 0.226624
0.305542 0.193420 0.247559
0.387939 0.211914 0.268982
0.483154 0.232269 0.292938
0.590790 0.254028 0.318787
0.711182 0.277405 0.347137
0.074982 0.183533 0.207001
0.120270 0.210571 0.229004
0.184265 0.236023 0.245392
0.243896 0.251129 0.247742
0.325226 0.270905 0.268982
0.408325 0.290771 0.290771
0.503815 0.312378 0.314789
0.611633 0.335266 0.340729
0.732056 0.359741 0.369080
0.093475 0.266571 0.255249
0.142822 0.295990 0.272858
0.207458 0.325806 0.281830
0.272095 0.340637 0.281708
0.343750 0.349457 0.290680
0.427368 0.369751 0.312531
0.523071 0.391296 0.336487
0.631134 0.414490 0.362518
0.751617 0.439331 0.390808
0.109650 0.354919 0.298218
0.163452 0.386505 0.312195
0.231384 0.418915 0.315765
0.300201 0.432465 0.316895
0.372864 0.441498 0.325958
0.446228 0.450714 0.335480
0.542664 0.474030 0.359985
0.651398 0.499054 0.386475
0.772430 0.525574 0.415192
0.128265 0.457428 0.344421
0.187164 0.491089 0.354401
0.258362 0.526459 0.353790
0.331451 0.538208 0.357513
0.404388 0.547333 0.366577
0.479614 0.556824 0.376282
0.564209 0.567627 0.387543
0.673645 0.594299 0.414459
0.795441 0.622620 0.443634
0.149963 0.574524 0.394775
0.213440 0.610474 0.401306
0.287903 0.648224 0.396606
0.365082 0.658051 0.403442
0.438690 0.667114 0.412415
0.515930 0.676941 0.422333
0.602295 0.688049 0.433807
0.697998 0.700378 0.446808
0.820282 0.730255 0.476257
0.174957 0.705811 0.450226
0.242584 0.744202 0.453247
0.321411 0.783356 0.446838
0.401306 0.791992 0.455109
0.475647 0.800934 0.463959
0.554901 0.810913 0.473938
0.643219 0.822235 0.485596
0.740570 0.834839 0.498779
0.847290 0.848663 0.513641
0.016968 0.035950 0.121796
0.022369 0.053314 0.177795
0.082062 0.048492 0.219574
0.165558 0.043457 0.232819
0.244080 0.054779 0.253937
0.323608 0.066833 0.275909
0.415924 0.079926 0.299530
0.521362 0.094727 0.325531
0.640137 0.110748 0.354462
0.020752 0.083496 0.180389
0.046844 0.111145 0.210114
0.106659 0.109467 0.243652
0.187225 0.106140 0.263306
0.273315 0.117859 0.285522
0.354523 0.133575 0.307190
0.448303 0.150635 0.330750
0.554962 0.169586 0.356842
0.674347 0.190247 0.385010
0.055695 0.127777 0.217804
0.085663 0.158447 0.248108
0.141632 0.184540 0.260132
0.210663 0.186523 0.294861
0.303986 0.197937 0.319244
0.387177 0.216248 0.341217
0.483124 0.236450 0.365601
0.591278 0.258118 0.391754
0.712036 0.281555 0.420044
0.089844 0.181610 0.254028
0.124420 0.214203 0.287445
0.189362 0.240417 0.299683
0.247040 0.273315 0.317902
0.333466 0.287903 0.354126
0.419922 0.307281 0.376770
0.517517 0.328796 0.401123
0.627411 0.351776 0.427368
0.749756 0.376373 0.455780
0.113892 0.262054 0.301941
0.153320 0.296051 0.334747
0.227539 0.320282 0.348572
0.297150 0.348663 0.369537
0.354431 0.365723 0.375214
0.438995 0.386047 0.398468
0.536865 0.407776 0.422760
0.647034 0.431183 0.448914
0.769501 0.456207 0.477264
0.128662 0.349182 0.359406
0.173370 0.384308 0.390900
0.253387 0.409149 0.401001
0.324432 0.440918 0.416077
0.383972 0.458771 0.413788
0.458374 0.468719 0.421509
0.557007 0.492157 0.446167
0.667847 0.517273 0.472778
0.790771 0.543976 0.501404
0.152313 0.447449 0.414398
0.200317 0.485260 0.443878
0.279724 0.515472 0.448669
0.352264 0.550385 0.457581
0.414886 0.567474 0.452484
0.492523 0.576782 0.462036
0.579071 0.587433 0.473175
0.690674 0.614227 0.500153
0.814301 0.642761 0.529266
0.173767 0.564240 0.470154
0.225677 0.604279 0.497284
0.308319 0.637115 0.496399
0.383118 0.674377 0.500275
0.449890 0.689301 0.497620
0.529480 0.698822 0.507294
0.617981 0.709778 0.518555
0.715607 0.722076 0.531525
0.839813 0.752167 0.560944
0.198425 0.695740 0.528259
0.254486 0.737701 0.553345
0.339691 0.773529 0.546844
0.416443 0.812836 0.546875
0.487610 0.825073 0.548004
0.569153 0.834717 0.557770
0.659668 0.845917 0.569214
0.758972 0.858429 0.582306
0.867371 0.872223 0.597046
0.017883 0.051788 0.162994
0.019043 0.072845 0.223663
0.068787 0.069611 0.290253
0.146637 0.064667 0.309784
0.239197 0.059082 0.323425
0.319855 0.070862 0.345245
0.413025 0.083862 0.369263
0.519287 0.098541 0.395416
0.638489 0.114624 0.423798
0.021179 0.102661 0.227356
0.038208 0.134888 0.276520
0.103638 0.131927 0.296539
0.172058 0.130280 0.341309
0.262817 0.125275 0.356110
0.351807 0.137787 0.378693
0.446686 0.154663 0.402313
0.553925 0.173462 0.427795
0.673950 0.194000 0.455688
0.052460 0.150391 0.276398
0.076660 0.184906 0.317169
0.135803 0.210419 0.325439
0.204041 0.211700 0.365875
0.287201 0.209564 0.389923
0.384979 0.220825 0.413696
0.481689 0.240784 0.437256
0.590637 0.262238 0.463013
0.712067 0.285553 0.491028
0.093048 0.201599 0.317932
0.120453 0.238800 0.360138
0.182007 0.268372 0.366394
0.244598 0.298950 0.383698
0.314117 0.302277 0.421875
0.417603 0.312317 0.448944
0.516357 0.333374 0.472778
0.626953 0.356110 0.498718
0.749878 0.380554 0.526794
0.125793 0.261841 0.354980
0.154816 0.301025 0.397308
0.232147 0.324127 0.408356
0.295258 0.357147 0.423462
0.354065 0.390076 0.441559
0.446014 0.404449 0.482727
0.549530 0.424377 0.507477
0.661926 0.447906 0.533691
0.786377 0.473145 0.562164
0.153900 0.343048 0.401367
0.185272 0.384918 0.444794
0.269958 0.407898 0.454010
0.345551 0.436890 0.473206
0.414825 0.466400 0.494965
0.472137 0.485809 0.504395
0.570160 0.510376 0.531036
0.683105 0.535492 0.557587
0.808197 0.562531 0.586395
0.169067 0.445160 0.467041
0.201996 0.489807 0.511688
0.295319 0.511841 0.518097
0.374329 0.542023 0.534912
0.445557 0.573730 0.552521
0.507141 0.594574 0.550018
0.592743 0.607239 0.557983
0.706512 0.634094 0.584930
0.832153 0.662781 0.614075
0.198181 0.555542 0.533478
0.236084 0.601349 0.577484
0.328003 0.629120 0.577759
0.404938 0.664001 0.589508
0.475983 0.699341 0.600708
0.542419 0.719971 0.593262
0.632294 0.731384 0.603088
0.731934 0.743500 0.615906
0.858124 0.773773 0.645508
0.222961 0.686188 0.597473
0.261536 0.735016 0.643433
0.358795 0.764587 0.635254
0.437256 0.801941 0.641968
0.510010 0.839661 0.648651
0.582214 0.858246 0.642456
0.674622 0.869354 0.653351
0.776001 0.881653 0.666229
0.886322 0.895386 0.680847
0.018768 0.068207 0.205933
0.020538 0.090057 0.270203
0.062134 0.092224 0.335907
0.131073 0.086517 0.385345
0.218445 0.081055 0.401978
0.314484 0.075378 0.415253
0.408752 0.088196 0.439758
0.515961 0.102814 0.467010
0.635742 0.118927 0.496490
0.024475 0.121124 0.269257
0.035950 0.157410 0.336700
0.095215 0.158447 0.353455
0.159790 0.155090 0.417053
0.244934 0.150909 0.436584
0.341400 0.145203 0.450623
0.443604 0.159149 0.475586
0.551788 0.177856 0.502228
0.672485 0.198334 0.531250
0.049744 0.173553 0.336487
0.073914 0.209717 0.379547
0.125366 0.239349 0.393677
0.202789 0.236969 0.422913
0.272522 0.237274 0.469910
0.367096 0.232788 0.485992
0.479095 0.245667 0.512634
0.588898 0.266968 0.539337
0.711090 0.290161 0.568451
0.089691 0.226776 0.379700
0.117035 0.265106 0.423218
0.173004 0.297180 0.436676
0.240082 0.326141 0.452301
0.310913 0.328705 0.488281
0.394135 0.328369 0.521057
0.513885 0.338623 0.549683
0.625458 0.361115 0.576569
0.749054 0.385406 0.605682
0.132812 0.280182 0.421875
0.162933 0.320068 0.465851
0.222198 0.353424 0.479919
0.287842 0.385895 0.490906
0.350403 0.416779 0.510620
0.424683 0.421051 0.550842
0.547028 0.429962 0.585785
0.660431 0.453064 0.612854
0.785828 0.478149 0.642426
0.163147 0.344269 0.456787
0.194763 0.386322 0.501404
0.268097 0.414520 0.520172
0.343872 0.444550 0.534821
0.405609 0.479004 0.552582
0.469818 0.515259 0.573334
0.576538 0.532471 0.623322
0.697479 0.554810 0.652130
0.824799 0.581940 0.682281
0.198090 0.437500 0.507782
0.232086 0.482330 0.553864
0.312073 0.511230 0.571411
0.395264 0.539764 0.588776
0.467773 0.570374 0.611145
0.543549 0.603394 0.636078
0.610382 0.626099 0.647156
0.721313 0.654907 0.679474
0.849182 0.683624 0.709991
0.215546 0.554230 0.582367
0.250946 0.601562 0.629913
0.336060 0.630981 0.646149
0.423645 0.659698 0.662781
0.500427 0.690826 0.682770
0.580353 0.725739 0.704224
0.651367 0.749634 0.704437
0.747253 0.765900 0.710297
0.875702 0.796265 0.741180
0.247223 0.678925 0.659607
0.284302 0.728821 0.709137
0.375488 0.759277 0.719482
0.460846 0.792511 0.730652
0.535156 0.828186 0.746460
0.615601 0.867340 0.760925
0.689697 0.892639 0.751129
0.791992 0.905823 0.761688
0.904236 0.919373 0.776062
0.019714 0.086029 0.255188
0.023895 0.108337 0.322052
0.042389 0.125366 0.387512
0.112640 0.112030 0.469299
0.195831 0.106079 0.489471
0.288361 0.100433 0.504547
0.401978 0.093750 0.520142
0.510254 0.108246 0.548157
0.631287 0.124268 0.578979
0.028320 0.141083 0.322296
0.035065 0.181061 0.401703
0.068787 0.196533 0.432404
0.152740 0.182251 0.480927
0.224762 0.179565 0.525970
0.317841 0.174377 0.542786
0.433167 0.167053 0.559143
0.547943 0.183258 0.586761
0.669525 0.203644 0.616821
0.046021 0.199066 0.405121
0.069641 0.236938 0.450775
0.108765 0.273102 0.481445
0.195923 0.267395 0.488708
0.259674 0.267303 0.552124
0.347076 0.264679 0.579071
0.460968 0.258179 0.596954
0.585632 0.272736 0.626068
0.708679 0.295746 0.656006
0.084839 0.254059 0.449524
0.111572 0.293915 0.495392
0.154755 0.331879 0.526367
0.229065 0.358002 0.531250
0.306976 0.358124 0.556488
0.377930 0.360291 0.613678
0.488647 0.355804 0.633698
0.622284 0.367188 0.664917
0.746979 0.391205 0.694977
0.126984 0.308746 0.492188
0.156525 0.349792 0.537964
0.201782 0.388519 0.569580
0.275787 0.418091 0.570465
0.343018 0.446716 0.590057
0.422424 0.449890 0.625702
0.516968 0.450531 0.669189
0.657532 0.459320 0.702728
0.783813 0.484131 0.732941
0.173126 0.363434 0.533234
0.205688 0.406372 0.579926
0.253448 0.447266 0.614624
0.332428 0.478149 0.614166
0.395660 0.512299 0.631439
0.465576 0.546631 0.654144
0.551147 0.551910 0.703735
0.691803 0.562714 0.742798
0.822968 0.588074 0.774017
0.207367 0.439728 0.572876
0.241821 0.484558 0.620270
0.295471 0.524902 0.658295
0.395721 0.546356 0.664551
0.462921 0.580994 0.682007
0.530548 0.619354 0.702759
0.605133 0.661499 0.726990
0.726135 0.681763 0.785645
0.865051 0.705933 0.819153
0.248322 0.546295 0.631012
0.284943 0.593658 0.679749
0.345947 0.633942 0.715210
0.446472 0.657806 0.723511
0.524048 0.688721 0.745300
0.604340 0.723114 0.770844
0.692230 0.761078 0.799469
0.766205 0.788269 0.811188
0.892029 0.819977 0.850220
0.270905 0.676300 0.712677
0.309174 0.726013 0.762878
0.373352 0.767548 0.798035
0.475159 0.792786 0.806732
0.554565 0.824951 0.828735
0.643127 0.858582 0.852295
0.736115 0.897614 0.877533
0.816803 0.924255 0.880127
0.921051 0.944519 0.884796
0.023163 0.105103 0.309967
0.027924 0.128601 0.379425
0.032928 0.154602 0.455353
0.100128 0.142365 0.527863
0.169403 0.135864 0.587402
0.260162 0.129639 0.604126
0.372223 0.122375 0.622986
0.502441 0.114899 0.639648
0.624512 0.130829 0.671204
0.032410 0.162537 0.382904
0.039276 0.204498 0.467133
0.049835 0.234039 0.519745
0.140167 0.217072 0.540710
0.204559 0.211761 0.618805
0.292419 0.207306 0.644684
0.404175 0.200745 0.663391
0.537292 0.191895 0.681580
0.664825 0.210083 0.712585
0.042725 0.226746 0.478607
0.064514 0.267212 0.530792
0.090790 0.309570 0.579926
0.175018 0.305054 0.577240
0.251740 0.299866 0.622925
0.324799 0.299500 0.681671
0.435333 0.294250 0.702087
0.567322 0.285889 0.721893
0.704620 0.302368 0.753906
0.079529 0.283813 0.526672
0.105804 0.325317 0.574829
0.135437 0.369110 0.624176
0.208038 0.396423 0.622040
0.295654 0.392120 0.637573
0.369293 0.392761 0.699310
0.466736 0.391876 0.739716
0.596497 0.385101 0.760712
0.743164 0.398132 0.794586
0.120483 0.339508 0.569519
0.149017 0.381683 0.617706
0.181030 0.426056 0.667206
0.258057 0.454254 0.662994
0.329010 0.481476 0.679749
0.417206 0.482483 0.705505
0.499969 0.485413 0.773682
0.625397 0.481018 0.798462
0.780182 0.491180 0.834015
0.165527 0.396210 0.612915
0.197968 0.440063 0.661285
0.233185 0.485962 0.711700
0.314117 0.515930 0.708618
0.381470 0.548889 0.721710
0.457642 0.581268 0.745300
0.550629 0.585205 0.785461
0.657440 0.586456 0.837463
0.819031 0.595581 0.876190
0.220947 0.460236 0.661285
0.256378 0.505554 0.710815
0.294525 0.553040 0.762451
0.379089 0.584778 0.760101
0.449188 0.619202 0.772644
0.519043 0.657776 0.793427
0.600403 0.697540 0.819275
0.699432 0.703674 0.872833
0.856995 0.715973 0.921021
0.259521 0.548676 0.704742
0.296814 0.596069 0.754822
0.336517 0.645447 0.806854
0.441223 0.667664 0.813080
0.524780 0.696533 0.830170
0.596527 0.736572 0.851044
0.674591 0.780701 0.875061
0.762024 0.828125 0.899353
0.892059 0.855042 0.959442
0.307220 0.668213 0.769440
0.346527 0.717987 0.820770
0.389069 0.768921 0.872803
0.496277 0.792236 0.879150
0.582794 0.821899 0.897644
0.668854 0.856903 0.922791
0.767090 0.894104 0.946106
0.874115 0.934814 0.968781
0.951508 0.967834 0.982635
0.027374 0.126068 0.370331
0.032196 0.151031 0.442902
0.037231 0.178375 0.519928
0.064606 0.192444 0.586395
0.146515 0.169891 0.674438
0.228149 0.163666 0.714111
0.338318 0.155884 0.734283
0.468414 0.147522 0.754242
0.615082 0.138824 0.773376
0.036774 0.186249 0.450378
0.043762 0.229858 0.539154
0.053467 0.260345 0.596375
0.102783 0.268677 0.620300
0.191132 0.248779 0.685150
0.263000 0.244934 0.756012
0.373810 0.237946 0.777283
0.503693 0.229828 0.798309
0.654022 0.219513 0.817993
0.046600 0.254669 0.539825
0.060822 0.299103 0.612152
0.096222 0.339691 0.642181
0.144501 0.354767 0.654449
0.239624 0.339691 0.685760
0.311096 0.336731 0.766541
0.408173 0.334290 0.811462
0.535217 0.327789 0.834076
0.682922 0.318909 0.854492
0.072662 0.316620 0.613647
0.103210 0.357758 0.653442
0.145111 0.398376 0.679810
0.201385 0.433167 0.695282
0.283844 0.431091 0.710449
0.366547 0.430481 0.755524
0.445404 0.433838 0.829590
0.565643 0.431396 0.854279
0.704346 0.427460 0.874634
0.111725 0.372925 0.656921
0.147430 0.413940 0.693298
0.195038 0.454285 0.717255
0.255280 0.489441 0.732025
0.328613 0.517578 0.740417
0.418365 0.518982 0.763306
0.498535 0.524628 0.827942
0.599548 0.529602 0.872711
0.730133 0.530457 0.894348
0.157104 0.431213 0.700195
0.198486 0.473206 0.735046
0.253174 0.514008 0.756836
0.318573 0.550262 0.770691
0.391388 0.582001 0.779144
0.471039 0.615265 0.796356
0.562988 0.623108 0.822815
0.646484 0.633820 0.892487
0.767426 0.640350 0.915497
0.213074 0.496613 0.748230
0.261688 0.538971 0.779938
0.323029 0.580200 0.800171
0.391968 0.618042 0.814789
0.467224 0.651184 0.822845
0.542114 0.689850 0.837616
0.627014 0.730469 0.857758
0.717773 0.744720 0.895386
0.815948 0.760162 0.939301
0.279510 0.569427 0.801056
0.337189 0.611511 0.827271
0.404572 0.653076 0.845978
0.477936 0.691437 0.860748
0.554657 0.726318 0.869598
0.630676 0.766693 0.885437
0.713104 0.811310 0.903442
0.800903 0.860413 0.925507
0.885101 0.885132 0.964172
0.325592 0.668945 0.846222
0.397369 0.707489 0.865845
0.475067 0.746582 0.883850
0.559082 0.781403 0.900757
0.648987 0.810577 0.915955
0.732117 0.849274 0.933319
0.818329 0.893860 0.952240
0.908539 0.943970 0.973267
1.000000 1.000000 1.000000
