assets/luts/Berlin Sky.cube
# Created by: Lutify.me
# Copyright: (c) Copyright Lutify.me 2016, G.T. Colord LTD
# Website: https://lutify.me
# Contact: help@lutify.me
LUT_3D_SIZE 5
0.000000 0.000000 0.000000
0.100342 0.021851 0.050537
0.245880 0.045471 0.082916
0.414642 0.070374 0.117645
0.636475 0.100189 0.163605
0.031250 0.114471 0.069153
0.129272 0.129059 0.081940
0.280884 0.164398 0.114502
0.451599 0.201538 0.150757
0.672272 0.244781 0.197266
0.063477 0.280579 0.128876
0.178680 0.297150 0.142273
0.316895 0.316193 0.159424
0.490204 0.358093 0.196350
0.711700 0.404907 0.243195
0.097504 0.471191 0.200073
0.230865 0.486633 0.212891
0.375580 0.506561 0.231140
0.528259 0.526855 0.251648
0.752563 0.580536 0.300415
0.141846 0.716766 0.305908
0.293945 0.731750 0.310150
0.443756 0.751495 0.328949
0.603729 0.772949 0.350647
0.801239 0.798950 0.379028
0.015869 0.020050 0.082794
0.097168 0.028046 0.148193
0.246826 0.051025 0.187408
0.417114 0.076416 0.230469
0.640533 0.107025 0.283875
0.056152 0.107513 0.159882
0.144531 0.160400 0.197083
0.305542 0.193420 0.247559
0.483154 0.232269 0.292938
0.711182 0.277405 0.347137
0.093475 0.266571 0.255249
0.207458 0.325806 0.281830
0.343750 0.349457 0.290680
0.523071 0.391296 0.336487
0.751617 0.439331 0.390808
0.128265 0.457428 0.344421
0.258362 0.526459 0.353790
0.404388 0.547333 0.366577
0.564209 0.567627 0.387543
0.795441 0.622620 0.443634
0.174957 0.705811 0.450226
0.321411 0.783356 0.446838
0.475647 0.800934 0.463959
0.643219 0.822235 0.485596
0.847290 0.848663 0.513641
0.017883 0.051788 0.162994
0.068787 0.069611 0.290253
0.239197 0.059082 0.323425
0.413025 0.083862 0.369263
0.638489 0.114624 0.423798
0.052460 0.150391 0.276398
0.135803 0.210419 0.325439
0.287201 0.209564 0.389923
0.481689 0.240784 0.437256
0.712067 0.285553 0.491028
0.125793 0.261841 0.354980
0.232147 0.324127 0.408356
0.354065 0.390076 0.441559
0.549530 0.424377 0.507477
0.786377 0.473145 0.562164
0.169067 0.445160 0.467041
0.295319 0.511841 0.518097
0.445557 0.573730 0.552521
0.592743 0.607239 0.557983
0.832153 0.662781 0.614075
0.222961 0.686188 0.597473
0.358795 0.764587 0.635254
0.510010 0.839661 0.648651
0.674622 0.869354 0.653351
0.886322 0.895386 0.680847
0.019714 0.086029 0.255188
0.042389 0.125366 0.387512
0.195831 0.106079 0.489471
0.401978 0.093750 0.520142
0.631287 0.124268 0.578979
0.046021 0.199066 0.405121
0.108765 0.273102 0.481445
0.259674 0.267303 0.552124
0.460968 0.258179 0.596954
0.708679 0.295746 0.656006
0.126984 0.308746 0.492188
0.201782 0.388519 0.569580
0.343018 0.446716 0.590057
0.516968 0.450531 0.669189
0.783813 0.484131 0.732941
0.207367 0.439728 0.572876
0.295471 0.524902 0.658295
0.462921 0.580994 0.682007
0.605133 0.661499 0.726990
0.865051 0.705933 0.819153
0.270905 0.676300 0.712677
0.373352 0.767548 0.798035
0.554565 0.824951 0.828735
0.736115 0.897614 0.877533
0.921051 0.944519 0.884796
0.027374 0.126068 0.370331
0.037231 0.178375 0.519928
0.146515 0.169891 0.674438
0.338318 0.155884 0.734283
0.615082 0.138824 0.773376
0.046600 0.254669 0.539825
0.096222 0.339691 0.642181
0.239624 0.339691 0.685760
0.408173 0.334290 0.811462
0.682922 0.318909 0.854492
0.111725 0.372925 0.656921
0.195038 0.454285 0.717255
0.328613 0.517578 0.740417
0.498535 0.524628 0.827942
0.730133 0.530457 0.894348
0.213074 0.496613 0.748230
0.323029 0.580200 0.800171
0.467224 0.651184 0.822845
0.627014 0.730469 0.857758
0.815948 0.760162 0.939301
0.325592 0.668945 0.846222
0.475067 0.746582 0.883850
0.648987 0.810577 0.915955
0.818329 0.893860 0.952240
1.000000 1.000000 1.000000
