assets/luts/Berlin Sky.cube
# Created by: Lutify.me
# Copyright: (c) Copyright Lutify.me 2016, G.T. Colord LTD
# Website: https://lutify.me
# Contact: help@lutify.me
LUT_3D_SIZE 33
0.000000 0.000000 0.000000
0.005249 0.005249 0.009155
0.011658 0.009979 0.017731
0.023163 0.012665 0.024017
0.037292 0.014374 0.029449
0.052002 0.016113 0.034729
0.067596 0.017792 0.040192
0.083801 0.019623 0.045715
0.100342 0.021851 0.050537
0.116730 0.024841 0.054474
0.133850 0.027863 0.058472
0.151642 0.030853 0.062500
0.170197 0.033722 0.066650
0.188812 0.036713 0.070709
0.207520 0.039734 0.074738
0.226379 0.042633 0.078827
0.245880 0.045471 0.082916
0.264923 0.048401 0.086975
0.283600 0.051453 0.090912
0.303131 0.054504 0.094940
0.323608 0.057556 0.099152
0.345154 0.060638 0.103607
0.367310 0.063873 0.108002
0.390594 0.067078 0.112793
0.414642 0.070374 0.117645
0.439636 0.073669 0.122742
0.465179 0.077240 0.127869
0.491455 0.080994 0.133179
0.518829 0.084717 0.138977
0.547058 0.088409 0.144928
0.575989 0.092316 0.150909
0.605896 0.096191 0.157196
0.636475 0.100189 0.163605
0.008850 0.008942 0.014893
0.012695 0.012787 0.020325
0.019073 0.017639 0.028412
0.031860 0.019958 0.033203
0.045502 0.022156 0.037689
0.059357 0.024597 0.042175
0.073975 0.027100 0.046387
0.088989 0.029938 0.050507
0.104645 0.032898 0.054413
0.121155 0.035950 0.058350
0.138428 0.039062 0.062317
0.156311 0.042236 0.066193
0.174683 0.045349 0.070190
0.193115 0.048553 0.074158
0.211853 0.051758 0.078094
0.230804 0.054810 0.082153
0.250183 0.057800 0.086182
0.269104 0.060883 0.090118
0.287781 0.064148 0.094025
0.307251 0.067322 0.098083
0.327698 0.070618 0.102295
0.349091 0.073914 0.106659
0.371521 0.077209 0.111176
0.394623 0.080719 0.115784
0.418335 0.084320 0.120483
0.443115 0.087921 0.125427
0.468658 0.091614 0.130646
0.495087 0.095520 0.136169
0.522400 0.099426 0.141937
0.550293 0.103546 0.147614
0.579163 0.107727 0.153564
0.608795 0.111908 0.159790
0.639465 0.116180 0.166199
0.016357 0.018768 0.028534
0.020203 0.022797 0.033112
0.025757 0.026184 0.036285
0.037903 0.029236 0.039551
0.050598 0.032227 0.043060
0.063629 0.035309 0.046661
0.077576 0.038422 0.050201
0.092377 0.041595 0.053955
0.108093 0.044739 0.057709
0.124390 0.048004 0.061462
0.141754 0.051208 0.065399
0.159698 0.054535 0.069397
0.178192 0.057831 0.073395
0.196899 0.061127 0.077362
0.215790 0.064392 0.081299
0.234802 0.067657 0.085327
0.253998 0.070892 0.089325
0.273010 0.074097 0.093231
0.291748 0.077362 0.097076
0.311279 0.080719 0.101196
0.331787 0.084290 0.105499
0.353210 0.087769 0.109955
0.375488 0.091309 0.114441
0.398651 0.095001 0.119019
0.422607 0.098816 0.123901
0.447174 0.102814 0.128754
0.472748 0.106659 0.134064
0.499115 0.110596 0.139496
0.526215 0.114990 0.145111
0.554169 0.119232 0.150909
0.583160 0.123688 0.156952
0.612701 0.128174 0.163086
0.643188 0.132782 0.169434
0.017853 0.033112 0.035431
0.022369 0.037018 0.039154
0.030396 0.039429 0.041534
0.040833 0.040833 0.042938
0.053253 0.044128 0.046356
0.066528 0.047272 0.049927
0.080627 0.050507 0.053558
0.095734 0.053680 0.057281
0.111572 0.056976 0.061188
0.128265 0.060272 0.064850
0.145569 0.063660 0.068787
0.163666 0.067108 0.072845
0.182220 0.070618 0.076813
0.201050 0.074005 0.080841
0.219971 0.077576 0.084808
0.238922 0.081024 0.088806
0.258118 0.084534 0.092773
0.277283 0.087921 0.096802
0.296173 0.091339 0.100739
0.315735 0.094849 0.104828
0.336212 0.098511 0.109161
0.357666 0.102325 0.113617
0.379974 0.106232 0.118164
0.403046 0.110107 0.122742
0.427002 0.114136 0.127594
0.451782 0.118347 0.132599
0.477264 0.122498 0.137848
0.503632 0.126678 0.143311
0.530640 0.131134 0.148804
0.558685 0.135742 0.154694
0.587463 0.140442 0.160736
0.617096 0.145081 0.166870
0.647461 0.150024 0.173218
0.019104 0.048248 0.041779
0.024902 0.051666 0.045044
0.034607 0.053436 0.046936
0.045258 0.054871 0.048401
0.056335 0.056274 0.049866
0.069489 0.059692 0.053467
0.083771 0.063049 0.057159
0.098969 0.066437 0.060883
0.114899 0.069855 0.064850
0.131744 0.073334 0.068481
0.149261 0.076904 0.072479
0.167450 0.080383 0.076477
0.186066 0.084137 0.080475
0.204987 0.087830 0.084503
0.224121 0.091522 0.088531
0.243225 0.095215 0.092560
0.262604 0.098907 0.096680
0.281769 0.102570 0.100708
0.300720 0.106140 0.104706
0.320374 0.109833 0.108887
0.340881 0.113617 0.113129
0.362305 0.117676 0.117493
0.384583 0.121857 0.122070
0.407654 0.125946 0.126801
0.431671 0.130310 0.131683
0.456421 0.134552 0.136688
0.481903 0.139099 0.141937
0.508270 0.143616 0.147430
0.535431 0.148163 0.153046
0.563416 0.152832 0.158936
0.592163 0.157684 0.164886
0.621796 0.162811 0.171112
0.652130 0.167877 0.177460
0.021149 0.063751 0.048431
0.028748 0.066437 0.051117
0.038788 0.068176 0.052734
0.049622 0.069641 0.054199
0.061035 0.071075 0.055695
0.072632 0.072662 0.057159
0.086945 0.076233 0.060944
0.102264 0.079865 0.064697
0.118408 0.083496 0.068665
0.135376 0.087189 0.072601
0.153107 0.090881 0.076569
0.171387 0.094635 0.080414
0.190094 0.098450 0.084351
0.209045 0.102417 0.088348
0.228271 0.106384 0.092529
0.247589 0.110229 0.096619
0.267029 0.114197 0.100739
0.286285 0.118073 0.104797
0.305267 0.121948 0.108826
0.324982 0.125824 0.113068
0.345642 0.129852 0.117371
0.367096 0.133881 0.121796
0.389343 0.138184 0.126434
0.412476 0.142609 0.131134
0.436462 0.147095 0.135986
0.461304 0.151672 0.141083
0.486816 0.156403 0.146423
0.513153 0.161224 0.151917
0.540375 0.165894 0.157562
0.568268 0.170837 0.163391
0.597046 0.175873 0.169464
0.626709 0.180939 0.175659
0.657074 0.186188 0.182007
0.024139 0.079712 0.055328
0.032776 0.082123 0.057495
0.043152 0.083832 0.058960
0.054199 0.085358 0.060364
0.065704 0.086884 0.061859
0.077728 0.088470 0.063446
0.090271 0.090149 0.065063
0.105713 0.094055 0.068878
0.122009 0.097900 0.072754
0.139130 0.101837 0.076874
0.156921 0.105835 0.080841
0.175415 0.109802 0.084747
0.194275 0.113831 0.088745
0.213257 0.117859 0.092682
0.232574 0.121948 0.096771
0.252014 0.126068 0.100952
0.271515 0.130249 0.105072
0.290894 0.134399 0.109161
0.309967 0.138397 0.113220
0.329742 0.142487 0.117523
0.350403 0.146790 0.121887
0.371979 0.151031 0.126312
0.394287 0.155457 0.130951
0.417419 0.159943 0.135712
0.441437 0.164612 0.140594
0.466248 0.169403 0.145721
0.491791 0.174255 0.151093
0.518158 0.179230 0.156677
0.545441 0.184296 0.162384
0.573273 0.189331 0.168182
0.602020 0.194611 0.174286
0.631653 0.199951 0.180511
0.662048 0.205261 0.186859
0.027527 0.096619 0.062195
0.036896 0.098846 0.064026
0.047668 0.100494 0.065399
0.058868 0.102112 0.066925
0.070465 0.103790 0.068420
0.082764 0.105438 0.069946
0.095642 0.107208 0.071625
0.109131 0.109009 0.073395
0.125641 0.113129 0.077209
0.142914 0.117249 0.081329
0.160828 0.121490 0.085327
0.179474 0.125793 0.089264
0.198517 0.129944 0.093292
0.217743 0.134216 0.097382
0.237091 0.138428 0.101440
0.256531 0.142609 0.105408
0.276154 0.146973 0.109650
0.295624 0.151306 0.113831
0.314850 0.155548 0.117981
0.334656 0.159851 0.122314
0.355377 0.164337 0.126678
0.376862 0.168793 0.131104
0.399231 0.173401 0.135803
0.422546 0.178101 0.140686
0.446472 0.182892 0.145508
0.471252 0.187683 0.150574
0.496826 0.192719 0.155975
0.523224 0.197876 0.161560
0.550476 0.203094 0.167389
0.578400 0.208466 0.173218
0.607178 0.213898 0.179321
0.636810 0.219360 0.185577
0.667145 0.224884 0.192017
0.031250 0.114471 0.069153
0.041229 0.116516 0.070892
0.052124 0.118225 0.072266
0.063507 0.119934 0.073700
0.075256 0.121735 0.075226
0.087769 0.123535 0.076813
0.100983 0.125336 0.078522
0.114746 0.127228 0.080292
0.129272 0.129059 0.081940
0.146729 0.133453 0.085999
0.164825 0.137909 0.089996
0.183594 0.142365 0.093933
0.202698 0.146881 0.097992
0.222137 0.151245 0.102142
0.241638 0.155640 0.106232
0.261169 0.160095 0.110321
0.280884 0.164398 0.114502
0.300354 0.168823 0.118683
0.319519 0.173218 0.122894
0.339417 0.177826 0.127197
0.360199 0.182343 0.131592
0.381836 0.186981 0.136169
0.404205 0.191803 0.140869
0.427490 0.196716 0.145691
0.451599 0.201538 0.150757
0.476379 0.206635 0.155823
0.501923 0.211670 0.161163
0.528351 0.216919 0.166718
0.555542 0.222229 0.172424
0.583496 0.227814 0.178436
0.612244 0.233368 0.184540
0.641876 0.239044 0.190826
0.672272 0.244781 0.197266
0.035309 0.133118 0.076233
0.045258 0.135376 0.077972
0.056488 0.137024 0.079224
0.068054 0.138702 0.080658
0.080170 0.140533 0.082153
0.092957 0.142426 0.083801
0.106476 0.144348 0.085480
0.120605 0.146301 0.087250
0.135284 0.148285 0.089050
0.150482 0.150299 0.090851
0.168854 0.154816 0.094818
0.187714 0.159546 0.098907
0.207001 0.164215 0.102997
0.226471 0.168854 0.107147
0.246155 0.173370 0.111389
0.265778 0.178009 0.115448
0.285583 0.182617 0.119659
0.305115 0.187042 0.123779
0.324402 0.191528 0.127991
0.344299 0.196045 0.132324
0.365143 0.200836 0.136780
0.386810 0.205658 0.141418
0.409271 0.210663 0.146210
0.432495 0.215668 0.151001
0.456604 0.220734 0.156036
0.481506 0.225983 0.161255
0.507050 0.231201 0.166626
0.533447 0.236450 0.172180
0.560669 0.242035 0.177948
0.588593 0.247437 0.183777
0.617401 0.253174 0.189972
0.647034 0.258911 0.196228
0.677399 0.264832 0.202637
0.039612 0.152740 0.083221
0.049683 0.154999 0.084961
0.061035 0.156769 0.086334
0.072906 0.158447 0.087799
0.085449 0.160217 0.089233
0.098511 0.162201 0.090851
0.112183 0.164246 0.092651
0.126556 0.166290 0.094452
0.141541 0.168304 0.096252
0.156860 0.170441 0.098114
0.172852 0.172485 0.100128
0.191803 0.177216 0.104218
0.211212 0.181976 0.108307
0.230835 0.186859 0.112488
0.250519 0.191650 0.116577
0.270264 0.196381 0.120728
0.290131 0.201111 0.124908
0.309784 0.205780 0.129181
0.329163 0.210449 0.133423
0.349182 0.215088 0.137756
0.370056 0.219849 0.142181
0.391724 0.224670 0.146820
0.414215 0.229767 0.151550
0.437469 0.234894 0.156464
0.461609 0.240143 0.161469
0.486481 0.245392 0.166626
0.512085 0.250854 0.172089
0.538544 0.256348 0.177704
0.565765 0.261963 0.183533
0.593719 0.267517 0.189423
0.622528 0.273254 0.195557
0.652130 0.279053 0.201782
0.682526 0.285065 0.208221
0.043762 0.173065 0.090454
0.054108 0.175354 0.092163
0.065613 0.177185 0.093658
0.077881 0.178864 0.095062
0.090485 0.180725 0.096588
0.103943 0.182709 0.098206
0.117889 0.184875 0.099884
0.132599 0.186951 0.101776
0.147797 0.189056 0.103668
0.163330 0.191254 0.105621
0.179443 0.193359 0.107513
0.195953 0.195557 0.109558
0.215363 0.200470 0.113647
0.235107 0.205261 0.117798
0.254944 0.210083 0.122009
0.274780 0.215057 0.126129
0.294708 0.219910 0.130371
0.314423 0.224731 0.134583
0.333862 0.229492 0.138916
0.353912 0.234253 0.143311
0.374908 0.239197 0.147797
0.396637 0.244263 0.152405
0.419128 0.249329 0.157104
0.442383 0.254486 0.162018
0.466583 0.259674 0.167023
0.491486 0.265045 0.172150
0.517090 0.270599 0.177612
0.543518 0.276306 0.183289
0.570740 0.281921 0.189117
0.598816 0.287720 0.195099
0.627625 0.293549 0.201202
0.657196 0.299377 0.207489
0.687622 0.305450 0.214020
0.047821 0.194031 0.097900
0.058502 0.196259 0.099640
0.070374 0.198090 0.101044
0.082916 0.199799 0.102478
0.095764 0.201721 0.104034
0.109314 0.203735 0.105713
0.123627 0.205902 0.107361
0.138580 0.208069 0.109192
0.154083 0.210266 0.111237
0.169800 0.212555 0.113190
0.186005 0.214783 0.115051
0.202637 0.217010 0.117065
0.219696 0.219208 0.119171
0.239471 0.224213 0.123352
0.259369 0.229156 0.127594
0.279327 0.234070 0.131775
0.299286 0.238892 0.136017
0.319061 0.243774 0.140198
0.338623 0.248749 0.144440
0.358643 0.253632 0.148926
0.379608 0.258728 0.153473
0.401459 0.263794 0.158112
0.423981 0.268951 0.162842
0.447296 0.274231 0.167694
0.471497 0.279510 0.172791
0.496368 0.284973 0.177948
0.522003 0.290436 0.183411
0.548462 0.296051 0.189056
0.575714 0.301819 0.194855
0.603729 0.307709 0.200867
0.632599 0.313568 0.206970
0.662201 0.319702 0.213318
0.692627 0.325714 0.219788
0.051941 0.215302 0.105560
0.062988 0.217468 0.107208
0.075043 0.219330 0.108582
0.087799 0.221100 0.109985
0.101074 0.222992 0.111511
0.114777 0.225128 0.113251
0.129272 0.227325 0.115021
0.144562 0.229523 0.116882
0.160248 0.231842 0.118835
0.176392 0.234070 0.120880
0.192688 0.236420 0.122894
0.209320 0.238708 0.124908
0.226532 0.240997 0.126953
0.243774 0.243286 0.128998
0.263702 0.248291 0.133270
0.283752 0.253296 0.137543
0.303864 0.258301 0.141815
0.323639 0.263153 0.145996
0.343170 0.268005 0.150208
0.363342 0.273010 0.154633
0.384277 0.278015 0.159119
0.406128 0.283295 0.163818
0.428680 0.288483 0.168610
0.452118 0.293884 0.173462
0.476318 0.299377 0.178589
0.501221 0.304871 0.183777
0.526886 0.310516 0.189270
0.553375 0.316101 0.194885
0.580658 0.321960 0.200714
0.608612 0.327728 0.206696
0.637482 0.333710 0.212860
0.667145 0.339722 0.219116
0.697601 0.345856 0.225586
0.055939 0.236786 0.113159
0.067261 0.238983 0.114807
0.079681 0.240784 0.116180
0.092896 0.242523 0.117554
0.106262 0.244537 0.119171
0.120392 0.246674 0.120880
0.135010 0.248932 0.122681
0.150452 0.251190 0.124573
0.166351 0.253571 0.126556
0.182678 0.255859 0.128571
0.199341 0.258179 0.130676
0.216156 0.260498 0.132782
0.233490 0.262848 0.134857
0.250763 0.265167 0.136932
0.268066 0.267487 0.139038
0.288116 0.272583 0.143341
0.308289 0.277618 0.147675
0.328217 0.282654 0.151855
0.347778 0.287598 0.156097
0.367950 0.292603 0.160553
0.388977 0.297699 0.165039
0.410858 0.302917 0.169708
0.433472 0.308228 0.174530
0.456848 0.313477 0.179352
0.480988 0.318970 0.184387
0.505920 0.324615 0.189575
0.531677 0.330322 0.195099
0.558197 0.336060 0.200806
0.585449 0.341827 0.206573
0.613495 0.347687 0.212555
0.642334 0.353607 0.218750
0.671967 0.359802 0.225037
0.702454 0.365875 0.231506
0.059845 0.258484 0.120911
0.071381 0.260620 0.122589
0.084198 0.262360 0.123840
0.097748 0.264099 0.125275
0.111481 0.266113 0.126923
0.125824 0.268311 0.128632
0.140930 0.270538 0.130463
0.156494 0.272797 0.132324
0.172577 0.275269 0.134369
0.189056 0.277649 0.136383
0.205841 0.280060 0.138489
0.222870 0.282410 0.140564
0.240295 0.284790 0.142700
0.257690 0.287170 0.144836
0.275116 0.289490 0.147003
0.292419 0.291748 0.149170
0.312653 0.296875 0.153534
0.332642 0.301941 0.157776
0.352264 0.306946 0.161987
0.372467 0.312073 0.166443
0.393555 0.317230 0.170959
0.415466 0.322510 0.175598
0.438019 0.327820 0.180420
0.461395 0.333160 0.185303
0.485657 0.338715 0.190369
0.510559 0.344299 0.195526
0.536316 0.349884 0.201019
0.562897 0.355652 0.206757
0.590088 0.361420 0.212524
0.618164 0.367371 0.218506
0.647034 0.373352 0.224609
0.676727 0.379456 0.230957
0.707123 0.385620 0.237396
0.063477 0.280579 0.128876
0.075897 0.282349 0.130219
0.089233 0.283875 0.131470
0.102661 0.285889 0.133057
0.116882 0.287903 0.134644
0.131500 0.290131 0.136414
0.146698 0.292450 0.138275
0.162415 0.294739 0.140228
0.178680 0.297150 0.142273
0.195496 0.299561 0.144287
0.212524 0.301971 0.146393
0.229736 0.304382 0.148529
0.247009 0.306824 0.150665
0.264587 0.309265 0.152893
0.282135 0.311584 0.155090
0.299591 0.313873 0.157257
0.316895 0.316193 0.159424
0.336914 0.321167 0.163727
0.356628 0.326141 0.168030
0.376892 0.331207 0.172333
0.397980 0.336426 0.176880
0.419891 0.341736 0.181610
0.442474 0.347107 0.186310
0.465881 0.352478 0.191223
0.490204 0.358093 0.196350
0.515106 0.363586 0.201477
0.540863 0.369324 0.206940
0.567444 0.375031 0.212646
0.594727 0.380951 0.218506
0.622772 0.386749 0.224426
0.651642 0.392792 0.230499
0.681305 0.398804 0.236786
0.711700 0.404907 0.243195
0.067413 0.302246 0.136688
0.079987 0.304016 0.138123
0.093842 0.305420 0.139252
0.107574 0.307404 0.140778
0.122040 0.309479 0.142456
0.136993 0.311707 0.144257
0.152496 0.314087 0.146088
0.168427 0.316406 0.148102
0.184814 0.318787 0.150146
0.201630 0.321259 0.152222
0.218933 0.323700 0.154327
0.236359 0.326111 0.156525
0.253662 0.328613 0.158691
0.271301 0.331055 0.160889
0.289001 0.333435 0.163147
0.306580 0.335754 0.165314
0.323944 0.338043 0.167450
0.341125 0.340302 0.169647
0.360870 0.345245 0.173981
0.381226 0.350403 0.178345
0.402374 0.355591 0.182831
0.424255 0.360809 0.187469
0.446899 0.366150 0.192169
0.470276 0.371552 0.197113
0.494568 0.376953 0.202209
0.519531 0.382629 0.207397
0.545319 0.388306 0.212830
0.571930 0.394135 0.218506
0.599243 0.400085 0.224365
0.627319 0.406006 0.230377
0.656219 0.412079 0.236450
0.685913 0.418213 0.242798
0.716400 0.424561 0.249268
0.071594 0.323547 0.144470
0.084259 0.325409 0.145996
0.098328 0.326782 0.147095
0.112335 0.328735 0.148590
0.127075 0.330780 0.150238
0.142334 0.333038 0.152069
0.158051 0.335388 0.153961
0.174347 0.337769 0.155914
0.190948 0.340118 0.157990
0.207825 0.342651 0.160126
0.225281 0.345154 0.162231
0.242798 0.347595 0.164459
0.260376 0.350067 0.166718
0.277985 0.352509 0.168854
0.295837 0.354919 0.171112
0.313416 0.357300 0.173370
0.330841 0.359619 0.175476
0.348083 0.361877 0.177673
0.365021 0.364105 0.179840
0.385345 0.369202 0.184235
0.406586 0.374451 0.188812
0.428558 0.379852 0.193451
0.451233 0.385254 0.198181
0.474701 0.390839 0.203217
0.499054 0.396423 0.208405
0.524048 0.402100 0.213593
0.549866 0.407959 0.219055
0.576508 0.413849 0.224762
0.603912 0.419769 0.230560
0.632019 0.425842 0.236542
0.660980 0.432129 0.242798
0.690643 0.438354 0.249115
0.721191 0.444794 0.255676
0.075409 0.345795 0.152771
0.088745 0.347473 0.154083
0.102905 0.348907 0.155334
0.117371 0.350739 0.156708
0.132416 0.352722 0.158325
0.147888 0.355011 0.160248
0.163879 0.357391 0.162140
0.180359 0.359802 0.164154
0.197144 0.362274 0.166260
0.214233 0.364716 0.168365
0.231781 0.367279 0.170563
0.249420 0.369781 0.172791
0.267120 0.372284 0.174957
0.284882 0.374695 0.177185
0.302765 0.377106 0.179382
0.320435 0.379517 0.181610
0.337830 0.381836 0.183868
0.355164 0.384155 0.186096
0.372131 0.386383 0.188263
0.389679 0.388672 0.190582
0.410919 0.393982 0.195160
0.432922 0.399445 0.199829
0.455658 0.404999 0.204559
0.479187 0.410736 0.209595
0.503601 0.416504 0.214813
0.528717 0.422272 0.220062
0.554504 0.428162 0.225525
0.581177 0.434174 0.231262
0.608643 0.440277 0.237122
0.636810 0.446625 0.243195
0.665802 0.452789 0.249359
0.695526 0.459137 0.255768
0.726074 0.465729 0.262268
0.079681 0.368927 0.161285
0.093414 0.370544 0.162567
0.108063 0.371887 0.163757
0.122650 0.373749 0.165131
0.137787 0.375824 0.166779
0.153595 0.378082 0.168732
0.169983 0.380402 0.170624
0.186646 0.382843 0.172668
0.203461 0.385345 0.174805
0.220764 0.387848 0.176941
0.238464 0.390381 0.179169
0.256348 0.392883 0.181427
0.274170 0.395416 0.183594
0.291840 0.397858 0.185822
0.309845 0.400269 0.188049
0.327606 0.402679 0.190277
0.345062 0.405029 0.192535
0.362427 0.407349 0.194794
0.379395 0.409576 0.196960
0.397003 0.411896 0.199280
0.415405 0.414307 0.201691
0.437469 0.419891 0.206451
0.460266 0.425598 0.211273
0.483856 0.431305 0.216248
0.508240 0.437073 0.221405
0.533417 0.443054 0.226746
0.559326 0.449127 0.232300
0.585999 0.455292 0.238037
0.613525 0.461578 0.244019
0.641724 0.467926 0.250061
0.670776 0.474335 0.256287
0.700592 0.480835 0.262756
0.731110 0.487366 0.269257
0.084106 0.393097 0.170288
0.098114 0.394623 0.171478
0.113190 0.395874 0.172577
0.128052 0.397797 0.174011
0.143555 0.399811 0.175690
0.159515 0.402039 0.177582
0.175995 0.404388 0.179565
0.192993 0.406830 0.181549
0.210052 0.409363 0.183746
0.227539 0.411865 0.185944
0.245239 0.414398 0.188110
0.263397 0.416901 0.190369
0.281372 0.419434 0.192657
0.299194 0.421906 0.194885
0.317108 0.424347 0.197144
0.334961 0.426758 0.199371
0.352448 0.429138 0.201599
0.369720 0.431427 0.203857
0.386932 0.433716 0.206085
0.404633 0.436096 0.208374
0.423096 0.438477 0.210785
0.442139 0.440979 0.213348
0.465027 0.446777 0.218231
0.488647 0.452606 0.223236
0.513092 0.458588 0.228485
0.538300 0.464661 0.233856
0.564240 0.470703 0.239410
0.591003 0.477020 0.245239
0.618530 0.483307 0.251221
0.646729 0.489807 0.257324
0.675812 0.496307 0.263458
0.705688 0.502991 0.270020
0.736267 0.509674 0.276611
0.088379 0.418152 0.180054
0.102814 0.419678 0.180847
0.118073 0.421021 0.181915
0.133698 0.422668 0.183289
0.149445 0.424683 0.185028
0.165680 0.426849 0.186829
0.182281 0.429291 0.188873
0.199463 0.431732 0.190887
0.216827 0.434235 0.193054
0.234589 0.436737 0.195282
0.252319 0.439301 0.197479
0.270447 0.441803 0.199738
0.288574 0.444336 0.201996
0.306549 0.446777 0.204254
0.324585 0.449280 0.206635
0.342407 0.451721 0.208862
0.359985 0.454071 0.211090
0.377258 0.456390 0.213379
0.394531 0.458710 0.215607
0.412384 0.461090 0.217926
0.431000 0.463531 0.220367
0.450104 0.466003 0.222900
0.469818 0.468597 0.225586
0.493530 0.474609 0.230621
0.518066 0.480713 0.235901
0.543274 0.486786 0.241211
0.569275 0.493073 0.246918
0.596069 0.499329 0.252686
0.623627 0.505798 0.258667
0.651917 0.512421 0.264832
0.681061 0.519135 0.271118
0.710907 0.525848 0.277557
0.741547 0.532623 0.284210
0.092896 0.444183 0.189758
0.107819 0.445526 0.190582
0.123566 0.446716 0.191559
0.139374 0.448395 0.192932
0.155426 0.450409 0.194641
0.171814 0.452698 0.196564
0.188782 0.455048 0.198425
0.206177 0.457458 0.200623
0.223724 0.459991 0.202820
0.241608 0.462494 0.204987
0.259644 0.465027 0.207214
0.277710 0.467621 0.209503
0.296021 0.470093 0.211823
0.314117 0.472565 0.214111
0.332092 0.475037 0.216370
0.350037 0.477509 0.218658
0.367584 0.479858 0.220947
0.384857 0.482178 0.223236
0.402374 0.484497 0.225494
0.420380 0.486908 0.227875
0.438995 0.489380 0.230347
0.458252 0.491913 0.232849
0.478119 0.494537 0.235504
0.498505 0.497223 0.238312
0.523102 0.503296 0.243561
0.548401 0.509613 0.248901
0.574402 0.515991 0.254608
0.601257 0.522430 0.260498
0.628906 0.529114 0.266541
0.657288 0.535858 0.272705
0.686401 0.542450 0.279022
0.716339 0.549347 0.285492
0.747040 0.556274 0.292114
0.097504 0.471191 0.200073
0.113159 0.472260 0.200623
0.129120 0.473511 0.201721
0.145142 0.475250 0.203094
0.161652 0.477203 0.204712
0.178345 0.479401 0.206573
0.195526 0.481659 0.208557
0.212982 0.484131 0.210693
0.230865 0.486633 0.212891
0.248932 0.489197 0.215149
0.267120 0.491730 0.217407
0.285278 0.494232 0.219666
0.303680 0.496826 0.221954
0.321960 0.499329 0.224304
0.339905 0.501740 0.226562
0.357880 0.504181 0.228851
0.375580 0.506561 0.231140
0.392761 0.508881 0.233398
0.410400 0.511230 0.235718
0.428589 0.513672 0.238129
0.447205 0.516174 0.240601
0.466644 0.518738 0.243225
0.486633 0.521393 0.245880
0.507019 0.524048 0.248627
0.528259 0.526855 0.251648
0.553650 0.533142 0.257080
0.579712 0.539642 0.262787
0.606567 0.546265 0.268707
0.634277 0.552917 0.274719
0.662720 0.559692 0.280945
0.691864 0.566559 0.287262
0.721771 0.573486 0.293701
0.752563 0.580536 0.300415
0.102295 0.498840 0.211578
0.118225 0.500031 0.211243
0.134827 0.501129 0.212158
0.151245 0.502808 0.213623
0.167938 0.504761 0.215240
0.185089 0.506927 0.217072
0.202484 0.509216 0.219086
0.220032 0.511688 0.221191
0.238190 0.514130 0.223389
0.256409 0.516693 0.225647
0.274658 0.519226 0.227936
0.293060 0.521729 0.230194
0.311462 0.524323 0.232544
0.329803 0.526825 0.234894
0.347900 0.529297 0.237213
0.365875 0.531738 0.239502
0.383514 0.534088 0.241791
0.400848 0.536438 0.244080
0.418549 0.538818 0.246368
0.436798 0.541260 0.248810
0.455627 0.543793 0.251312
0.475220 0.546417 0.253967
0.495148 0.549042 0.256653
0.515778 0.551758 0.259460
0.537018 0.554565 0.262451
0.558960 0.557434 0.265472
0.585083 0.563873 0.271179
0.612030 0.570679 0.277130
0.639709 0.577362 0.283142
0.668182 0.584290 0.289429
0.697449 0.591187 0.295776
0.727417 0.598358 0.302338
0.758209 0.605499 0.309082
0.107483 0.527374 0.223206
0.123566 0.528595 0.222382
0.140594 0.529602 0.223236
0.157471 0.531250 0.224609
0.174500 0.533142 0.226288
0.191895 0.535370 0.228119
0.209503 0.537628 0.230133
0.227386 0.540100 0.232269
0.245483 0.542542 0.234497
0.264069 0.545074 0.236725
0.282379 0.547668 0.239014
0.300934 0.550171 0.241333
0.319336 0.552673 0.243652
0.337799 0.555237 0.246063
0.356018 0.557709 0.248413
0.373901 0.560181 0.250671
0.391724 0.562561 0.252991
0.409058 0.564880 0.255280
0.426910 0.567261 0.257629
0.445221 0.569733 0.260040
0.464172 0.572235 0.262573
0.483704 0.574921 0.265228
0.503998 0.577606 0.268005
0.524658 0.580322 0.270782
0.546021 0.583130 0.273773
