assets/luts/Black and White.cube
# Created by Adobe Lightroom plugin Export LUT (1.18.0)
# www.johnrellis.com/lightroom/exportlut.htm
# Preset: Catch-A-Fire_Free-Lookfilter
# Color profile: /Library/Application Support/Adobe/Color/Profiles/Recommended/AdobeRGB1998.icc
LUT_3D_SIZE 8
DOMAIN_MIN 0.000000 0.000000 0.000000
DOMAIN_MAX 0.903226 0.903226 0.903226
0.142824 0.133608 0.164614
0.153506 0.143465 0.176303
0.182956 0.171176 0.208499
0.245548 0.229740 0.273472
0.347417 0.325078 0.368322
0.502556 0.471809 0.489998
0.660273 0.626307 0.609125
0.778653 0.748409 0.714199
0.168429 0.157656 0.192813
0.175601 0.164370 0.200534
0.194217 0.181704 0.220493
0.255650 0.239170 0.283604
0.354437 0.331640 0.374273
0.501366 0.470649 0.489113
0.653925 0.619959 0.604059
0.775814 0.745388 0.711391
0.263890 0.246891 0.291661
0.273686 0.256077 0.301183
0.295842 0.276768 0.322087
0.328191 0.307073 0.351568
0.411872 0.385687 0.421363
0.550805 0.518303 0.525444
0.694362 0.660914 0.637354
0.797299 0.768215 0.732845
0.443763 0.415839 0.446052
0.450721 0.422370 0.451331
0.481147 0.451331 0.474159
0.533684 0.501732 0.512871
0.594995 0.561456 0.558373
0.630426 0.596460 0.585504
0.732204 0.699733 0.670405
0.814878 0.787076 0.751125
0.645960 0.612024 0.597711
0.649989 0.616052 0.600916
0.667414 0.633539 0.614954
0.694881 0.661372 0.637781
0.713832 0.680812 0.654139
0.753323 0.721736 0.689845
0.785183 0.755337 0.720668
0.834165 0.808011 0.772000
0.774350 0.743832 0.709957
0.781155 0.751034 0.716640
0.787808 0.758114 0.723262
0.799985 0.771084 0.735561
0.810391 0.782254 0.746395
0.822049 0.794858 0.758785
0.850614 0.826017 0.790463
0.869657 0.847135 0.812833
0.853391 0.829068 0.793668
0.854643 0.830472 0.795132
0.856413 0.832425 0.797177
0.860655 0.837095 0.802152
0.866026 0.843076 0.808469
0.870817 0.848386 0.814206
0.876524 0.854734 0.821073
0.890013 0.869932 0.837797
0.890013 0.869963 0.837827
0.890227 0.870176 0.838071
0.891203 0.871275 0.839292
0.893278 0.873625 0.841917
0.893980 0.874418 0.842832
0.897063 0.877897 0.846769
0.899962 0.881193 0.850492
0.902617 0.884215 0.853910
0.148165 0.138582 0.170321
0.151156 0.141421 0.173770
0.186435 0.174502 0.212284
0.256352 0.239841 0.284306
0.354437 0.331640 0.374273
0.495613 0.465187 0.484871
0.646235 0.612268 0.597894
0.769131 0.738338 0.704891
0.161044 0.150698 0.184665
0.170596 0.159731 0.195132
0.203952 0.190768 0.230777
0.267765 0.250553 0.295476
0.364355 0.340978 0.382696
0.501152 0.470466 0.488991
0.643671 0.609735 0.595880
0.765896 0.734920 0.701778
0.250828 0.234623 0.278782
0.259953 0.243168 0.287785
0.284672 0.266331 0.311589
0.319554 0.298985 0.343816
0.413916 0.387579 0.422980
0.542107 0.509911 0.519066
0.675532 0.641749 0.621576
0.785550 0.755703 0.721004
0.423072 0.396277 0.430152
0.431464 0.404181 0.436622
0.465278 0.436194 0.462287
0.504662 0.473823 0.491585
0.558618 0.525902 0.531243
0.605005 0.571313 0.565911
0.712612 0.679561 0.653071
0.804379 0.775814 0.740139
0.635157 0.601221 0.589166
0.638117 0.604181 0.591516
0.653437 0.619501 0.603662
0.677546 0.643793 0.623255
0.695430 0.661982 0.638270
0.738582 0.706386 0.676234
0.774166 0.743648 0.709804
0.829129 0.802548 0.766476
0.765469 0.734463 0.701350
0.767758 0.736904 0.703609
0.775387 0.744900 0.710933
0.789883 0.760311 0.725338
0.803555 0.774929 0.739284
0.817990 0.790433 0.754421
0.847440 0.822538 0.786862
0.866941 0.844053 0.809537
0.847929 0.823056 0.787442
0.848020 0.823148 0.787533
0.850675 0.826078 0.790555
0.856474 0.832486 0.797269
0.863249 0.839994 0.805203
0.868284 0.845579 0.811154
0.873747 0.851652 0.817716
0.887907 0.867552 0.835111
0.888548 0.868284 0.835935
0.888945 0.868742 0.836454
0.890074 0.869993 0.837888
0.892332 0.872557 0.840757
0.894835 0.875364 0.843900
0.897307 0.878202 0.847074
0.899626 0.880827 0.850034
0.902068 0.883604 0.853208
0.160922 0.150576 0.184573
0.163455 0.152895 0.187259
0.179568 0.168032 0.204898
0.246586 0.230686 0.274571
0.364813 0.341405 0.383093
0.532647 0.500755 0.512078
0.672084 0.638270 0.618769
0.781735 0.751675 0.717220
0.181369 0.169741 0.206790
0.188205 0.175998 0.214023
0.200015 0.187228 0.226688
0.269047 0.251743 0.296666
0.386847 0.362097 0.401282
0.537102 0.505028 0.515373
0.671595 0.637751 0.618372
0.781674 0.751614 0.717159
0.226352 0.211917 0.254215
0.237491 0.222232 0.265415
0.271000 0.253483 0.298558
0.341650 0.319646 0.363287
0.452216 0.423774 0.452461
0.572992 0.539879 0.541863
0.693538 0.659998 0.636652
0.792905 0.763546 0.728420
0.402808 0.377142 0.414160
0.412421 0.386175 0.421759
0.447364 0.419226 0.448768
0.494881 0.464454 0.484321
0.549706 0.517266 0.524681
0.630304 0.596338 0.585382
0.729213 0.696681 0.667750
0.812558 0.784573 0.748684
0.618769 0.584894 0.576440
0.623987 0.590082 0.580468
0.641505 0.607538 0.594171
0.672877 0.639063 0.619409
0.693751 0.660243 0.636835
0.734401 0.702052 0.672419
0.771420 0.740719 0.707088
0.833371 0.807126 0.771115
0.758511 0.727169 0.694759
0.760922 0.729702 0.697017
0.768032 0.737209 0.703853
0.781704 0.751614 0.717159
0.797055 0.767941 0.732601
0.811978 0.783963 0.748074
0.843473 0.818173 0.782376
0.865965 0.843015 0.808408
0.846708 0.821744 0.786038
0.847074 0.822110 0.786435
0.849058 0.824308 0.788693
0.854002 0.829740 0.794369
0.860807 0.837278 0.802304
0.867124 0.844297 0.809781
0.873960 0.851896 0.817960
0.888731 0.868498 0.836210
0.887877 0.867521 0.835080
0.887938 0.867582 0.835203
0.888914 0.868681 0.836393
0.891661 0.871794 0.839872
0.894163 0.874601 0.843046
0.897063 0.877928 0.846769
0.899596 0.880797 0.850034
0.902281 0.883818 0.853452
0.185122 0.173159 0.210819
0.189456 0.177279 0.215549
0.200992 0.187991 0.227634
0.233433 0.218418 0.261357
0.331334 0.309972 0.354223
0.493812 0.463416 0.483558
0.656153 0.622187 0.605829
0.779232 0.749020 0.714748
0.216190 0.202304 0.243565
0.218753 0.204654 0.246189
0.226230 0.211612 0.254002
0.255436 0.238956 0.283330
0.354742 0.331945 0.374548
0.512016 0.480903 0.496956
0.665034 0.631159 0.613001
0.783413 0.753445 0.718898
0.256931 0.240360 0.284794
0.268376 0.251102 0.295995
0.306493 0.286778 0.331975
0.329229 0.308019 0.352422
0.442084 0.414221 0.444770
0.583825 0.550500 0.549981
0.714443 0.681422 0.654658
0.802579 0.773892 0.738308
0.356603 0.333715 0.376165
0.367651 0.344060 0.385443
0.405249 0.379461 0.416144
0.468299 0.439094 0.464576
0.557488 0.524773 0.530358
0.649531 0.615595 0.600580
0.740169 0.708064 0.677668
0.818418 0.790921 0.754910
0.596155 0.562585 0.559228
0.600031 0.566430 0.562158
0.617792 0.583978 0.575708
0.652338 0.618372 0.602777
0.683619 0.649928 0.628321
0.723781 0.691035 0.662867
0.779141 0.748928 0.714656
0.838621 0.812894 0.776944
0.750912 0.719173 0.687587
0.756985 0.725582 0.693294
0.763027 0.731930 0.699031
0.776730 0.746334 0.712276
0.795926 0.766751 0.731441
0.809628 0.781460 0.745602
0.840146 0.814542 0.778622
0.863279 0.839994 0.805203
0.842588 0.817197 0.781338
0.843809 0.818509 0.782742
0.847288 0.822385 0.786709
0.853178 0.828824 0.793423
0.860380 0.836790 0.801816
0.867277 0.844450 0.809934
0.873411 0.851255 0.817319
0.888151 0.867826 0.835447
0.887388 0.866972 0.834501
0.887785 0.867399 0.835019
0.888792 0.868559 0.836271
0.890776 0.870787 0.838773
0.893339 0.873716 0.842008
0.896574 0.877379 0.846159
0.899413 0.880583 0.849790
0.902281 0.883848 0.853513
0.229129 0.214481 0.256962
0.233524 0.218509 0.261418
0.245151 0.229435 0.273228
0.261875 0.244999 0.289738
0.320165 0.299535 0.344366
0.455085 0.426551 0.454627
0.622309 0.588464 0.579187
0.762631 0.731502 0.698665
0.261326 0.244511 0.289158
0.264897 0.247898 0.292638
0.273167 0.255589 0.300633
0.285801 0.267369 0.312688
0.341863 0.319890 0.363470
0.476143 0.446571 0.470466
0.636530 0.602594 0.590265
0.768734 0.737942 0.704524
0.328588 0.307469 0.351843
0.346349 0.324102 0.367376
0.356909 0.333959 0.376410
0.370001 0.346288 0.387427
0.415045 0.388647 0.423835
0.535760 0.503716 0.514397
0.675685 0.641901 0.621729
0.785794 0.755978 0.721248
0.400000 0.374456 0.411902
0.411078 0.384894 0.420691
0.449378 0.421149 0.450355
0.512352 0.481239 0.497230
0.536584 0.504540 0.515007
0.631983 0.598016 0.586694
0.733944 0.701564 0.672023
0.816220 0.788540 0.752560
0.534600 0.502678 0.513573
0.542901 0.510643 0.519646
0.568139 0.535149 0.538262
0.608362 0.574640 0.568505
0.655482 0.621515 0.605280
0.718013 0.685084 0.657771
0.782071 0.752010 0.717525
0.839078 0.813352 0.777462
0.723445 0.690669 0.662593
0.726101 0.693416 0.664942
0.733700 0.701289 0.671778
0.749386 0.717617 0.686152
0.771695 0.741054 0.707393
0.796628 0.767483 0.732174
0.829618 0.803067 0.766995
0.860472 0.836912 0.801907
0.833738 0.807553 0.771542
0.834379 0.808225 0.772213
0.837583 0.811765 0.775784
0.844327 0.819120 0.783352
0.853513 0.829221 0.793820
0.863523 0.840269 0.805478
0.870207 0.847715 0.813474
0.885344 0.864652 0.831968
0.883879 0.863005 0.830137
0.884154 0.863310 0.830442
0.885222 0.864500 0.831785
0.888487 0.868223 0.835904
0.891447 0.871550 0.839628
0.895018 0.875608 0.844144
0.898466 0.879515 0.848569
0.901518 0.882963 0.852476
0.301335 0.281956 0.327245
0.305180 0.285496 0.330694
0.314794 0.294560 0.339544
0.333349 0.311894 0.356023
0.359747 0.336645 0.378820
0.441138 0.413306 0.444038
0.595178 0.561669 0.558495
0.739925 0.707759 0.677455
0.329168 0.307958 0.352392
0.331518 0.310185 0.354467
0.339483 0.317632 0.361395
0.355932 0.333074 0.375555
0.378210 0.354070 0.394263
0.458045 0.429328 0.456886
0.606256 0.572564 0.566918
0.745418 0.713466 0.682490
0.425727 0.398688 0.432166
0.427283 0.400214 0.433417
0.433936 0.406470 0.438514
0.445716 0.417609 0.447547
0.459815 0.431037 0.458228
0.524743 0.493080 0.506279
0.651301 0.617365 0.601953
0.768795 0.737972 0.704555
0.479347 0.449622 0.472847
0.493812 0.463416 0.483558
0.543633 0.511315 0.520165
0.577234 0.544060 0.545037
0.586725 0.553338 0.552148
0.623560 0.589685 0.580163
0.715938 0.682948 0.655970
0.804288 0.775723 0.740047
0.583978 0.550652 0.550072
0.590936 0.557488 0.555291
0.613642 0.579858 0.572534
0.649165 0.615167 0.600214
0.691127 0.657588 0.634607
0.705776 0.672541 0.647089
0.770962 0.740261 0.706661
0.835172 0.809110 0.773098
0.688746 0.655146 0.632593
0.694423 0.660914 0.637415
0.707698 0.674525 0.648768
0.728054 0.695460 0.666682
0.752560 0.720943 0.689143
0.785428 0.755550 0.720851
0.827909 0.801175 0.765103
0.862943 0.839628 0.804807
0.821744 0.794522 0.758480
0.824186 0.797147 0.761074
0.829831 0.803281 0.767239
0.837583 0.811734 0.775753
0.846860 0.821897 0.786221
0.858244 0.834470 0.799313
0.867948 0.845212 0.810758
0.882689 0.861692 0.828672
0.880949 0.859739 0.826535
0.881193 0.860014 0.826810
0.882353 0.861295 0.828244
0.885039 0.864317 0.831571
0.888487 0.868223 0.835874
0.892821 0.873106 0.841337
0.897581 0.878477 0.847410
0.900847 0.882231 0.851652
0.407996 0.381964 0.418250
0.411872 0.385687 0.421363
0.422217 0.395453 0.429450
0.438209 0.410529 0.441840
0.456092 0.427497 0.455421
0.494392 0.463966 0.483986
0.576013 0.542840 0.544121
0.717952 0.685054 0.657740
0.436866 0.409308 0.440803
0.439826 0.412055 0.443030
0.447852 0.419684 0.449165
0.460456 0.431617 0.458717
0.476295 0.446693 0.470558
0.509941 0.478859 0.495430
0.586908 0.553552 0.552300
0.722835 0.690059 0.662043
0.524163 0.492561 0.505852
0.525292 0.493690 0.506706
0.529412 0.497627 0.509758
0.536889 0.504814 0.515190
0.546410 0.514061 0.522210
0.566735 0.533776 0.537255
0.632624 0.598688 0.587182
0.747890 0.716060 0.684779
0.600702 0.567071 0.562676
0.610132 0.576410 0.569848
0.633173 0.599176 0.587610
0.637018 0.603052 0.590631
0.641871 0.607904 0.594476
0.648585 0.614649 0.599786
0.696010 0.662562 0.638758
0.782834 0.752834 0.718318
0.650507 0.616541 0.601312
0.654810 0.620844 0.604730
0.669398 0.635554 0.616571
0.707485 0.674281 0.648585
0.728511 0.695949 0.667140
0.731228 0.698787 0.669581
0.755856 0.724392 0.692256
0.819974 0.792569 0.756527
0.736568 0.704280 0.674372
0.739284 0.707118 0.676875
0.748379 0.716548 0.685237
0.762631 0.731502 0.698634
0.780575 0.750393 0.716060
0.806729 0.778317 0.742580
0.816922 0.789273 0.753292
0.855161 0.831052 0.795743
0.804623 0.776059 0.740383
0.806394 0.777981 0.742245
0.811795 0.783749 0.747890
0.820584 0.793271 0.757198
0.831968 0.805600 0.769558
0.845945 0.820890 0.785183
0.861936 0.838529 0.803616
0.881437 0.860288 0.827146
0.873014 0.850858 0.816831
0.873716 0.851621 0.817655
0.876310 0.854520 0.820829
0.880278 0.858976 0.825681
0.884977 0.864256 0.831510
0.889769 0.869657 0.837491
0.895262 0.875853 0.844450
0.899901 0.881132 0.850401
0.576257 0.543114 0.544335
0.578088 0.544884 0.545678
0.582605 0.549279 0.549035
0.590723 0.557244 0.555108
0.600580 0.566949 0.562554
0.611322 0.577569 0.570764
0.652796 0.618830 0.603143
0.714961 0.681941 0.655085
0.595117 0.561578 0.558404
0.596551 0.562982 0.559533
0.600244 0.566613 0.562310
0.606683 0.572992 0.567224
0.615167 0.581384 0.573693
0.624598 0.590723 0.580987
0.661952 0.628046 0.610529
0.720821 0.688014 0.660273
0.651423 0.617487 0.602045
0.652155 0.618189 0.602625
0.653681 0.619715 0.603845
0.658473 0.624537 0.607691
0.663172 0.629267 0.611505
0.668360 0.634516 0.615747
0.693538 0.660060 0.636652
0.742824 0.710780 0.680110
0.720058 0.687190 0.659571
0.720455 0.687617 0.659937
0.720912 0.688045 0.660334
0.722469 0.689693 0.661738
0.724361 0.691676 0.663416
0.726314 0.693690 0.665156
0.737636 0.705379 0.675349
0.776211 0.745815 0.711788
0.739834 0.707698 0.677394
0.744594 0.712642 0.681758
0.759304 0.727993 0.695491
0.781888 0.751797 0.717342
0.782071 0.752010 0.717525
0.782620 0.752621 0.718105
0.784665 0.754757 0.720119
0.814206 0.786374 0.750423
0.793057 0.763699 0.728511
0.794125 0.764828 0.729610
0.797848 0.768795 0.733394
0.803769 0.775174 0.739498
0.820920 0.793637 0.757595
0.834470 0.808316 0.772305
0.836484 0.810544 0.774563
0.850614 0.826017 0.790463
0.842252 0.816831 0.780972
0.842863 0.817533 0.781704
0.845029 0.819913 0.784146
0.848997 0.824216 0.788632
0.854612 0.830442 0.795102
0.861997 0.838590 0.803708
0.873503 0.851377 0.817441
0.878325 0.856779 0.823301
0.872709 0.850523 0.816464
0.873075 0.850919 0.816892
0.874449 0.852445 0.818570
0.877012 0.855314 0.821683
0.880644 0.859403 0.826139
0.885405 0.864714 0.831998
0.891295 0.871397 0.839445
0.898314 0.879332 0.848386
