assets/luts/Black and White.cube
# Created by Adobe Lightroom plugin Export LUT (1.18.0)
# www.johnrellis.com/lightroom/exportlut.htm
# Preset: Catch-A-Fire_Free-Lookfilter
# Color profile: /Library/Application Support/Adobe/Color/Profiles/Recommended/AdobeRGB1998.icc
LUT_3D_SIZE 32
DOMAIN_MIN 0.0 0.0 0.0
DOMAIN_MAX 1.0 1.0 1.0
0.142824 0.133608 0.164614
0.143954 0.134676 0.165713
0.145296 0.135988 0.167300
0.148714 0.139010 0.170932
0.153506 0.143465 0.176303
0.158999 0.148745 0.182376
0.165438 0.154788 0.189487
0.173281 0.162112 0.198062
0.182956 0.171176 0.208499
0.194705 0.182101 0.221042
0.208927 0.195499 0.235996
0.225803 0.211276 0.253635
0.245548 0.229740 0.273472
0.267826 0.250614 0.295537
0.292424 0.273594 0.318914
0.318883 0.298405 0.343206
0.347417 0.325078 0.368322
0.378271 0.354101 0.394324
0.411536 0.385382 0.421088
0.456550 0.427893 0.455756
0.502556 0.471809 0.489998
0.545861 0.513512 0.521843
0.586084 0.552728 0.551659
0.624292 0.590417 0.580713
0.660273 0.626307 0.609125
0.693111 0.659602 0.636286
0.723262 0.690486 0.662409
0.751583 0.719936 0.688228
0.778653 0.748409 0.714199
0.803647 0.775021 0.739376
0.825559 0.798672 0.762570
0.843961 0.818692 0.782895
0.145327 0.135988 0.167178
0.145998 0.136568 0.168032
0.146761 0.137484 0.169009
0.149874 0.140139 0.172213
0.154635 0.144747 0.177554
0.160098 0.149813 0.183444
0.166476 0.155795 0.190616
0.174289 0.163058 0.199039
0.183780 0.171969 0.209323
0.195438 0.182956 0.221897
0.209445 0.195987 0.236576
0.226139 0.211643 0.253910
0.245670 0.229923 0.273686
0.267765 0.250553 0.295476
0.291936 0.273136 0.318456
0.318120 0.297642 0.342504
0.346319 0.324041 0.367346
0.376806 0.352667 0.393072
0.409766 0.383703 0.419684
0.453834 0.425360 0.453742
0.498695 0.468116 0.487160
0.541314 0.509117 0.518486
0.581262 0.547936 0.548028
0.619257 0.585382 0.576837
0.655482 0.621515 0.605280
0.688869 0.655299 0.632715
0.719570 0.686671 0.659144
0.748379 0.716548 0.685237
0.775875 0.745449 0.711452
0.801358 0.772580 0.737026
0.823789 0.796689 0.760616
0.842557 0.817166 0.781338
0.148257 0.138735 0.170565
0.149203 0.139590 0.171633
0.149844 0.140322 0.172335
0.152438 0.142672 0.175265
0.156252 0.146212 0.179355
0.161654 0.151217 0.185306
0.168002 0.157137 0.192172
0.175601 0.164370 0.200534
0.185245 0.173281 0.210910
0.196719 0.184085 0.223209
0.210697 0.197116 0.237949
0.227359 0.212741 0.255161
0.246799 0.230930 0.274754
0.268864 0.251530 0.296422
0.292790 0.273991 0.319280
0.318791 0.298283 0.343114
0.346807 0.324529 0.367803
0.377020 0.352850 0.393256
0.409888 0.383795 0.419776
0.453651 0.425177 0.453559
0.497810 0.467292 0.486519
0.540032 0.507866 0.517510
0.579644 0.546380 0.546838
0.617426 0.583581 0.575433
0.653681 0.619715 0.603845
0.687129 0.653498 0.631250
0.718013 0.685115 0.657801
0.747005 0.715145 0.683955
0.774716 0.744228 0.710323
0.800381 0.771542 0.736049
0.822965 0.795834 0.759762
0.841917 0.816464 0.780636
0.156374 0.146365 0.179599
0.157382 0.147311 0.180606
0.158633 0.148348 0.181918
0.160342 0.149905 0.183810
0.163790 0.153262 0.187655
0.165316 0.154665 0.189364
0.171633 0.160555 0.196170
0.179263 0.167697 0.204501
0.188785 0.176669 0.214633
0.200290 0.187411 0.227024
0.214389 0.200565 0.241703
0.231022 0.216068 0.258793
0.250340 0.234165 0.278264
0.272038 0.254551 0.299565
0.295842 0.276768 0.322087
0.321569 0.300877 0.345556
0.349279 0.326848 0.369909
0.379309 0.354986 0.395117
0.413092 0.386786 0.422278
0.454810 0.426307 0.454475
0.497230 0.466682 0.486061
0.538354 0.506249 0.516320
0.577691 0.544488 0.545373
0.615778 0.581964 0.574151
0.652796 0.618830 0.603143
0.687190 0.653590 0.631312
0.718593 0.685695 0.658320
0.747860 0.716030 0.684749
0.775509 0.745083 0.711116
0.800961 0.772122 0.736599
0.823209 0.796078 0.760006
0.841855 0.816434 0.780545
0.168429 0.157656 0.192813
0.169497 0.158633 0.193820
0.170718 0.159701 0.195254
0.173037 0.161990 0.197879
0.175601 0.164370 0.200534
0.180209 0.168734 0.205570
0.180728 0.169192 0.206119
0.184787 0.172976 0.210544
0.194217 0.181704 0.220493
0.205844 0.192630 0.232853
0.219760 0.205661 0.247349
0.236393 0.221256 0.264378
0.255650 0.239170 0.283604
0.277165 0.259373 0.304479
0.300786 0.281468 0.326757
0.326574 0.305577 0.350072
0.354437 0.331640 0.374273
0.384466 0.359838 0.399329
0.420081 0.393439 0.427802
0.460456 0.431617 0.458717
0.501366 0.470649 0.489113
0.541192 0.509026 0.518395
0.579614 0.546349 0.546777
0.617182 0.583368 0.575250
0.653925 0.619959 0.604059
0.688106 0.654505 0.632074
0.719295 0.686458 0.658930
0.748348 0.716548 0.685206
0.775814 0.745388 0.711391
0.801083 0.772274 0.736721
0.823239 0.796139 0.760067
0.841855 0.816434 0.780545
0.184421 0.172519 0.209964
0.185428 0.173495 0.211185
0.186709 0.174838 0.212650
0.189670 0.177523 0.215640
0.192660 0.180240 0.218845
0.196078 0.183352 0.222416
0.203281 0.190188 0.230137
0.203098 0.190097 0.229953
0.204746 0.191562 0.231693
0.214298 0.200443 0.241642
0.228428 0.213687 0.256260
0.245090 0.229374 0.273075
0.264225 0.247257 0.292027
0.285679 0.267247 0.312505
0.309087 0.289250 0.334325
0.334752 0.313268 0.357305
0.362615 0.339330 0.381231
0.392676 0.367620 0.406073
0.430335 0.403113 0.435737
0.469642 0.440375 0.465614
0.509606 0.478584 0.495216
0.548669 0.516258 0.523919
0.621729 0.587854 0.578759
0.657710 0.623804 0.607111
0.690028 0.656489 0.633692
0.719112 0.686244 0.658747
0.745907 0.714015 0.682948
0.771298 0.740597 0.706996
0.795010 0.765774 0.730526
0.816403 0.788754 0.752773
0.834836 0.808713 0.772732
0.850278 0.825650 0.790127
0.207370 0.194064 0.234470
0.208377 0.194919 0.235447
0.209812 0.196384 0.236973
0.212863 0.199283 0.240238
0.217838 0.203738 0.245274
0.221012 0.206821 0.248631
0.225345 0.210849 0.253025
0.237095 0.221897 0.265080
0.236667 0.221408 0.264591
0.238865 0.223514 0.266880
0.244053 0.228336 0.272007
0.261265 0.244419 0.289097
0.280705 0.262669 0.307866
0.302251 0.282750 0.327977
0.325597 0.304662 0.349187
0.350896 0.328374 0.371283
0.378515 0.354223 0.394476
0.412299 0.386053 0.421668
0.450721 0.422370 0.451331
0.490761 0.460517 0.481300
0.531701 0.499855 0.511406
0.572534 0.539452 0.541527
0.613031 0.579278 0.572076
0.652338 0.618402 0.602808
0.687770 0.654170 0.631769
0.718379 0.685481 0.658106
0.745785 0.713893 0.682856
0.771298 0.740597 0.706996
0.795010 0.765774 0.730526
0.816220 0.788540 0.752560
0.834562 0.808438 0.772427
0.850004 0.825345 0.789792
0.232975 0.218021 0.260838
0.233921 0.218845 0.261784
0.235325 0.220157 0.263249
0.238193 0.222873 0.266178
0.243076 0.227359 0.271000
0.248264 0.232334 0.276280
0.252293 0.235996 0.280217
0.257359 0.240726 0.285252
0.274144 0.256565 0.301671
0.274418 0.256748 0.301823
0.277287 0.259434 0.304601
0.282200 0.264012 0.309270
0.293950 0.274998 0.320348
0.315099 0.294804 0.339757
0.338109 0.316411 0.360204
0.363043 0.339788 0.381598
0.392248 0.367224 0.405707
0.427100 0.400000 0.433204
0.463142 0.434150 0.460731
0.500999 0.470283 0.488838
0.539666 0.507500 0.517266
0.578546 0.545342 0.546014
0.617487 0.583673 0.575494
0.655421 0.621485 0.605249
0.689754 0.656184 0.633448
0.719692 0.686854 0.659297
0.746700 0.714839 0.683680
0.772000 0.741360 0.707637
0.795499 0.766293 0.731044
0.816587 0.788937 0.752926
0.834836 0.808713 0.772702
0.850187 0.825559 0.790005
0.263890 0.246891 0.291661
0.264866 0.247745 0.292576
0.266209 0.249027 0.293858
0.268986 0.251682 0.296605
0.273686 0.256077 0.301183
0.279759 0.261723 0.306950
0.284886 0.266606 0.311894
0.289830 0.271244 0.316503
0.295842 0.276768 0.322087
0.313848 0.293614 0.338628
0.319829 0.299260 0.344060
0.323033 0.302220 0.346899
0.328191 0.307073 0.351568
0.334752 0.313268 0.357305
0.354101 0.331395 0.373999
0.380194 0.355901 0.395880
0.411872 0.385687 0.421363
0.444862 0.416846 0.446876
0.478767 0.449104 0.472389
0.514397 0.483162 0.498695
0.550805 0.518303 0.525444
0.587884 0.554467 0.552972
0.625208 0.591302 0.581445
0.661524 0.627649 0.610193
0.694362 0.660914 0.637354
0.723262 0.690517 0.662440
0.749599 0.717861 0.686397
0.774319 0.743801 0.709926
0.797299 0.768215 0.732845
0.817868 0.790311 0.754330
0.835691 0.809689 0.773678
0.850797 0.826230 0.790707
0.299779 0.280522 0.325780
0.300694 0.281315 0.326604
0.301884 0.282444 0.327672
0.304570 0.284947 0.330175
0.308934 0.289067 0.334173
0.314733 0.294499 0.339483
0.322271 0.301488 0.346227
0.326970 0.305974 0.350408
0.332799 0.311406 0.355596
0.339727 0.317906 0.361700
0.357061 0.334142 0.376532
0.370611 0.346868 0.387945
0.374517 0.350530 0.391180
0.380011 0.355688 0.395758
0.389624 0.364721 0.403571
0.403876 0.378149 0.415045
0.434516 0.407080 0.439002
0.466194 0.437049 0.463020
0.498482 0.467872 0.486976
0.531456 0.499641 0.511254
0.565148 0.532219 0.536034
0.599329 0.565728 0.561608
0.633936 0.600000 0.588220
0.667414 0.633570 0.614954
0.698238 0.664851 0.640650
0.726070 0.693416 0.664912
0.751949 0.720302 0.688563
0.776486 0.746090 0.712032
0.799313 0.770352 0.734920
0.819760 0.792355 0.756313
0.837369 0.811460 0.775540
0.852232 0.827817 0.792355
0.338994 0.317266 0.361028
0.340002 0.318181 0.361883
0.341222 0.319280 0.362951
0.343938 0.321904 0.365332
0.348241 0.325872 0.368994
0.354253 0.331487 0.374151
0.361944 0.338689 0.380682
0.369757 0.346105 0.387274
0.375586 0.351537 0.392065
0.382635 0.358129 0.397894
0.390600 0.365637 0.404364
0.406409 0.380499 0.416999
0.430213 0.402991 0.435676
0.437781 0.410132 0.441474
0.446509 0.418402 0.448127
0.456214 0.427588 0.455512
0.466804 0.437690 0.463508
0.486549 0.456458 0.478157
0.516350 0.485023 0.500145
0.546990 0.514641 0.522637
0.578668 0.545495 0.546136
0.611261 0.577508 0.570672
0.644465 0.610529 0.596521
0.676204 0.642420 0.622156
0.705318 0.672053 0.646693
0.731777 0.699306 0.670039
0.756588 0.725124 0.692897
0.780148 0.749996 0.715663
0.802121 0.773373 0.737789
0.821836 0.794614 0.758572
0.838926 0.813169 0.777279
0.853422 0.829129 0.793729
0.384466 0.359838 0.399329
0.385351 0.360723 0.400092
0.386572 0.361822 0.401068
0.389197 0.364355 0.403265
0.393713 0.368505 0.406836
0.399664 0.374151 0.411658
0.407477 0.381506 0.417853
0.416876 0.390387 0.425238
0.424598 0.397620 0.431281
0.431556 0.404303 0.436744
0.439673 0.411933 0.442908
0.452888 0.424475 0.453040
0.494026 0.463630 0.483680
0.527642 0.495949 0.508446
0.533745 0.501793 0.512902
0.540429 0.508232 0.517815
0.547784 0.515373 0.523247
0.555718 0.523064 0.529076
0.564813 0.531945 0.535790
0.588983 0.555566 0.553826
0.617487 0.583642 0.575433
0.646693 0.612726 0.598260
0.674922 0.641169 0.621149
0.701656 0.668330 0.643580
0.726528 0.693874 0.665309
0.749966 0.718227 0.686702
0.772183 0.741573 0.707851
0.793149 0.763790 0.728634
0.812436 0.784482 0.748562
0.829770 0.803189 0.767147
0.844816 0.819638 0.783902
0.857816 0.833951 0.798825
0.443763 0.415839 0.446052
0.444617 0.416663 0.446754
0.445350 0.417304 0.447272
0.447364 0.419226 0.448768
0.450721 0.422370 0.451331
0.455421 0.426825 0.454932
0.462013 0.433143 0.459907
0.470436 0.441077 0.466194
0.481147 0.451331 0.474159
0.492683 0.462348 0.482704
0.505547 0.474617 0.492195
0.519249 0.487831 0.502281
0.533684 0.501732 0.512871
0.547662 0.515251 0.523156
0.584619 0.551263 0.550530
0.589899 0.556420 0.554498
0.594995 0.561456 0.558373
0.600458 0.566827 0.562463
0.607416 0.573663 0.567742
0.616632 0.582788 0.574823
0.630426 0.596460 0.585504
0.657588 0.623682 0.607019
0.683772 0.650141 0.628473
0.708736 0.675563 0.649653
0.732204 0.699733 0.670405
0.754543 0.723049 0.691005
0.775967 0.745571 0.711543
0.796201 0.767056 0.731746
0.814878 0.787076 0.751125
0.831693 0.805295 0.769253
0.846372 0.821378 0.785641
0.859098 0.835355 0.800290
0.494575 0.464149 0.484108
0.495399 0.464942 0.484688
0.495979 0.465522 0.485176
0.497749 0.467231 0.486488
0.500572 0.469917 0.488563
0.505852 0.475013 0.492470
0.513878 0.482673 0.498329
0.523308 0.491798 0.505272
0.534569 0.502586 0.513542
0.546349 0.514000 0.522179
0.556268 0.523583 0.529473
0.567346 0.534386 0.537713
0.578912 0.545678 0.546258
0.590234 0.556817 0.554772
0.600916 0.567315 0.562829
0.635859 0.601923 0.589776
0.639063 0.605097 0.592248
0.642817 0.608850 0.595209
0.647883 0.613916 0.599237
0.655207 0.621271 0.605066
0.664698 0.630823 0.612726
0.675898 0.642145 0.621912
0.693904 0.660395 0.636957
0.717250 0.684321 0.657130
0.739467 0.707301 0.677028
0.760830 0.729610 0.696925
0.781338 0.751247 0.716823
0.800656 0.771786 0.736294
0.818509 0.791043 0.755001
0.834592 0.808438 0.772457
0.848692 0.823911 0.788296
0.860960 0.837461 0.802487
0.550378 0.517876 0.525139
0.551232 0.518730 0.525780
0.551934 0.519402 0.526299
0.553826 0.521202 0.527642
0.556542 0.523919 0.529717
0.560540 0.527733 0.532647
0.566003 0.533074 0.536675
0.573053 0.539940 0.541924
0.581964 0.548699 0.548577
0.592767 0.559289 0.556695
0.602472 0.568841 0.564019
0.611688 0.577905 0.571008
0.621393 0.587549 0.578485
0.631037 0.597101 0.585962
0.640009 0.606043 0.592981
0.647883 0.613916 0.599237
0.679438 0.645716 0.624842
0.681514 0.647822 0.626581
0.684932 0.651270 0.629389
0.690272 0.656703 0.633875
0.697566 0.664118 0.640070
0.706447 0.673213 0.647700
0.716457 0.683528 0.656428
0.727596 0.694972 0.666285
0.747097 0.715267 0.684077
0.767758 0.736873 0.703578
0.787686 0.757961 0.723110
0.806485 0.778042 0.742306
0.823728 0.796658 0.760586
0.839139 0.813443 0.777523
0.852659 0.828275 0.792844
0.864317 0.841154 0.806424
0.601831 0.568139 0.563500
0.602655 0.568994 0.564141
0.603388 0.569726 0.564691
0.604944 0.571252 0.565881
0.607324 0.573602 0.567712
0.610925 0.577173 0.570459
0.615717 0.581903 0.574121
0.621942 0.588098 0.578912
0.629511 0.595575 0.584771
0.638270 0.604334 0.591638
0.648096 0.614099 0.599390
0.654749 0.620844 0.604730
0.661402 0.627527 0.610101
0.667933 0.634119 0.615412
0.674281 0.640528 0.620600
0.680262 0.646540 0.625513
0.686030 0.652399 0.630335
0.711757 0.678706 0.652308
0.717006 0.684077 0.656916
0.721553 0.688746 0.660914
0.727749 0.695155 0.666438
0.735378 0.703059 0.673304
0.744106 0.712123 0.681270
0.753872 0.722286 0.690394
0.764492 0.733425 0.700404
0.777188 0.746822 0.712734
0.795926 0.766781 0.731472
0.813504 0.785611 0.749691
0.829465 0.802914 0.766842
0.843656 0.818387 0.782589
0.856107 0.832059 0.796841
0.866880 0.844022 0.809476
0.645960 0.612024 0.597711
0.646479 0.612512 0.598108
0.646876 0.612909 0.598444
0.648127 0.614160 0.599420
0.649989 0.616052 0.600916
0.652827 0.618891 0.603174
0.656641 0.622705 0.606256
0.661463 0.627588 0.610132
0.667414 0.633539 0.614954
0.674281 0.640528 0.620600
0.682063 0.648371 0.627039
0.689540 0.655970 0.633295
0.694881 0.661372 0.637781
0.700069 0.666712 0.642206
0.704982 0.671717 0.646418
0.709438 0.676326 0.650294
0.713832 0.680812 0.654139
0.718441 0.685573 0.658167
0.739040 0.706874 0.676631
0.748257 0.716426 0.685115
0.753323 0.721736 0.689845
0.759762 0.728511 0.695949
0.767300 0.736385 0.703120
0.775875 0.745480 0.711482
0.785183 0.755337 0.720668
0.795132 0.765896 0.730617
0.805539 0.777035 0.741329
0.819150 0.791714 0.755703
0.834165 0.808011 0.772000
0.847562 0.822660 0.787015
0.859312 0.835630 0.800565
0.869505 0.846921 0.812619
0.685054 0.651392 0.629511
0.685847 0.652186 0.630152
0.702724 0.669429 0.644495
0.703517 0.670253 0.645197
0.704738 0.671473 0.646235
0.706325 0.673091 0.647578
0.708553 0.675380 0.649531
0.711482 0.678370 0.652064
0.715297 0.682307 0.655421
0.719966 0.687098 0.659480
0.725338 0.692653 0.664271
0.731106 0.698665 0.669459
0.735409 0.703090 0.673335
0.738735 0.706569 0.676387
0.742000 0.709926 0.679347
0.745144 0.713191 0.682277
0.748226 0.716426 0.685115
0.751431 0.719783 0.688075
0.754849 0.723323 0.691310
0.770993 0.740291 0.706691
0.782315 0.752255 0.717800
0.787167 0.757443 0.722652
0.793118 0.763760 0.728573
0.799771 0.770871 0.735409
0.806821 0.778408 0.742672
0.814389 0.786557 0.750607
0.822354 0.795163 0.759121
0.830777 0.804318 0.768246
0.839475 0.813809 0.777890
0.851347 0.826841 0.791318
0.862333 0.838987 0.804135
0.871885 0.849577 0.815488
0.722042 0.689265 0.661341
0.724269 0.691554 0.663294
0.726558 0.693935 0.665370
0.729061 0.696498 0.667597
0.731350 0.698909 0.669703
0.733455 0.701045 0.671565
0.735500 0.703212 0.673426
0.737972 0.705715 0.675654
0.741146 0.709071 0.678584
0.744900 0.712947 0.682033
0.749355 0.717586 0.686152
0.754208 0.722683 0.690669
0.759182 0.727901 0.695399
0.762051 0.730892 0.698085
0.764706 0.733669 0.700649
0.767300 0.736385 0.703120
0.769863 0.739132 0.705623
0.772610 0.741970 0.708248
0.775631 0.745205 0.711208
0.779110 0.748898 0.714626
0.792294 0.762875 0.727779
0.805631 0.777157 0.741421
0.810758 0.782650 0.746761
0.816464 0.788785 0.752804
0.822538 0.795377 0.759304
0.828977 0.802335 0.766293
0.835721 0.809720 0.773709
0.842863 0.817502 0.781674
0.850217 0.825589 0.790036
0.857664 0.833768 0.798611
0.865446 0.842405 0.807797
0.874357 0.852354 0.818448
0.749203 0.717433 0.686000
0.751095 0.719387 0.687770
0.753109 0.721492 0.689662
0.755154 0.723659 0.691554
0.757168 0.725795 0.693507
0.758938 0.727626 0.695155
0.760708 0.729458 0.696803
0.762783 0.731624 0.698787
0.765438 0.734432 0.701350
0.768612 0.737789 0.704402
0.772366 0.741726 0.708003
0.776455 0.746029 0.712001
0.780575 0.750423 0.716060
0.784298 0.754360 0.719753
0.786496 0.756680 0.721920
0.788602 0.758938 0.724056
0.790768 0.761257 0.726223
0.793057 0.763699 0.728542
0.795621 0.766415 0.731167
0.798581 0.769619 0.734188
0.801907 0.773159 0.737575
0.812284 0.784298 0.748409
0.826108 0.799191 0.763149
0.830900 0.804440 0.768368
0.835966 0.809964 0.773983
0.841306 0.815824 0.779965
0.846983 0.822019 0.786343
0.852964 0.828580 0.793179
0.859190 0.835477 0.800412
0.865476 0.842435 0.807797
0.871611 0.849302 0.815152
0.877440 0.855802 0.822232
0.774350 0.743832 0.709957
0.775967 0.745541 0.711543
0.777676 0.747341 0.713191
0.779477 0.749294 0.714992
0.781155 0.751034 0.716640
0.782620 0.752590 0.718105
0.784024 0.754086 0.719478
0.785733 0.755886 0.721187
0.787808 0.758114 0.723262
0.790372 0.760800 0.725826
0.793301 0.763973 0.728817
0.796567 0.767453 0.732113
0.799985 0.771084 0.735561
0.803494 0.774868 0.739223
0.806088 0.777646 0.741909
0.808133 0.779843 0.744076
0.810391 0.782254 0.746395
0.812863 0.784939 0.749020
0.815671 0.787930 0.751980
0.818723 0.791257 0.755215
0.822049 0.794858 0.758785
0.825528 0.798611 0.762539
0.833280 0.807065 0.771054
0.846220 0.821195 0.785489
0.850614 0.826017 0.790463
0.855100 0.830961 0.795651
0.859770 0.836118 0.801114
0.864652 0.841550 0.806821
0.869657 0.847135 0.812833
0.874723 0.852720 0.818875
0.879606 0.858213 0.824857
0.884306 0.863493 0.830655
0.802182 0.773434 0.737881
0.802914 0.774228 0.738643
0.803555 0.774929 0.739284
0.804349 0.775753 0.740108
0.805203 0.776699 0.740993
0.806119 0.777646 0.741939
0.807218 0.778836 0.743069
0.808621 0.780362 0.744533
0.810452 0.782345 0.746487
0.812650 0.784665 0.748775
0.815183 0.787411 0.751461
0.817868 0.790311 0.754330
0.820554 0.793240 0.757198
0.823331 0.796201 0.760159
0.826108 0.799252 0.763180
0.827756 0.801022 0.764920
0.829374 0.802792 0.766751
0.831235 0.804807 0.768765
0.833280 0.807034 0.770993
0.835477 0.809445 0.773465
0.837827 0.812009 0.776059
0.840330 0.814725 0.778836
0.842863 0.817502 0.781704
0.847959 0.823117 0.787472
0.859617 0.835966 0.800931
0.863462 0.840208 0.805417
0.867491 0.844663 0.810178
0.871641 0.849332 0.815183
0.875944 0.854093 0.820371
0.880217 0.858946 0.825620
0.884428 0.863676 0.830838
0.888518 0.868254 0.835935
0.821378 0.794125 0.758083
0.822019 0.794797 0.758724
0.822599 0.795438 0.759365
0.823239 0.796139 0.760067
0.823911 0.796872 0.760800
0.824582 0.797574 0.761501
0.825376 0.798428 0.762356
0.826352 0.799466 0.763394
0.827665 0.800931 0.764889
0.829313 0.802731 0.766659
0.831235 0.804807 0.768765
0.833310 0.807095 0.771054
0.835477 0.809415 0.773434
0.837705 0.811887 0.775906
0.840024 0.814389 0.778500
0.842130 0.816709 0.780850
0.843565 0.818296 0.782467
0.845151 0.820035 0.784268
0.846891 0.821958 0.786252
0.848814 0.824063 0.788449
0.850858 0.826291 0.790768
0.852995 0.828672 0.793240
0.855253 0.831113 0.795834
0.857481 0.833585 0.798398
0.859281 0.835599 0.800534
0.869566 0.847013 0.812680
0.873442 0.851347 0.817350
0.877073 0.855375 0.821775
0.880797 0.859556 0.826352
0.884581 0.863798 0.830991
0.888334 0.868040 0.835691
0.892058 0.872221 0.840360
0.840574 0.815000 0.779110
0.841093 0.815579 0.779721
0.841489 0.816007 0.780148
0.841825 0.816373 0.780514
0.842161 0.816739 0.780880
0.842496 0.817105 0.781277
0.842893 0.817533 0.781704
0.843412 0.818082 0.782284
0.844114 0.818875 0.783078
0.845060 0.819883 0.784115
0.846159 0.821134 0.785397
0.847532 0.822629 0.786954
0.848997 0.824247 0.788632
0.850523 0.825925 0.790372
0.852049 0.827573 0.792111
0.853635 0.829374 0.793973
0.854887 0.830716 0.795377
0.855955 0.831907 0.796658
0.857359 0.833433 0.798276
0.858976 0.835264 0.800168
0.860777 0.837247 0.802274
0.862638 0.839261 0.804440
0.864408 0.841276 0.806546
0.866148 0.843198 0.808591
0.867765 0.844999 0.810544
0.869841 0.847288 0.812985
0.878294 0.856748 0.823270
0.882261 0.861204 0.828122
0.885435 0.864775 0.832059
0.888670 0.868437 0.836118
0.891997 0.872160 0.840299
0.895323 0.875914 0.844511
0.853391 0.829068 0.793668
0.853819 0.829557 0.794186
0.854124 0.829892 0.794553
0.854398 0.830198 0.794858
0.854643 0.830472 0.795132
0.854948 0.830808 0.795468
0.855283 0.831205 0.795895
0.855802 0.831724 0.796445
0.856413 0.832425 0.797177
0.857267 0.833341 0.798154
0.858244 0.834440 0.799313
0.859403 0.835721 0.800656
0.860655 0.837095 0.802152
0.861936 0.838529 0.803647
0.863249 0.839994 0.805173
0.864591 0.841489 0.806790
0.866026 0.843076 0.808469
0.867002 0.844144 0.809628
0.868101 0.845396 0.810971
0.869413 0.846830 0.812497
0.870817 0.848386 0.814206
0.872282 0.850034 0.815946
0.873747 0.851652 0.817716
0.875151 0.853239 0.819425
0.876524 0.854734 0.821073
0.877836 0.856229 0.822690
0.879149 0.857725 0.824338
0.886076 0.865476 0.832853
0.890013 0.869932 0.837797
0.892821 0.873136 0.841367
0.895750 0.876432 0.845090
0.898650 0.879728 0.848814
0.864988 0.841917 0.807218
0.865263 0.842191 0.807523
0.865385 0.842374 0.807706
0.865507 0.842496 0.807889
0.865629 0.842649 0.808011
0.865782 0.842802 0.808194
0.865995 0.843046 0.808438
0.866331 0.843381 0.808835
0.866819 0.843931 0.809415
0.867460 0.844633 0.810178
0.868254 0.845548 0.811124
0.869200 0.846586 0.812253
0.870237 0.847776 0.813504
0.871305 0.848936 0.814786
0.872343 0.850095 0.816037
0.873411 0.851286 0.817319
0.874540 0.852567 0.818692
0.875669 0.853788 0.820035
0.876524 0.854795 0.821103
0.877562 0.855924 0.822385
0.878691 0.857206 0.823758
0.879881 0.858549 0.825193
0.881071 0.859861 0.826658
0.882261 0.861173 0.828122
0.883391 0.862486 0.829526
0.884489 0.863706 0.830900
0.885588 0.864958 0.832273
0.886717 0.866239 0.833677
0.892119 0.872313 0.840482
0.896025 0.876738 0.845426
0.898619 0.879667 0.848753
0.901183 0.882597 0.852079
0.874113 0.852079 0.818173
0.874266 0.852262 0.818387
0.874388 0.852384 0.818509
0.874510 0.852537 0.818662
0.874693 0.852720 0.818875
0.874968 0.853025 0.819181
0.875395 0.853513 0.819730
0.876005 0.854185 0.820432
0.876707 0.854978 0.821317
0.877592 0.855955 0.822385
0.878538 0.857023 0.823545
0.879545 0.858152 0.824796
0.880583 0.859312 0.826047
0.881559 0.860410 0.827268
0.882506 0.861479 0.828428
0.883391 0.862455 0.829496
0.884276 0.863462 0.830625
0.885222 0.864530 0.831815
0.886046 0.865476 0.832853
0.886839 0.866361 0.833799
0.887694 0.867308 0.834867
0.888548 0.868284 0.835966
0.889464 0.869291 0.837095
0.890349 0.870298 0.838193
0.891203 0.871305 0.839322
0.892088 0.872251 0.840391
0.892943 0.873259 0.841520
0.893828 0.874235 0.842618
0.894774 0.875303 0.843809
0.898833 0.879942 0.849027
0.902312 0.883879 0.853513
0.904417 0.886290 0.856260
0.883757 0.862882 0.829984
0.883848 0.862974 0.830076
0.883879 0.863005 0.830137
0.883909 0.863066 0.830167
0.883970 0.863157 0.830259
0.884092 0.863279 0.830442
0.884337 0.863493 0.830686
0.884642 0.863859 0.831083
0.885039 0.864317 0.831571
0.885527 0.864866 0.832181
0.886076 0.865507 0.832883
0.886717 0.866209 0.833677
0.887388 0.866972 0.834501
