assets/luts/Black and White.cube
# Created by Adobe Lightroom plugin Export LUT (1.18.0)
# www.johnrellis.com/lightroom/exportlut.htm
# Preset: Catch-A-Fire_Free-Lookfilter
# Color profile: /Library/Application Support/Adobe/Color/Profiles/Recommended/AdobeRGB1998.icc
LUT_3D_SIZE 5
DOMAIN_MIN 0.000000 0.000000 0.000000
DOMAIN_MAX 0.903226 0.903226 0.903226
0.142824 0.133608 0.164614
0.173281 0.162112 0.198062
0.292424 0.273594 0.318914
0.545861 0.513512 0.521843
0.778653 0.748409 0.714199
0.232975 0.218021 0.260838
0.257359 0.240726 0.285252
0.338109 0.316411 0.360204
0.578546 0.545342 0.546014
0.795499 0.766293 0.731044
0.550378 0.517876 0.525139
0.573053 0.539940 0.541924
0.640009 0.606043 0.592981
0.706447 0.673213 0.647700
0.823728 0.796658 0.760586
0.802182 0.773434 0.737881
0.808621 0.780362 0.744533
0.826108 0.799252 0.763180
0.840330 0.814725 0.778836
0.875944 0.854093 0.820371
0.890013 0.869963 0.837827
0.890837 0.870848 0.838834
0.892576 0.872831 0.841032
0.897765 0.878721 0.847654
0.902617 0.884215 0.853910
0.156771 0.146609 0.179934
0.169924 0.158968 0.194430
0.305119 0.285435 0.330663
0.553368 0.520775 0.527337
0.774533 0.744015 0.710140
0.204593 0.191348 0.231449
0.237339 0.222049 0.265293
0.364630 0.341222 0.382910
0.583703 0.550378 0.549889
0.787198 0.757473 0.722652
0.523400 0.491859 0.505303
0.545129 0.512840 0.521294
0.603143 0.569512 0.564538
0.682460 0.648768 0.627344
0.823331 0.796231 0.760159
0.794705 0.765469 0.730220
0.801389 0.772580 0.737057
0.820005 0.792599 0.756588
0.836240 0.810269 0.774289
0.874083 0.852049 0.818143
0.889128 0.868925 0.836698
0.889952 0.869871 0.837736
0.893370 0.873747 0.842069
0.898100 0.879088 0.848081
0.902800 0.884428 0.854154
0.204685 0.191440 0.231540
0.217044 0.203006 0.244511
0.271244 0.253758 0.298802
0.516411 0.485084 0.500175
0.771725 0.741085 0.707424
0.280705 0.262669 0.307866
0.302190 0.282689 0.327947
0.346258 0.323980 0.367285
0.574701 0.541588 0.543145
0.791928 0.762478 0.727413
0.444587 0.416571 0.446662
0.476783 0.447181 0.470924
0.568475 0.535515 0.538506
0.704463 0.671199 0.645991
0.829313 0.802701 0.766659
0.771298 0.740597 0.706996
0.775967 0.745571 0.711543
0.800290 0.771420 0.735927
0.827543 0.800778 0.764706
0.867552 0.844755 0.810269
0.885283 0.864622 0.831876
0.886748 0.866239 0.833707
0.890959 0.870970 0.838956
0.896574 0.877379 0.846128
0.901640 0.883116 0.852659
0.320073 0.299443 0.344274
0.331334 0.309972 0.354223
0.364263 0.340856 0.382605
0.472114 0.442695 0.467445
0.730495 0.698024 0.668910
0.414008 0.387671 0.423011
0.421149 0.394446 0.428626
0.443580 0.415625 0.445930
0.528771 0.496986 0.509239
0.749020 0.717250 0.685847
0.538567 0.506432 0.516411
0.563287 0.530388 0.534661
0.638941 0.604974 0.592126
0.670832 0.636988 0.617762
0.811063 0.782986 0.747097
0.724208 0.691493 0.663264
0.732631 0.700221 0.670832
0.762997 0.731899 0.699031
0.809232 0.781033 0.745205
0.866667 0.843778 0.809232
0.879881 0.858518 0.825193
0.881224 0.860075 0.826871
0.886229 0.865629 0.833036
0.893706 0.874083 0.842435
0.900542 0.881834 0.851194
0.576257 0.543114 0.544335
0.581201 0.547936 0.547967
0.595483 0.561913 0.558709
0.614313 0.580499 0.573022
0.714961 0.681941 0.655085
0.635401 0.601465 0.589380
0.637842 0.603906 0.591302
0.646204 0.612207 0.597894
0.657343 0.623407 0.606775
0.736538 0.704219 0.674342
0.731136 0.698665 0.669490
0.746700 0.714809 0.683680
0.752834 0.721218 0.689387
0.753902 0.722347 0.690394
0.794797 0.765530 0.730282
0.807980 0.779660 0.743862
0.811215 0.783139 0.747280
0.821042 0.793759 0.757717
0.845548 0.820432 0.784695
0.858305 0.834501 0.799374
0.872709 0.850523 0.816464
0.873991 0.851926 0.818021
0.878691 0.857206 0.823758
0.886748 0.866270 0.833738
0.898314 0.879332 0.848386
