assets/luts/Cinematic.cube
# Created by Adobe Lightroom plugin Export LUT (1.18.0)
# www.johnrellis.com/lightroom/exportlut.htm
# Preset: Cinematic7
# Color profile: /Library/Application Support/Adobe/Color/Profiles/Recommended/AdobeRGB1998.icc
LUT_3D_SIZE 32
DOMAIN_MIN 0.0 0.0 0.0
DOMAIN_MAX 1.0 1.0 1.0
0.000000 0.000000 0.000000
0.031159 0.001862 0.001190
0.062837 0.003113 0.002167
0.087587 0.006531 0.004181
0.113863 0.012634 0.010315
0.141390 0.019348 0.016297
0.170169 0.026490 0.023011
0.200595 0.034485 0.030091
0.232792 0.040131 0.035279
0.267460 0.043244 0.039155
0.305119 0.040528 0.040131
0.345464 0.037049 0.039521
0.387579 0.031922 0.039399
0.430945 0.024689 0.039704
0.474708 0.014313 0.042939
0.518364 0.000153 0.046174
0.561395 0.000000 0.050721
0.602747 0.000000 0.058869
0.644587 0.000000 0.066773
0.682246 0.000000 0.076753
0.717006 0.000000 0.087739
0.749905 0.000000 0.099641
0.780667 0.000000 0.111940
0.809781 0.000000 0.125246
0.837369 0.000000 0.138979
0.863798 0.036286 0.153933
0.889403 0.069032 0.169863
0.914305 0.090181 0.187594
0.938720 0.111391 0.207279
0.962585 0.134554 0.229740
0.985809 0.159762 0.255314
1.000000 0.188235 0.285130
0.002777 0.026551 0.000000
0.032776 0.028626 0.000000
0.063478 0.029877 0.000000
0.087648 0.031128 0.004303
0.113985 0.036011 0.009491
0.141238 0.042939 0.016571
0.169863 0.050355 0.023194
0.200107 0.055818 0.029297
0.232242 0.059968 0.035523
0.266636 0.061555 0.038361
0.304173 0.061707 0.038148
0.344152 0.060945 0.038727
0.386084 0.059419 0.038697
0.429328 0.055543 0.040192
0.472877 0.048341 0.041505
0.516411 0.037415 0.046906
0.559258 0.024384 0.051270
0.600977 0.007263 0.058747
0.642176 0.000000 0.066163
0.679500 0.000000 0.075715
0.714137 0.000000 0.086397
0.747005 0.000000 0.098299
0.777890 0.000000 0.110658
0.807156 0.006592 0.123751
0.834958 0.031128 0.137331
0.861570 0.060761 0.152316
0.887388 0.077699 0.168063
0.912505 0.096620 0.186069
0.937133 0.115724 0.205509
0.961151 0.137697 0.227909
0.984527 0.161624 0.253086
1.000000 0.189120 0.282780
0.004028 0.059174 0.000000
0.035340 0.059449 0.000000
0.064424 0.059968 0.000183
0.087739 0.059174 0.003784
0.114076 0.060670 0.009033
0.141268 0.063935 0.016052
0.169772 0.066743 0.022766
0.199741 0.069947 0.028840
0.231846 0.072786 0.033906
0.266117 0.074220 0.036774
0.303441 0.075349 0.037476
0.343420 0.075593 0.037903
0.385199 0.075441 0.038849
0.428321 0.074525 0.039124
0.471809 0.072389 0.041382
0.515343 0.068269 0.044800
0.558129 0.064759 0.050385
0.600122 0.058900 0.058534
0.640894 0.048798 0.066163
0.678035 0.041016 0.075532
0.712642 0.036316 0.085969
0.745510 0.035828 0.097505
0.776486 0.044068 0.109957
0.805814 0.053010 0.123018
0.833677 0.065400 0.136660
0.860380 0.076570 0.151308
0.886290 0.090242 0.167422
0.911528 0.105959 0.185183
0.936278 0.123018 0.204715
0.960418 0.143008 0.226963
0.983825 0.165866 0.252171
1.000000 0.192233 0.281712
0.010681 0.082673 0.000000
0.038300 0.082704 0.000000
0.064118 0.082551 0.000000
0.088777 0.082765 0.003388
0.114809 0.083833 0.008667
0.141909 0.086030 0.014557
0.170199 0.088380 0.022278
0.200046 0.091279 0.029236
0.231907 0.093477 0.033265
0.266148 0.095705 0.034668
0.303166 0.097780 0.035065
0.343023 0.099153 0.036225
0.384558 0.100618 0.036744
0.427527 0.100984 0.037903
0.470893 0.100801 0.039887
0.514214 0.099794 0.044007
0.557000 0.097444 0.049073
0.599390 0.094636 0.056825
0.639277 0.092287 0.065217
0.675898 0.089509 0.074250
0.710201 0.088289 0.084779
0.742947 0.087160 0.096376
0.774105 0.088869 0.108736
0.803830 0.091249 0.122103
0.832242 0.096132 0.135805
0.859495 0.102998 0.151095
0.885801 0.112642 0.167178
0.911284 0.124880 0.185275
0.936034 0.139193 0.204929
0.960174 0.156191 0.226963
0.983490 0.176547 0.252140
1.000000 0.200565 0.281102
0.019165 0.104829 0.000000
0.045228 0.104891 0.000000
0.065217 0.105196 0.000000
0.088106 0.105531 0.003357
0.113954 0.107362 0.008240
0.142611 0.110597 0.014343
0.170596 0.112856 0.020813
0.200107 0.115572 0.026520
0.231785 0.118166 0.029084
0.265690 0.120851 0.031281
0.302556 0.123781 0.032227
0.342077 0.126436 0.032807
0.383581 0.128817 0.033906
0.426276 0.130892 0.035492
0.469703 0.131777 0.037018
0.513146 0.132174 0.040558
0.556146 0.131533 0.046815
0.599359 0.130373 0.054536
0.638849 0.128847 0.064210
0.675105 0.127260 0.073823
0.709133 0.125704 0.084352
0.741665 0.125338 0.095766
0.772793 0.125399 0.108156
0.802579 0.126802 0.121401
0.831083 0.129274 0.135775
0.858518 0.133639 0.150607
0.884886 0.140047 0.167056
0.910430 0.148684 0.184878
0.935241 0.160037 0.204593
0.959380 0.174197 0.226719
0.982788 0.191531 0.251713
1.000000 0.213199 0.280766
0.032868 0.128084 0.000000
0.054047 0.128237 0.000000
0.068666 0.128481 0.000366
0.089601 0.129091 0.002564
0.113588 0.129946 0.009033
0.141054 0.133516 0.013764
0.171817 0.138613 0.019043
0.201083 0.141268 0.023377
0.232517 0.144198 0.026551
0.266423 0.147463 0.029145
0.303166 0.151217 0.029236
0.342504 0.155093 0.029877
0.383734 0.158572 0.031128
0.426429 0.161410 0.030884
0.469703 0.163638 0.033661
0.513207 0.165072 0.036408
0.556359 0.165316 0.043091
0.600031 0.165652 0.052399
0.639094 0.164828 0.063142
0.675257 0.163333 0.072724
0.709224 0.162173 0.084016
0.741909 0.161013 0.096101
0.789425 0.165805 0.117952
0.818112 0.166903 0.132052
0.845304 0.168887 0.146853
0.871244 0.172000 0.162325
0.896178 0.176944 0.178866
0.920348 0.183749 0.197208
0.943908 0.193118 0.217166
0.966949 0.205203 0.239536
0.989136 0.220493 0.264927
1.000000 0.239841 0.293950
0.050446 0.154421 0.000000
0.063569 0.154696 0.000336
0.074861 0.154910 0.002594
0.094057 0.155703 0.005707
0.117189 0.156680 0.010864
0.142153 0.157992 0.016907
0.171542 0.162966 0.019745
0.205234 0.169680 0.018769
0.236790 0.172946 0.022156
0.271183 0.177127 0.023163
0.308263 0.181796 0.024872
0.348058 0.186526 0.024750
0.389380 0.190860 0.025452
0.431983 0.194553 0.024750
0.474952 0.197269 0.027619
0.517784 0.199405 0.030762
0.562615 0.201053 0.037568
0.605737 0.201663 0.049653
0.644434 0.201083 0.062928
0.680720 0.199893 0.073793
0.715541 0.198917 0.086000
0.749386 0.198367 0.099519
0.781827 0.198184 0.113741
0.812650 0.198611 0.129091
0.841581 0.199924 0.144594
0.868589 0.201938 0.161013
0.894102 0.205570 0.178042
0.918547 0.210636 0.196384
0.942351 0.217655 0.216281
0.965393 0.227481 0.238743
0.987671 0.240238 0.263737
1.000000 0.256840 0.292638
0.063172 0.180911 0.004273
0.071229 0.181003 0.004669
0.081300 0.181338 0.005768
0.099092 0.181979 0.007782
0.121187 0.182803 0.010773
0.145327 0.184268 0.014374
0.170901 0.186038 0.019776
0.201846 0.192050 0.020447
0.237919 0.200168 0.018189
0.272007 0.204959 0.019257
0.309087 0.210391 0.020661
0.348638 0.215976 0.020233
0.389776 0.221195 0.019532
0.432074 0.225772 0.019745
0.474891 0.229374 0.020325
0.518273 0.232181 0.024170
0.563592 0.234928 0.031250
0.605402 0.235752 0.045167
0.643458 0.235386 0.059724
0.679286 0.234318 0.072114
0.713802 0.233066 0.085145
0.747372 0.232212 0.098512
0.779660 0.231571 0.113039
0.810422 0.231357 0.128450
0.839384 0.231754 0.143984
0.866484 0.232853 0.160433
0.892119 0.235019 0.177493
0.916747 0.238437 0.195651
0.940673 0.243900 0.215763
0.963897 0.251469 0.237919
0.986328 0.262181 0.263188
1.000000 0.276371 0.291875
0.071809 0.209445 0.004303
0.079164 0.209628 0.004608
0.087770 0.209934 0.006775
0.104585 0.210575 0.007599
0.125978 0.211551 0.009186
0.149783 0.212711 0.012726
0.175143 0.214450 0.016693
0.201907 0.216464 0.020111
0.234867 0.223545 0.019928
0.273838 0.233738 0.015503
0.310857 0.240024 0.015137
0.350164 0.246342 0.013062
0.391150 0.252384 0.012787
0.433387 0.257542 0.011505
0.475898 0.261936 0.012909
0.521111 0.266392 0.015930
0.565179 0.269291 0.023285
0.606134 0.270329 0.036469
0.643427 0.269780 0.057404
0.678859 0.268559 0.070192
0.713008 0.267399 0.084016
0.746395 0.265995 0.097810
0.778500 0.264988 0.112612
0.809049 0.264408 0.128054
0.837919 0.264012 0.143954
0.865049 0.264073 0.160403
0.890776 0.265171 0.177676
0.915435 0.267338 0.195895
0.939422 0.271336 0.215885
0.962676 0.277287 0.238010
0.985107 0.285985 0.263066
1.000000 0.297978 0.291569
0.079255 0.240146 0.000000
0.086213 0.240208 0.000549
0.094789 0.240513 0.000427
0.110842 0.241001 0.002289
0.131655 0.241978 0.003632
0.155123 0.243198 0.005737
0.180484 0.244663 0.009491
0.207095 0.246647 0.013519
0.235080 0.249149 0.018616
0.270420 0.257603 0.016205
0.312566 0.269566 0.007355
0.351659 0.276646 0.005554
0.392462 0.283421 0.004425
0.434699 0.289464 0.002167
0.479744 0.295933 0.002319
0.524254 0.300694 0.004395
0.567773 0.303960 0.010895
0.608057 0.305028 0.027588
0.644923 0.304448 0.051850
0.679774 0.302953 0.068757
0.713313 0.301396 0.082979
0.745846 0.299748 0.097353
0.777188 0.298100 0.112001
0.807156 0.296666 0.127535
0.835752 0.295598 0.143404
0.862852 0.294987 0.159762
0.888792 0.295018 0.177127
0.913756 0.296391 0.195560
0.938018 0.299107 0.215915
0.961547 0.303868 0.238407
0.984283 0.311131 0.263737
1.000000 0.321447 0.292607
0.086305 0.272282 0.000000
0.092622 0.272465 0.000000
0.101381 0.272770 0.000000
0.116884 0.273350 0.000000
0.137789 0.274174 0.000000
0.161105 0.275608 0.000000
0.186709 0.277195 0.000000
0.213535 0.279332 0.003021
0.241764 0.281651 0.007538
0.271275 0.284581 0.012696
0.309453 0.294591 0.007477
0.353979 0.307652 0.000000
0.395422 0.315709 0.000000
0.438972 0.323491 0.000000
0.482856 0.329931 0.000000
0.526543 0.334874 0.000000
0.569207 0.338140 0.000000
0.608637 0.339147 0.016602
0.644984 0.338231 0.044739
0.679469 0.336675 0.065888
0.712764 0.334813 0.081666
0.745113 0.332799 0.096529
0.776394 0.330968 0.112093
0.806302 0.329168 0.127565
0.834775 0.327550 0.143771
0.861784 0.326299 0.160403
0.887602 0.325566 0.177707
0.912535 0.325902 0.196231
0.936767 0.327611 0.216434
0.960327 0.330999 0.238895
0.983093 0.336767 0.264195
1.000000 0.345434 0.293004
0.093935 0.307164 0.000000
0.100191 0.307530 0.000000
0.108217 0.307713 0.000000
0.123568 0.308232 0.000000
0.144228 0.309300 0.000000
0.167910 0.310552 0.000000
0.193576 0.312322 0.000000
0.220829 0.314458 0.000000
0.249393 0.316930 0.000000
0.279393 0.319707 0.000000
0.310552 0.322850 0.002991
0.352697 0.335424 0.000000
0.412329 0.359960 0.000000
0.456977 0.368536 0.000000
0.501427 0.375067 0.000000
0.545190 0.379736 0.000000
0.586725 0.382025 0.000000
0.624353 0.381659 0.013947
0.658900 0.379522 0.049012
0.691951 0.376898 0.071015
0.723934 0.373999 0.087373
0.754910 0.371130 0.103365
0.784695 0.368200 0.118715
0.813321 0.365454 0.134676
0.840726 0.362890 0.150851
0.866850 0.360845 0.167758
0.891905 0.359289 0.185000
0.916136 0.358709 0.203372
0.939696 0.359380 0.223667
0.962646 0.361669 0.245914
0.984863 0.366217 0.271092
1.000000 0.373327 0.299748
0.102052 0.348089 0.000000
0.108370 0.348272 0.000000
0.116365 0.348272 0.000000
0.131716 0.348608 0.000000
0.152438 0.349279 0.000000
0.176089 0.350103 0.000000
0.202121 0.351476 0.000000
0.229709 0.353307 0.000000
0.258976 0.355718 0.000000
0.289769 0.359045 0.000000
0.323644 0.364630 0.000000
0.359380 0.370581 0.000000
0.405982 0.385199 0.000000
0.457465 0.400824 0.000000
0.502159 0.408392 0.000000
0.545769 0.413581 0.000000
0.586694 0.415808 0.000000
0.623713 0.415259 0.000000
0.657862 0.412879 0.038514
0.690578 0.409857 0.067323
0.722286 0.406775 0.085206
0.753109 0.403510 0.101900
0.782742 0.400214 0.118013
0.811246 0.397070 0.134157
0.838590 0.393988 0.150454
0.864744 0.391302 0.167361
0.889860 0.389166 0.184787
0.914183 0.387854 0.203525
0.937865 0.387640 0.223636
0.960967 0.389014 0.246220
0.983337 0.392309 0.271244
1.000000 0.398169 0.300084
0.109621 0.386297 0.000000
0.115938 0.386481 0.000000
0.123537 0.386542 0.000000
0.138766 0.386847 0.000000
0.159304 0.387274 0.000000
0.183200 0.388006 0.000000
0.209384 0.389410 0.000000
0.237339 0.391455 0.000000
0.267613 0.394995 0.000000
0.299504 0.399207 0.000000
0.333227 0.403906 0.000000
0.368597 0.409216 0.000000
0.405341 0.414557 0.000000
0.452888 0.428351 0.000000
0.502953 0.441566 0.000000
0.546502 0.447242 0.000000
0.586450 0.449287 0.000000
0.622950 0.448463 0.000000
0.656855 0.445838 0.025971
0.689296 0.442664 0.063111
0.720943 0.439216 0.083101
0.751644 0.435767 0.100771
0.781216 0.432166 0.117525
0.809781 0.428595 0.134127
0.837095 0.425177 0.150790
0.863249 0.422034 0.167819
0.888426 0.419287 0.185611
0.912810 0.417304 0.204288
0.936584 0.416419 0.224735
0.959747 0.416938 0.247318
0.982238 0.419318 0.272709
1.000000 0.423957 0.301549
0.117952 0.425757 0.000000
0.123720 0.425971 0.000000
0.131014 0.425971 0.000000
0.146212 0.426703 0.000000
0.166873 0.427558 0.000000
0.191073 0.428870 0.000000
0.217807 0.430640 0.000000
0.246311 0.432929 0.000000
0.276555 0.435767 0.000000
0.308568 0.439277 0.000000
0.342046 0.443397 0.000000
0.377234 0.448096 0.000000
0.413672 0.452888 0.000000
0.451148 0.457618 0.000000
0.498695 0.469947 0.000000
0.546807 0.480354 0.000000
0.587030 0.482856 0.000000
0.622858 0.481697 0.000000
0.656336 0.478828 0.010895
0.688533 0.475319 0.059052
0.719875 0.471595 0.080720
0.750362 0.467750 0.099306
0.779812 0.463874 0.116793
0.808286 0.459907 0.134157
0.835630 0.456092 0.151308
0.861967 0.452552 0.168551
0.887388 0.449470 0.186923
0.912078 0.447150 0.206546
0.936187 0.445838 0.227420
0.959655 0.445869 0.250736
0.982330 0.447608 0.276829
1.000000 0.451484 0.306371
0.126375 0.469215 0.000000
0.132357 0.469612 0.000000
0.139437 0.469825 0.000000
0.154574 0.470344 0.000000
0.175174 0.471046 0.000000
0.199741 0.472175 0.000000
0.226474 0.473793 0.000000
0.255283 0.475837 0.000000
0.285863 0.478340 0.000000
0.317906 0.481270 0.000000
0.351263 0.484535 0.000000
0.385931 0.488106 0.000000
0.421485 0.491646 0.000000
0.458106 0.495094 0.000000
0.495369 0.498238 0.000000
0.541711 0.508354 0.000000
0.585809 0.514763 0.000000
0.622644 0.514397 0.000000
0.656062 0.511498 0.000000
0.688319 0.507927 0.053010
0.719753 0.504143 0.079103
0.750332 0.500145 0.099275
0.779782 0.496010 0.117647
0.808225 0.491768 0.135256
0.835569 0.487648 0.153079
0.861936 0.483650 0.171206
0.887388 0.480140 0.189761
0.912108 0.477363 0.209628
0.936126 0.475471 0.231113
0.959472 0.474739 0.254398
0.981994 0.475502 0.280369
1.000000 0.478248 0.309789
0.134951 0.510887 0.000000
0.140505 0.510979 0.000000
0.147860 0.511101 0.000000
0.162509 0.511498 0.000000
0.182650 0.512016 0.000000
0.206973 0.512871 0.000000
0.233707 0.514061 0.000000
0.262486 0.515709 0.000000
0.292882 0.517723 0.000000
0.324743 0.520073 0.000000
0.358038 0.522911 0.000000
0.392432 0.525963 0.000000
0.427832 0.529137 0.000000
0.464057 0.532067 0.000000
0.500938 0.534661 0.000000
0.538170 0.536919 0.000000
0.581353 0.543420 0.000000
0.621271 0.545983 0.000000
0.655695 0.543786 0.000000
0.687587 0.539940 0.042542
0.718837 0.535851 0.076509
0.749203 0.531548 0.097749
0.778592 0.527092 0.117128
0.807034 0.522667 0.135897
0.834440 0.518181 0.153841
0.860838 0.513909 0.172549
0.886412 0.510033 0.191775
0.911223 0.506828 0.212039
0.935393 0.504417 0.233646
0.958801 0.503105 0.257481
0.981415 0.503197 0.283696
1.000000 0.505180 0.313390
0.143282 0.551690 0.000000
0.149203 0.552056 0.000000
0.158694 0.562860 0.000000
0.173373 0.563043 0.000000
0.194034 0.563348 0.000000
0.218204 0.563714 0.000000
0.245243 0.564355 0.000000
0.274205 0.565209 0.000000
0.304997 0.566522 0.000000
0.337072 0.568109 0.000000
0.370306 0.570062 0.000000
0.404669 0.572045 0.000000
0.439734 0.573877 0.000000
0.475532 0.575555 0.000000
0.511742 0.577020 0.000000
0.548302 0.578088 0.000000
0.585565 0.579156 0.000000
0.624109 0.580713 0.000000
0.659693 0.579400 0.000000
0.691890 0.575463 0.044221
0.722316 0.570489 0.078614
0.752071 0.565545 0.101320
0.781033 0.560418 0.121004
0.808896 0.555291 0.139864
0.835599 0.550042 0.158053
0.861357 0.545006 0.176455
0.886320 0.540368 0.195163
0.910735 0.536400 0.215244
0.934691 0.533318 0.236454
0.958099 0.531334 0.260441
0.980682 0.530755 0.286717
1.000000 0.531792 0.316381
0.152834 0.593927 0.000000
0.158358 0.595392 0.000000
0.165743 0.596857 0.000000
0.179995 0.598322 0.000000
0.200137 0.599420 0.000000
0.224002 0.600153 0.000000
0.250706 0.600732 0.000000
0.279423 0.601312 0.000000
0.309819 0.602289 0.000000
0.341314 0.603418 0.000000
0.374212 0.604730 0.000000
0.407935 0.606165 0.000000
0.442481 0.607477 0.000000
0.477607 0.608545 0.000000
0.513085 0.609400 0.000000
0.548943 0.610010 0.000000
0.585229 0.610346 0.000000
0.621820 0.610559 0.000000
0.657130 0.609247 0.000000
0.690303 0.606134 0.034485
0.721279 0.601434 0.076478
0.751034 0.596338 0.100587
0.779965 0.591089 0.121248
0.807919 0.585718 0.140780
0.834684 0.580224 0.159640
0.860533 0.574914 0.178256
0.885618 0.569909 0.197574
0.910063 0.565606 0.218021
0.934051 0.562036 0.239780
0.957458 0.559564 0.263859
0.980072 0.558251 0.290166
1.000000 0.558526 0.320043
0.161074 0.629603 0.000000
0.166445 0.630915 0.000000
0.173465 0.632227 0.000000
0.187106 0.633417 0.000000
0.206729 0.634363 0.000000
0.229862 0.634882 0.000000
0.256168 0.635248 0.000000
0.284184 0.635645 0.000000
0.314000 0.636255 0.000000
0.345190 0.636988 0.000000
0.377478 0.638025 0.000000
0.410681 0.639033 0.000000
0.444617 0.639857 0.000000
0.479133 0.640528 0.000000
0.514092 0.641016 0.000000
0.549371 0.641199 0.000000
0.584955 0.641230 0.000000
0.620966 0.641108 0.000000
0.656825 0.640497 0.000000
0.689815 0.637171 0.024933
0.720882 0.632532 0.074739
0.750484 0.627100 0.100587
0.779355 0.621698 0.122316
0.807218 0.616022 0.142458
0.833982 0.610254 0.161868
0.859800 0.604608 0.180819
0.884825 0.599176 0.200290
0.909270 0.594446 0.220737
0.933196 0.590448 0.242863
0.956542 0.587396 0.266911
0.979156 0.585443 0.293309
1.000000 0.584955 0.323033
0.169345 0.663233 0.000000
0.174289 0.664393 0.000000
0.181064 0.665522 0.000000
0.194186 0.666560 0.000000
0.213107 0.667323 0.000000
0.235538 0.667720 0.000000
0.260868 0.667903 0.000000
0.288304 0.668086 0.000000
0.317601 0.668360 0.000000
0.348150 0.668818 0.000000
0.379889 0.669368 0.000000
0.412573 0.669978 0.000000
0.445838 0.670466 0.000000
0.479835 0.670893 0.000000
0.514336 0.671229 0.000000
0.549279 0.671412 0.000000
0.584833 0.671626 0.000000
0.620783 0.671839 0.000000
0.657404 0.672084 0.000000
0.693172 0.671290 0.024231
0.724544 0.666712 0.077577
0.754025 0.660945 0.105165
0.782132 0.654597 0.128481
0.810147 0.648768 0.149660
0.836973 0.642817 0.169986
0.862730 0.636805 0.189883
0.887663 0.631098 0.210178
0.911955 0.625910 0.231022
0.935729 0.621393 0.253483
0.958801 0.617884 0.277745
0.981048 0.615320 0.304601
1.000000 0.614130 0.334447
0.178836 0.699214 0.000000
0.183688 0.699672 0.000000
0.189548 0.700069 0.000000
0.202090 0.700404 0.000000
0.219883 0.700649 0.000000
0.241642 0.700710 0.000000
0.266392 0.700771 0.000000
0.293248 0.700893 0.000000
0.322087 0.701198 0.000000
0.352239 0.701625 0.000000
0.383673 0.702144 0.000000
0.416052 0.702663 0.000000
0.448951 0.702998 0.000000
0.482521 0.703182 0.000000
0.516533 0.703212 0.000000
0.551080 0.703212 0.000000
0.586084 0.703059 0.000000
0.621546 0.702937 0.000000
0.657404 0.702876 0.000000
0.693690 0.702663 0.032929
0.728206 0.700618 0.077089
0.757015 0.693996 0.106142
0.783993 0.686458 0.130587
0.809720 0.678737 0.152956
0.836301 0.672297 0.173190
0.861967 0.665980 0.193271
0.886931 0.659968 0.213565
0.911254 0.654414 0.234928
0.934997 0.649531 0.257542
0.958099 0.645411 0.281682
0.980255 0.642298 0.308476
1.000000 0.640284 0.338079
0.187167 0.729549 0.000000
0.191592 0.730007 0.000000
0.197360 0.730465 0.000000
0.209232 0.730739 0.000000
0.226169 0.730922 0.000000
0.247227 0.730861 0.000000
0.271153 0.730800 0.000000
0.297185 0.730709 0.000000
0.325383 0.730800 0.000000
0.354955 0.731014 0.000000
0.385748 0.731319 0.000000
0.417365 0.731624 0.000000
0.449744 0.731807 0.000000
0.482979 0.731930 0.000000
0.516564 0.731899 0.000000
0.550683 0.731807 0.000000
0.585260 0.731685 0.000000
0.620294 0.731533 0.000000
0.655818 0.731350 0.000000
0.691737 0.731197 0.048096
0.728023 0.730983 0.081300
0.761318 0.727962 0.106996
0.788174 0.719997 0.133333
0.813230 0.711330 0.156710
0.834836 0.700832 0.175357
0.860472 0.694179 0.195346
0.885466 0.687861 0.216159
0.909819 0.682002 0.237430
0.933593 0.676722 0.259770
0.956725 0.672175 0.284123
0.979034 0.668544 0.310857
1.000000 0.665919 0.340459
0.196536 0.762112 0.000000
0.200778 0.762600 0.000000
0.206363 0.762875 0.000000
0.217533 0.762966 0.000000
0.233921 0.762875 0.000000
0.253941 0.762631 0.000000
0.276982 0.762264 0.000000
0.302403 0.761837 0.000000
0.329778 0.761471 0.000000
0.358465 0.761227 0.000000
0.388525 0.760952 0.000000
0.419409 0.760769 0.000000
0.451240 0.760555 0.000000
0.483619 0.760220 0.000000
0.516411 0.759701 0.000000
0.549737 0.759091 0.000000
0.583520 0.758450 0.000000
0.617762 0.757900 0.000000
0.652644 0.757595 0.000000
0.687984 0.757351 0.052583
0.723812 0.757137 0.084779
0.759854 0.756832 0.107515
0.791531 0.752651 0.131350
0.816159 0.743191 0.156374
0.838926 0.733181 0.179141
0.860380 0.723171 0.200290
0.885130 0.716365 0.220859
0.909270 0.710018 0.241978
0.932891 0.704219 0.263859
0.955932 0.699153 0.287999
0.978149 0.694942 0.314458
0.999176 0.691707 0.343877
0.204532 0.789792 0.000000
0.208499 0.790219 0.000000
0.213809 0.790524 0.000000
0.224308 0.790616 0.000000
0.239963 0.790463 0.000000
0.259312 0.790219 0.000000
0.281621 0.789914 0.000000
0.306310 0.789578 0.000000
0.333043 0.789303 0.000000
0.361334 0.789090 0.000000
0.390692 0.788907 0.000000
0.421332 0.788785 0.000000
0.452705 0.788602 0.000000
0.484688 0.788296 0.000000
0.517144 0.787839 0.000000
0.550103 0.787289 0.000000
0.583551 0.786618 0.000000
0.617456 0.786038 0.000000
0.651789 0.785580 0.005951
0.686702 0.785183 0.067659
0.721889 0.784787 0.094881
0.757382 0.784329 0.117067
0.792996 0.783627 0.137148
0.822721 0.778042 0.159426
0.845335 0.767300 0.183505
0.866300 0.756374 0.206180
0.885832 0.745418 0.227939
0.909819 0.738643 0.248997
0.933349 0.732509 0.271336
0.956268 0.726986 0.295323
0.978332 0.722225 0.321721
0.999145 0.718349 0.351141
0.212650 0.817685 0.000000
0.216648 0.817960 0.000000
0.221408 0.818051 0.000000
0.231510 0.817960 0.000000
0.246220 0.817716 0.000000
0.264714 0.817350 0.000000
0.286290 0.816922 0.000000
0.310399 0.816526 0.000000
0.336431 0.816159 0.000000
0.363897 0.815885 0.000000
0.392798 0.815640 0.000000
0.422889 0.815518 0.000000
0.453681 0.815305 0.000000
0.485298 0.815000 0.000000
0.517235 0.814481 0.000000
0.549767 0.813840 0.000000
0.582666 0.813077 0.000000
0.616052 0.812375 0.000000
0.649928 0.811765 0.021729
0.684230 0.811215 0.074678
0.718959 0.810697 0.101198
0.753902 0.810086 0.123476
0.788937 0.809323 0.143832
0.824002 0.808377 0.162997
0.851835 0.801419 0.185061
0.872557 0.789731 0.209171
0.891936 0.778042 0.231968
0.909972 0.766537 0.254002
0.932799 0.759548 0.276127
0.955627 0.753597 0.299809
0.977600 0.748287 0.325597
0.998322 0.743679 0.354650
0.220310 0.843717 0.000000
0.223880 0.843900 0.000000
0.228580 0.843961 0.000000
0.238010 0.843900 0.000000
0.252323 0.843778 0.000000
0.270237 0.843717 0.000000
0.291447 0.843748 0.000000
0.314977 0.843870 0.000000
0.340826 0.844114 0.000000
0.368231 0.844450 0.000000
0.396979 0.844785 0.000000
0.426795 0.845090 0.000000
0.457496 0.845274 0.000000
0.488960 0.845182 0.000000
0.520836 0.844877 0.000000
0.553063 0.844236 0.000000
0.585779 0.843503 0.000000
0.618799 0.842710 0.015900
0.652399 0.841947 0.074434
0.686305 0.841245 0.100069
0.720516 0.840513 0.122896
0.755001 0.839658 0.143862
0.789548 0.838712 0.162936
0.824186 0.837552 0.181857
0.858732 0.836240 0.200320
0.884276 0.827787 0.222324
0.903197 0.815091 0.245945
0.920775 0.802609 0.268986
0.937133 0.790524 0.291447
0.958221 0.783017 0.314611
0.979675 0.777035 0.340459
0.999695 0.771603 0.368933
0.229831 0.872801 0.000000
0.233188 0.872892 0.000000
0.237400 0.872862 0.000000
0.246525 0.872679 0.000000
0.260197 0.872435 0.000000
0.277348 0.872129 0.000000
0.297551 0.871916 0.000000
0.320317 0.871672 0.000000
0.345251 0.871489 0.000000
0.371893 0.871366 0.000000
0.399756 0.871183 0.000000
0.428840 0.871031 0.000000
0.458839 0.870756 0.000000
0.489540 0.870390 0.000000
