assets/luts/Cinematic.cube
# Created by Adobe Lightroom plugin Export LUT (1.18.0)
# www.johnrellis.com/lightroom/exportlut.htm
# Preset: Cinematic7
# Color profile: /Library/Application Support/Adobe/Color/Profiles/Recommended/AdobeRGB1998.icc
LUT_3D_SIZE 8
DOMAIN_MIN 0.000000 0.000000 0.000000
DOMAIN_MAX 0.903226 0.903226 0.903226
0.000000 0.000000 0.000000
0.113863 0.012634 0.010315
0.232792 0.040131 0.035279
0.387579 0.031922 0.039399
0.561395 0.000000 0.050721
0.717006 0.000000 0.087739
0.837369 0.000000 0.138979
0.938720 0.111391 0.207279
0.019165 0.104829 0.000000
0.113954 0.107362 0.008240
0.231785 0.118166 0.029084
0.383581 0.128817 0.033906
0.556146 0.131533 0.046815
0.709133 0.125704 0.084352
0.831083 0.129274 0.135775
0.935241 0.160037 0.204593
0.071809 0.209445 0.004303
0.125978 0.211551 0.009186
0.234867 0.223545 0.019928
0.391150 0.252384 0.012787
0.565179 0.269291 0.023285
0.713008 0.267399 0.084016
0.837919 0.264012 0.143954
0.939422 0.271336 0.215885
0.102052 0.348089 0.000000
0.152438 0.349279 0.000000
0.258976 0.355718 0.000000
0.405982 0.385199 0.000000
0.586694 0.415808 0.000000
0.722286 0.406775 0.085206
0.838590 0.393988 0.150454
0.937865 0.387640 0.223636
0.134951 0.510887 0.000000
0.182650 0.512016 0.000000
0.292882 0.517723 0.000000
0.427832 0.529137 0.000000
0.581353 0.543420 0.000000
0.718837 0.535851 0.076509
0.834440 0.518181 0.153841
0.935393 0.504417 0.233646
0.169345 0.663233 0.000000
0.213107 0.667323 0.000000
0.317601 0.668360 0.000000
0.445838 0.670466 0.000000
0.584833 0.671626 0.000000
0.724544 0.666712 0.077577
0.836973 0.642817 0.169986
0.935729 0.621393 0.253483
0.204532 0.789792 0.000000
0.239963 0.790463 0.000000
0.333043 0.789303 0.000000
0.452705 0.788602 0.000000
0.583551 0.786618 0.000000
0.721889 0.784787 0.094881
0.845335 0.767300 0.183505
0.933349 0.732509 0.271336
0.236515 0.897398 0.000000
0.265690 0.897032 0.000000
0.348486 0.896330 0.000000
0.460182 0.895872 0.000000
0.580987 0.889464 0.000000
0.712795 0.887022 0.122408
0.848234 0.883299 0.209781
0.952453 0.855222 0.296880
0.000000 0.037324 0.115572
0.102968 0.051942 0.118746
0.222416 0.050752 0.127443
0.376654 0.000000 0.134951
0.550744 0.000000 0.144839
0.703273 0.000000 0.164950
0.826200 0.000000 0.199680
0.930632 0.123018 0.255528
0.000000 0.111696 0.114473
0.104952 0.113191 0.117891
0.224186 0.115938 0.125093
0.376928 0.116701 0.133516
0.550256 0.110719 0.143526
0.700160 0.108644 0.162997
0.821866 0.124056 0.196628
0.927123 0.165927 0.251713
0.027253 0.212894 0.114290
0.115633 0.216251 0.118379
0.230411 0.225101 0.124422
0.383703 0.246220 0.130556
0.555230 0.259281 0.139986
0.702144 0.258762 0.162509
0.824979 0.258732 0.200778
0.930083 0.272648 0.260166
0.052003 0.348699 0.102968
0.133364 0.350866 0.111208
0.251743 0.357519 0.116793
0.394507 0.377691 0.125673
0.566705 0.401740 0.134157
0.705409 0.396399 0.161593
0.825040 0.387793 0.203952
0.928801 0.386908 0.265751
0.095644 0.512627 0.084596
0.159121 0.512902 0.086671
0.280644 0.516533 0.094545
0.417487 0.523705 0.108522
0.569635 0.535424 0.125978
0.708919 0.529808 0.161196
0.826749 0.514977 0.211246
0.929076 0.504448 0.278019
0.137819 0.660792 0.014191
0.188876 0.661341 0.027558
0.302495 0.662684 0.061372
0.435645 0.665858 0.091066
0.577752 0.668544 0.125185
0.719844 0.665003 0.169924
0.832242 0.641749 0.229435
0.930755 0.621607 0.297673
0.181338 0.785214 0.000000
0.220340 0.784360 0.000000
0.319646 0.784024 0.019867
0.443549 0.784878 0.088685
0.577203 0.784237 0.132906
0.716091 0.782193 0.179355
0.838956 0.764431 0.237644
0.927459 0.730831 0.309300
0.220768 0.895048 0.000000
0.252293 0.895140 0.000000
0.339117 0.894682 0.000000
0.453681 0.894438 0.099397
0.579706 0.892210 0.152773
0.711055 0.888151 0.206424
0.844999 0.882811 0.265537
0.948669 0.854673 0.337285
0.000000 0.090883 0.266148
0.000000 0.079103 0.269322
0.206424 0.083894 0.277379
0.363867 0.059571 0.303319
0.545434 0.000000 0.324743
0.698939 0.000000 0.334997
0.821927 0.099580 0.361425
0.924529 0.205417 0.409369
0.000000 0.142794 0.265934
0.000000 0.134371 0.268589
0.206210 0.134524 0.275883
0.364050 0.124758 0.299474
0.544366 0.082002 0.317235
0.696590 0.072786 0.326177
0.818997 0.155428 0.358007
0.922820 0.230564 0.406897
0.000000 0.233982 0.267613
0.023987 0.234775 0.270329
0.210391 0.236942 0.277562
0.373877 0.238804 0.288975
0.552972 0.243351 0.306523
0.698299 0.253422 0.328252
0.819120 0.274083 0.360449
0.922210 0.310307 0.409308
0.000000 0.362432 0.282658
0.000000 0.365759 0.282750
0.220645 0.374914 0.280797
0.387152 0.387976 0.293645
0.561883 0.400885 0.309361
0.701198 0.398444 0.332525
0.820310 0.400366 0.366644
0.922210 0.413489 0.416022
0.000000 0.522118 0.288640
0.000000 0.524590 0.283787
0.237705 0.530175 0.283024
0.403296 0.537133 0.295109
0.565606 0.543999 0.311284
0.702510 0.533867 0.336309
0.819577 0.523796 0.372290
0.921263 0.522240 0.423590
0.000000 0.667597 0.271244
0.025483 0.668574 0.269322
0.260441 0.669154 0.286168
0.413306 0.670222 0.297917
0.564080 0.671321 0.316197
0.708492 0.666438 0.344976
0.821866 0.646540 0.385748
0.922454 0.634241 0.438972
0.080690 0.790219 0.281834
0.158907 0.789609 0.286076
0.287724 0.788205 0.293919
0.424018 0.787289 0.306676
0.563745 0.785794 0.326390
0.705959 0.784115 0.355047
0.831388 0.769131 0.396246
0.921569 0.740871 0.450019
0.179629 0.896300 0.293187
0.214908 0.895720 0.289616
0.314702 0.894682 0.297612
0.438788 0.895140 0.318639
0.568750 0.892546 0.342229
0.702266 0.888884 0.374487
0.836301 0.884092 0.415229
0.940673 0.858854 0.467231
0.000000 0.139620 0.475105
0.000000 0.113375 0.479500
0.128634 0.112612 0.486488
0.336217 0.107301 0.497688
0.518761 0.065644 0.520714
0.676417 0.073884 0.524010
0.802487 0.173404 0.532494
0.906828 0.285313 0.567895
0.000000 0.187106 0.479194
0.000000 0.171939 0.481819
0.125154 0.158145 0.487770
0.337011 0.154726 0.498421
0.520287 0.137087 0.519982
0.675410 0.148653 0.522606
0.800717 0.215183 0.533440
0.905333 0.311376 0.571496
0.000000 0.279057 0.479438
0.000000 0.275090 0.481483
0.105257 0.259800 0.487831
0.339696 0.262242 0.500053
0.526390 0.264836 0.519280
0.679164 0.285466 0.529015
0.803677 0.334600 0.553918
0.904753 0.398199 0.594751
0.000000 0.395544 0.485084
0.000000 0.396277 0.487221
0.121492 0.398505 0.494301
0.348669 0.403082 0.505730
0.532952 0.408942 0.518791
0.677546 0.422034 0.535637
0.799802 0.442908 0.560540
0.904173 0.473548 0.595850
0.000000 0.539239 0.500908
0.000000 0.540154 0.500420
0.137911 0.544884 0.501854
0.363622 0.552880 0.512230
0.542473 0.556634 0.525719
0.682551 0.551751 0.543236
0.801968 0.553674 0.567285
0.904540 0.564508 0.600397
0.000000 0.678401 0.499489
0.000000 0.681483 0.501732
0.184176 0.681331 0.503502
0.383368 0.681514 0.518120
0.544121 0.681910 0.531060
0.689601 0.676967 0.549248
0.804440 0.664759 0.574701
0.906188 0.662226 0.608423
0.000000 0.794553 0.492927
0.000000 0.794705 0.496071
0.250217 0.794064 0.510369
0.405097 0.793301 0.523247
0.548943 0.791775 0.536248
0.690150 0.789548 0.553918
0.814176 0.777188 0.578729
0.906828 0.757809 0.611994
0.161837 0.898131 0.517266
0.215061 0.897642 0.524224
0.321019 0.895933 0.534997
0.426612 0.895415 0.524834
0.557610 0.892821 0.539513
0.689998 0.889464 0.559991
0.821103 0.885527 0.586664
0.925902 0.865721 0.619623
0.000000 0.194339 0.681300
0.000000 0.173342 0.683436
0.000000 0.155001 0.686793
0.272374 0.151888 0.693294
0.483528 0.147585 0.703365
0.649439 0.165652 0.696101
0.782803 0.234257 0.688533
0.892271 0.333227 0.699001
0.000000 0.233402 0.682307
0.000000 0.219059 0.684840
0.000000 0.193393 0.688258
0.271580 0.191287 0.694057
0.483467 0.191287 0.702632
0.649714 0.209659 0.696071
0.782467 0.268437 0.689784
0.891447 0.356909 0.701472
0.000000 0.323217 0.682918
0.000000 0.317845 0.684169
0.000000 0.295476 0.688228
0.269261 0.292607 0.693721
0.483833 0.298436 0.699855
0.647852 0.315953 0.693751
0.779446 0.359716 0.693080
0.887755 0.424720 0.708370
0.000000 0.433875 0.684382
0.000000 0.431800 0.685084
0.000000 0.426886 0.688624
0.279942 0.426062 0.693935
0.490364 0.433753 0.699611
0.649439 0.449531 0.697780
0.777584 0.479225 0.704738
0.885954 0.517113 0.721431
0.000000 0.559991 0.685542
0.000000 0.560327 0.686580
0.000000 0.560906 0.689021
0.302037 0.563317 0.693416
0.501244 0.568566 0.698146
0.650385 0.576654 0.704250
0.776181 0.589990 0.716121
0.884733 0.607385 0.732174
0.000000 0.683467 0.676417
0.000000 0.683833 0.676753
0.000000 0.683467 0.677424
0.328985 0.683040 0.682795
0.512444 0.682368 0.694087
0.659174 0.685451 0.705837
0.782437 0.686671 0.719417
0.888884 0.691310 0.735225
0.000000 0.798520 0.665522
0.000000 0.797940 0.666133
0.154849 0.796414 0.670710
0.378668 0.793881 0.684627
0.532250 0.791928 0.696925
0.668086 0.791440 0.705745
0.791867 0.784756 0.717037
0.890776 0.774441 0.732235
0.000000 0.898589 0.662135
0.079561 0.897795 0.664729
0.277623 0.895201 0.675319
0.437476 0.893065 0.698054
0.549920 0.891325 0.695308
0.676448 0.888884 0.704921
0.802487 0.886046 0.717372
0.909087 0.871916 0.733700
0.000000 0.244053 0.816861
0.000000 0.231510 0.817594
0.000000 0.210178 0.818692
0.143191 0.217197 0.821805
0.418982 0.228641 0.824033
0.607691 0.249546 0.826200
0.762997 0.300786 0.820890
0.877745 0.392340 0.814878
0.000000 0.273686 0.814572
0.000000 0.263706 0.815091
0.000000 0.240238 0.817166
0.143771 0.246281 0.819394
0.418555 0.258213 0.821805
0.606714 0.278569 0.824460
0.761776 0.326055 0.819944
0.876585 0.410681 0.815152
0.000000 0.354833 0.816434
0.000000 0.349401 0.816648
0.000000 0.335302 0.817929
0.166567 0.337285 0.819669
0.426368 0.349493 0.821195
0.610010 0.367895 0.823362
0.761257 0.406775 0.820157
0.875120 0.471046 0.818204
0.000000 0.454292 0.816159
0.000000 0.452186 0.816007
0.000000 0.450019 0.816983
0.222263 0.460365 0.819913
0.449805 0.474647 0.821988
0.619867 0.489479 0.823758
0.762722 0.514824 0.822507
0.875242 0.550744 0.822507
0.000000 0.565576 0.812619
0.000000 0.565362 0.812955
0.000000 0.566125 0.813931
0.250065 0.573266 0.815366
0.473548 0.590326 0.816220
0.625757 0.596948 0.818631
0.761501 0.608606 0.819242
0.874052 0.628931 0.822232
0.000000 0.685512 0.809323
0.000000 0.686458 0.810269
0.000000 0.687404 0.811063
0.286931 0.689631 0.812100
0.486702 0.693477 0.813169
0.637507 0.699550 0.816648
0.766079 0.707515 0.821286
0.875944 0.719631 0.829435
0.000000 0.807431 0.805264
0.000000 0.807645 0.805844
0.000000 0.806149 0.806455
0.338140 0.803128 0.808347
0.510979 0.799893 0.810880
0.652064 0.797818 0.815000
0.775082 0.796323 0.820157
0.880491 0.795651 0.827756
0.000000 0.903044 0.788937
0.000000 0.902251 0.789639
0.205356 0.899748 0.792874
0.394995 0.896483 0.799680
0.541436 0.892546 0.806821
0.665034 0.889738 0.810483
0.786221 0.888426 0.816983
0.894316 0.880217 0.825101
0.000000 0.290135 0.904753
0.000000 0.285008 0.905516
0.000000 0.277104 0.906035
0.000000 0.290471 0.906523
0.362036 0.310887 0.906554
0.555138 0.339574 0.906340
0.718105 0.376410 0.905974
0.861631 0.447852 0.906310
0.000000 0.312383 0.902861
0.000000 0.308019 0.903532
0.000000 0.301396 0.904143
0.000000 0.312902 0.904356
0.363622 0.331731 0.904356
0.554284 0.357641 0.903990
0.715633 0.391272 0.903563
0.858549 0.457038 0.904082
0.000000 0.378332 0.903349
0.000000 0.375830 0.903471
0.000000 0.374487 0.903532
0.000000 0.390631 0.903319
0.382483 0.406500 0.902922
0.564172 0.428962 0.902739
0.720516 0.458717 0.902983
0.860044 0.510887 0.904662
0.000000 0.466377 0.903044
0.000000 0.465126 0.902770
0.000000 0.466041 0.902525
0.162661 0.488563 0.901976
0.420874 0.512535 0.901152
0.584283 0.529595 0.901457
0.728939 0.548089 0.902251
0.861631 0.579126 0.903960
0.000000 0.566278 0.899504
0.000000 0.565911 0.899199
0.000000 0.567468 0.898863
0.160586 0.577417 0.898711
0.447608 0.608057 0.897307
0.599115 0.620386 0.897581
0.734310 0.629816 0.898741
0.862425 0.651453 0.901030
0.000000 0.676417 0.896330
0.000000 0.676844 0.896330
0.000000 0.679225 0.896330
0.226169 0.686305 0.896361
0.455940 0.698360 0.896056
0.620111 0.714443 0.896361
0.747127 0.720180 0.897917
0.866331 0.731075 0.898924
0.000000 0.791958 0.893767
0.000000 0.792508 0.894011
0.000000 0.793545 0.894041
0.294438 0.795895 0.894072
0.483955 0.798306 0.893706
0.631830 0.801602 0.893889
0.759060 0.806332 0.895323
0.870848 0.813230 0.898070
0.000000 0.906615 0.889830
0.000000 0.906096 0.889769
0.025788 0.905455 0.890532
0.349432 0.902495 0.890715
0.512932 0.898650 0.890654
0.651637 0.894865 0.891203
0.772946 0.892088 0.892515
0.881712 0.889311 0.896178
0.000000 0.339849 0.967590
0.000000 0.341497 0.967712
0.000000 0.359472 0.966888
0.000000 0.386297 0.966186
0.354101 0.411414 0.965362
0.535485 0.443458 0.964202
0.689113 0.482246 0.962951
0.823423 0.519554 0.961608
0.000000 0.355474 0.966735
0.000000 0.357153 0.966888
0.000000 0.374243 0.966186
0.000000 0.404669 0.965148
0.360784 0.428199 0.964385
0.538445 0.458259 0.963226
0.689815 0.493965 0.961944
0.823056 0.528496 0.960784
0.000000 0.402197 0.965759
0.000000 0.403784 0.965759
0.000000 0.418067 0.964843
0.149691 0.467292 0.963439
0.389807 0.486336 0.962554
0.553033 0.510307 0.961303
0.696529 0.537499 0.960357
0.825620 0.564202 0.959686
0.000000 0.466468 0.964996
0.000000 0.467567 0.965087
0.000000 0.477974 0.964385
0.140719 0.521782 0.962371
0.433509 0.568078 0.959960
0.575647 0.583062 0.959258
0.707729 0.599817 0.958801
0.831357 0.617762 0.958770
0.000000 0.558068 0.962737
0.000000 0.558068 0.962890
0.000000 0.558892 0.962707
0.000000 0.567407 0.962219
0.434730 0.629877 0.958099
0.592889 0.654780 0.956603
0.718471 0.666407 0.956725
0.839139 0.681697 0.957519
0.000000 0.661555 0.959838
0.000000 0.661616 0.959625
0.000000 0.663172 0.959136
0.000000 0.670283 0.958373
0.387701 0.688594 0.957061
0.603906 0.726986 0.955016
0.735134 0.743069 0.955596
0.849668 0.752499 0.956329
0.000000 0.771847 0.956939
0.000000 0.772213 0.956786
0.000000 0.774014 0.956298
0.161929 0.779965 0.955596
0.431067 0.789883 0.954589
0.601526 0.801663 0.953979
0.749325 0.818814 0.953460
0.859068 0.823331 0.953674
0.000000 0.884367 0.954162
0.000000 0.884428 0.953979
0.000000 0.885222 0.953613
0.290013 0.887053 0.953063
0.480018 0.889250 0.952331
0.629603 0.891691 0.951568
0.759487 0.894377 0.951049
0.871031 0.898589 0.950927
