assets/luts/Cinematic.cube
# Created by Adobe Lightroom plugin Export LUT (1.18.0)
# www.johnrellis.com/lightroom/exportlut.htm
# Preset: Cinematic7
# Color profile: /Library/Application Support/Adobe/Color/Profiles/Recommended/AdobeRGB1998.icc
LUT_3D_SIZE 5
DOMAIN_MIN 0.000000 0.000000 0.000000
DOMAIN_MAX 0.903226 0.903226 0.903226
0.000000 0.000000 0.000000
0.200595 0.034485 0.030091
0.474708 0.014313 0.042939
0.749905 0.000000 0.099641
0.938720 0.111391 0.207279
0.063172 0.180911 0.004273
0.201846 0.192050 0.020447
0.474891 0.229374 0.020325
0.747372 0.232212 0.098512
0.940673 0.243900 0.215763
0.117952 0.425757 0.000000
0.246311 0.432929 0.000000
0.498695 0.469947 0.000000
0.750362 0.467750 0.099306
0.936187 0.445838 0.227420
0.178836 0.699214 0.000000
0.293248 0.700893 0.000000
0.516533 0.703212 0.000000
0.757015 0.693996 0.106142
0.934997 0.649531 0.257542
0.236515 0.897398 0.000000
0.324193 0.896483 0.000000
0.517723 0.890471 0.000000
0.746578 0.886320 0.146731
0.952453 0.855222 0.296880
0.000000 0.079133 0.221347
0.178408 0.075776 0.231144
0.455940 0.000000 0.267643
0.731197 0.000000 0.286107
0.925231 0.174105 0.361212
0.000000 0.200229 0.223331
0.181888 0.202731 0.231174
0.463630 0.205234 0.250706
0.731289 0.217380 0.286687
0.925231 0.271977 0.365087
0.000000 0.437079 0.237675
0.202274 0.444434 0.231083
0.479500 0.463783 0.250889
0.734279 0.462074 0.292546
0.925689 0.461036 0.379370
0.000000 0.703822 0.221408
0.248417 0.705165 0.239536
0.500084 0.706050 0.264622
0.747127 0.695338 0.313146
0.925872 0.658106 0.403601
0.192416 0.898344 0.237308
0.296941 0.897276 0.246189
0.507561 0.894682 0.280980
0.739620 0.888548 0.341772
0.944884 0.859129 0.435615
0.000000 0.167391 0.585595
0.000000 0.132967 0.591669
0.410651 0.120577 0.610254
0.698482 0.141176 0.612207
0.899779 0.307988 0.634699
0.000000 0.277836 0.588617
0.000000 0.250919 0.593591
0.412879 0.247135 0.611078
0.697230 0.274937 0.613092
0.897459 0.389014 0.648341
0.000000 0.481147 0.594141
0.000000 0.481971 0.598169
0.424842 0.488350 0.612207
0.695155 0.509331 0.634089
0.893339 0.547234 0.673365
0.000000 0.712459 0.591821
0.000000 0.711604 0.592615
0.456367 0.711330 0.619013
0.708858 0.708522 0.642176
0.896178 0.698085 0.675990
0.071077 0.897368 0.590356
0.272557 0.895689 0.607294
0.488930 0.893004 0.618494
0.714900 0.887694 0.641993
0.916686 0.867918 0.678645
0.000000 0.254704 0.840085
0.000000 0.223148 0.842252
0.284977 0.239231 0.845762
0.635248 0.277836 0.848447
0.872892 0.404242 0.839017
0.000000 0.337407 0.839414
0.000000 0.321019 0.840787
0.295537 0.328283 0.843412
0.636225 0.361883 0.845701
0.870085 0.460029 0.839414
0.000000 0.507958 0.836454
0.000000 0.506371 0.836973
0.351446 0.527733 0.837644
0.644495 0.547234 0.839261
0.869230 0.590936 0.841428
0.000000 0.715328 0.834775
0.000000 0.715114 0.834470
0.395911 0.719417 0.835569
0.668818 0.727871 0.839048
0.873136 0.742763 0.847471
0.000000 0.904082 0.816526
0.096559 0.902159 0.818723
0.464302 0.896574 0.826963
0.694209 0.890623 0.834623
0.890654 0.882109 0.844205
0.000000 0.339849 0.967590
0.000000 0.351537 0.967193
0.232883 0.398047 0.965850
0.575647 0.452857 0.963897
0.823423 0.519554 0.961608
0.000000 0.388708 0.966278
0.000000 0.399390 0.965850
0.277531 0.458228 0.963714
0.586725 0.502403 0.961700
0.825254 0.554284 0.960235
0.000000 0.510033 0.963989
0.000000 0.508507 0.963897
0.323156 0.577020 0.959838
0.614801 0.619745 0.957305
0.834623 0.648066 0.958007
0.000000 0.689631 0.959655
0.000000 0.691035 0.959167
0.274968 0.706233 0.957519
0.641749 0.750454 0.954437
0.851743 0.769528 0.955627
0.000000 0.884367 0.954162
0.000000 0.884916 0.953704
0.393622 0.888151 0.952728
0.663416 0.892363 0.951415
0.871031 0.898589 0.950927
