assets/luts/Classic Teal and Orange.cube
# Created by: Lutify.me
# Copyright: (c) Copyright Lutify.me 2016, G.T. Colord LTD
# Website: https://lutify.me
# Contact: help@lutify.me
LUT_3D_SIZE 33
0.012207 0.008179 0.009064
0.026245 0.008606 0.007416
0.050842 0.009888 0.004425
0.087372 0.012115 0.001862
0.130341 0.015442 0.000000
0.175049 0.019135 0.000031
0.219116 0.021576 0.000000
0.259552 0.022949 0.000031
0.296326 0.023346 0.000031
0.330902 0.023865 0.000031
0.364746 0.024628 0.000000
0.397430 0.025299 0.000000
0.426697 0.025848 0.000000
0.450256 0.026306 0.000000
0.468964 0.026672 0.000000
0.485901 0.026794 0.000000
0.501495 0.026703 0.000000
0.515656 0.026947 0.000031
0.529541 0.027191 0.000031
0.543243 0.027466 0.000000
0.556885 0.027771 0.000000
0.570740 0.028076 0.000000
0.584900 0.028442 0.000000
0.599304 0.028992 0.000031
0.613617 0.029663 0.000031
0.627777 0.030212 0.000000
0.641876 0.030731 0.000000
0.655518 0.031372 0.000000
0.669769 0.032135 0.000000
0.684692 0.033142 0.000031
0.700470 0.034424 0.000000
0.717590 0.035736 0.000031
0.734650 0.037323 0.000031
0.019501 0.020203 0.012512
0.031738 0.019867 0.008972
0.047485 0.020325 0.005310
0.071686 0.020813 0.002960
0.102264 0.022339 0.000824
0.136505 0.025177 0.000000
0.170990 0.028076 0.000000
0.205688 0.030273 0.000000
0.239227 0.031860 0.000031
0.270935 0.032837 0.000000
0.302032 0.033325 0.000000
0.333160 0.033325 0.000000
0.364105 0.032898 0.000000
0.394958 0.032562 0.000031
0.424072 0.032257 0.000031
0.449738 0.032776 0.000031
0.469574 0.033234 0.000000
0.487823 0.033081 0.000031
0.503754 0.033142 0.000031
0.518677 0.033386 0.000000
0.533386 0.033722 0.000000
0.548584 0.034027 0.000000
0.564087 0.034302 0.000031
0.579620 0.034729 0.000031
0.595490 0.035370 0.000031
0.611755 0.036072 0.000031
0.628906 0.036743 0.000000
0.646545 0.037628 0.000031
0.661957 0.038513 0.000031
0.677521 0.039581 0.000000
0.693481 0.040863 0.000000
0.710327 0.042267 0.000000
0.726990 0.044037 0.000031
0.027130 0.039856 0.018219
0.040955 0.035645 0.015778
0.055542 0.035095 0.009613
0.073212 0.035187 0.005859
0.098114 0.035767 0.001770
0.127075 0.037994 0.000031
0.156769 0.041351 0.000000
0.186462 0.044312 0.000000
0.217834 0.046875 0.000000
0.249817 0.048828 0.000000
0.280487 0.049927 0.000031
0.307831 0.049622 0.000031
0.333069 0.048798 0.000000
0.358154 0.047302 0.000000
0.384583 0.045654 0.000000
0.412384 0.044617 0.000000
0.438965 0.044800 0.000031
0.461182 0.043732 0.000000
0.480774 0.042908 0.000000
0.497986 0.042450 0.000000
0.513519 0.042358 0.000031
0.529541 0.042297 0.000031
0.546783 0.041992 0.000000
0.564148 0.041870 0.000031
0.581451 0.041992 0.000000
0.599121 0.042450 0.000031
0.617279 0.043182 0.000000
0.636353 0.044189 0.000031
0.654999 0.045319 0.000000
0.671082 0.046478 0.000000
0.687073 0.047852 0.000000
0.703247 0.049469 0.000031
0.719543 0.051300 0.000031
0.034760 0.067810 0.029968
0.048584 0.060883 0.027832
0.062378 0.057648 0.025330
0.079956 0.055969 0.015503
0.104919 0.055817 0.006348
0.134613 0.057373 0.000732
0.162933 0.061188 0.000000
0.190826 0.065125 0.000000
0.220245 0.069244 0.000000
0.252380 0.072662 0.000000
0.284698 0.075378 0.000031
0.314819 0.077087 0.000031
0.340424 0.076996 0.000031
0.364014 0.076569 0.000000
0.386017 0.075134 0.000000
0.407043 0.072510 0.000031
0.427704 0.070129 0.000031
0.448730 0.068268 0.000031
0.468048 0.066101 0.000031
0.485229 0.064423 0.000031
0.500397 0.063293 0.000031
0.514313 0.062439 0.000031
0.529449 0.061340 0.000000
0.545776 0.060364 0.000000
0.563019 0.059540 0.000031
0.580566 0.059235 0.000031
0.598419 0.059204 0.000031
0.616821 0.059814 0.000000
0.636017 0.060608 0.000000
0.654114 0.061462 0.000031
0.669708 0.063019 0.000031
0.685150 0.064758 0.000031
0.700714 0.066742 0.000000
0.043335 0.096558 0.044983
0.057892 0.092560 0.043121
0.071869 0.085052 0.040436
0.087219 0.082428 0.036377
0.110901 0.080688 0.022858
0.143951 0.080170 0.005127
0.175995 0.082855 0.000031
0.202789 0.087219 0.000000
0.230194 0.092285 0.000000
0.259430 0.097473 0.000000
0.290558 0.102142 0.000000
0.321320 0.105682 0.000031
0.349945 0.108032 0.000031
0.373993 0.108917 0.000000
0.396698 0.109406 0.000000
0.418152 0.109558 0.000000
0.438538 0.108337 0.000031
0.458618 0.107788 0.000031
0.477905 0.106689 0.000000
0.495392 0.105316 0.000031
0.509583 0.103973 0.000031
0.522278 0.103058 0.000031
0.534302 0.102264 0.000031
0.547211 0.100983 0.000000
0.560211 0.100037 0.000031
0.574585 0.099121 0.000031
0.590118 0.098572 0.000000
0.606232 0.098022 0.000000
0.623779 0.097900 0.000000
0.641571 0.098053 0.000000
0.657562 0.099121 0.000031
0.672699 0.101074 0.000031
0.688110 0.103180 0.000031
0.053101 0.125610 0.060944
0.065369 0.123260 0.058533
0.081299 0.118195 0.057037
0.096802 0.110718 0.054565
0.117706 0.108612 0.048676
0.150269 0.105804 0.021118
0.186859 0.105682 0.002167
0.216553 0.109314 0.000366
0.244812 0.114105 0.000000
0.273621 0.119415 0.000000
0.302856 0.124939 0.000000
0.332489 0.130585 0.000000
0.359558 0.134796 0.000000
0.383575 0.137695 0.000000
0.405090 0.139648 0.000000
0.426331 0.141266 0.000031
0.447144 0.142365 0.000031
0.467499 0.143616 0.000000
0.487915 0.144592 0.000031
0.507782 0.145264 0.000031
0.525879 0.145721 0.000031
0.539368 0.145599 0.000000
0.552155 0.145630 0.000000
0.565125 0.145752 0.000031
0.578705 0.145813 0.000031
0.592712 0.145935 0.000000
0.607727 0.146118 0.000000
0.623627 0.146484 0.000031
0.640839 0.146820 0.000031
0.658905 0.147339 0.000000
0.675720 0.148407 0.000000
0.691071 0.150299 0.000000
0.706512 0.152557 0.000031
0.064117 0.153992 0.077484
0.073212 0.151917 0.074463
0.088074 0.150146 0.072571
0.106293 0.143616 0.072418
0.127350 0.136841 0.068542
0.156189 0.135773 0.058136
0.193726 0.131653 0.014709
0.228516 0.132721 0.001556
0.258514 0.137115 0.000702
0.287994 0.142059 0.000031
0.317444 0.147491 0.000000
0.346832 0.153076 0.000000
0.375000 0.158417 0.000000
0.398743 0.162628 0.000000
0.419006 0.166077 0.000000
0.438568 0.169006 0.000031
0.458252 0.171265 0.000000
0.477020 0.173889 0.000031
0.496124 0.176453 0.000000
0.515503 0.178772 0.000031
0.534668 0.180298 0.000000
0.551575 0.181458 0.000031
0.564972 0.182312 0.000031
0.578186 0.183167 0.000031
0.591919 0.184052 0.000000
0.606384 0.185089 0.000000
0.621643 0.186249 0.000000
0.637909 0.187775 0.000031
0.655243 0.189270 0.000000
0.673737 0.191101 0.000031
0.692291 0.192932 0.000031
0.708588 0.195038 0.000000
0.723907 0.197449 0.000000
0.076813 0.181458 0.093353
0.083282 0.179749 0.090363
0.094452 0.178680 0.087250
0.112518 0.176025 0.087311
0.136536 0.167145 0.088470
0.164795 0.164185 0.081329
0.199554 0.162811 0.060669
0.236237 0.157928 0.008728
0.270111 0.160858 0.002380
0.301147 0.165497 0.000885
0.331024 0.170898 0.000610
0.360870 0.176453 0.000092
0.389282 0.181976 0.000000
0.414429 0.186798 0.000000
0.435913 0.190674 0.000000
0.455444 0.194275 0.000000
0.473846 0.197540 0.000000
0.492004 0.200928 0.000000
0.510468 0.204315 0.000031
0.529083 0.207672 0.000031
0.547791 0.210815 0.000000
0.564545 0.213104 0.000000
0.579315 0.215027 0.000000
0.592316 0.216675 0.000031
0.605286 0.218384 0.000031
0.618744 0.220215 0.000000
0.633148 0.222260 0.000000
0.649170 0.224304 0.000031
0.666351 0.226471 0.000000
0.684631 0.228882 0.000031
0.703705 0.231384 0.000000
0.721344 0.233826 0.000000
0.737061 0.236450 0.000000
0.091095 0.208527 0.108490
0.095703 0.207123 0.105652
0.102386 0.206512 0.101624
0.116974 0.206055 0.100433
0.143463 0.199921 0.103729
0.174042 0.191772 0.101685
0.206421 0.191925 0.090851
0.242279 0.188568 0.054596
0.277893 0.184937 0.007355
0.311493 0.188934 0.002808
0.342987 0.194092 0.001099
0.372986 0.200043 0.001038
0.402008 0.205780 0.000702
0.428497 0.211060 0.000275
0.451233 0.215454 0.000031
0.471375 0.219269 0.000000
0.489716 0.222870 0.000000
0.507935 0.226624 0.000000
0.526428 0.230408 0.000031
0.545166 0.234161 0.000000
0.563995 0.237976 0.000031
0.582275 0.241455 0.000000
0.597748 0.244232 0.000000
0.611145 0.246521 0.000000
0.623627 0.248688 0.000031
0.636871 0.250977 0.000031
0.650665 0.253448 0.000000
0.665527 0.256165 0.000000
0.681671 0.258942 0.000031
0.698792 0.262054 0.000000
0.717102 0.265259 0.000031
0.735138 0.268463 0.000031
0.750824 0.271454 0.000031
0.105316 0.235107 0.122589
0.108795 0.234131 0.119720
0.112610 0.233978 0.115570
0.122131 0.233917 0.113007
0.147736 0.231506 0.116791
0.181671 0.221527 0.119415
0.215179 0.218842 0.112000
0.247528 0.219238 0.096069
0.283356 0.213776 0.044128
0.318390 0.212677 0.008575
0.351929 0.217194 0.003296
0.383057 0.223083 0.002502
0.412872 0.229095 0.001495
0.440063 0.234772 0.001221
0.464050 0.239716 0.000793
0.484619 0.243927 0.000824
0.503082 0.247742 0.000824
0.521729 0.251343 0.000031
0.540375 0.255157 0.000000
0.558960 0.259247 0.000000
0.578064 0.263397 0.000000
0.597046 0.267548 0.000031
0.614838 0.271210 0.000000
0.629272 0.273926 0.000031
0.641815 0.276154 0.000031
0.655060 0.278534 0.000031
0.669128 0.281097 0.000000
0.684021 0.283905 0.000031
0.699860 0.286987 0.000031
0.716583 0.290283 0.000000
0.734070 0.293915 0.000000
0.752136 0.297638 0.000031
0.768311 0.301025 0.000000
0.118195 0.260315 0.135529
0.120911 0.259979 0.132385
0.122955 0.260315 0.128387
0.129089 0.260773 0.125366
0.150482 0.260712 0.128204
0.188049 0.253571 0.133331
0.223022 0.245209 0.131226
0.255035 0.246887 0.120911
0.287628 0.246368 0.096893
0.322754 0.239471 0.034363
0.357513 0.240631 0.008728
0.390900 0.245758 0.003784
0.421204 0.252136 0.003693
0.449677 0.258179 0.002808
0.474548 0.263336 0.002167
0.495789 0.267670 0.001404
0.514282 0.271576 0.001404
0.532928 0.275391 0.001068
0.551331 0.279358 0.000885
0.570129 0.283417 0.000885
0.589539 0.287476 0.000061
0.609344 0.291840 0.000000
0.628418 0.296082 0.000031
0.644348 0.299347 0.000000
0.657196 0.301788 0.000000
0.670502 0.304230 0.000031
0.684570 0.306793 0.000031
0.699615 0.309662 0.000031
0.715515 0.312744 0.000000
0.732422 0.316132 0.000000
0.750122 0.319641 0.000000
0.768158 0.323547 0.000000
0.785767 0.327118 0.000031
0.129517 0.283722 0.146973
0.131653 0.283783 0.143707
0.133148 0.284332 0.139771
0.136383 0.285400 0.137207
0.153290 0.286224 0.138611
0.191376 0.283875 0.144684
0.230164 0.273438 0.146851
0.262360 0.272064 0.137970
0.293396 0.274445 0.126251
0.325836 0.273102 0.094482
0.360443 0.266327 0.031128
0.394897 0.269012 0.009705
0.427979 0.274506 0.004364
0.457245 0.280975 0.004089
0.482971 0.286743 0.004211
0.504822 0.291107 0.003021
0.523407 0.295044 0.003052
0.542389 0.298737 0.001526
0.560791 0.302856 0.001556
0.579498 0.307037 0.001587
0.598694 0.311340 0.001587
0.618713 0.315704 0.000916
0.638916 0.320099 0.000916
0.656738 0.323669 0.000244
0.670532 0.326263 0.000000
0.684052 0.328735 0.000000
0.698181 0.331390 0.000031
0.713318 0.334290 0.000031
0.729462 0.337372 0.000031
0.746246 0.340851 0.000000
0.764160 0.344421 0.000000
0.782410 0.348297 0.000031
0.801025 0.352081 0.000031
0.139374 0.305664 0.156860
0.141113 0.306000 0.153748
0.142487 0.306671 0.150208
0.145325 0.307831 0.147614
0.156219 0.309723 0.148132
0.192505 0.310120 0.153717
0.235443 0.302002 0.158600
0.268616 0.296082 0.154724
0.299347 0.298584 0.141846
0.329956 0.300690 0.126404
0.362061 0.298187 0.085693
0.396637 0.293396 0.031830
0.430237 0.296844 0.011597
0.462006 0.302643 0.006714
0.489349 0.308594 0.005310
0.511658 0.313354 0.004547
0.530609 0.317413 0.004669
0.549438 0.321289 0.003540
0.568176 0.325409 0.003143
0.587280 0.329620 0.002472
0.606781 0.333923 0.001709
0.626556 0.338470 0.001740
0.646851 0.343201 0.001801
0.665924 0.347260 0.001801
0.681580 0.350006 0.000885
0.695465 0.352631 0.000885
0.709808 0.355286 0.000916
0.725159 0.358307 0.000946
0.741730 0.361176 0.000000
0.758820 0.364655 0.000000
0.776733 0.368408 0.000000
0.795471 0.372223 0.000000
0.819458 0.375854 0.000031
0.148010 0.326721 0.165649
0.149445 0.327271 0.162720
0.150757 0.328125 0.159698
0.153107 0.329437 0.157043
0.162659 0.331543 0.156738
0.193665 0.334503 0.161316
0.238251 0.328979 0.167358
0.273895 0.320709 0.167297
0.304779 0.320648 0.157623
0.334381 0.323761 0.144135
0.364624 0.324677 0.119110
0.396423 0.321198 0.071991
0.430603 0.318359 0.028229
0.463043 0.322906 0.013428
0.491760 0.328796 0.010376
0.515991 0.333496 0.006622
0.535736 0.337616 0.005737
0.554688 0.341766 0.004974
0.573456 0.346130 0.005066
0.592590 0.350494 0.004730
0.612274 0.355011 0.003906
0.632477 0.359680 0.003204
0.653381 0.364197 0.001862
0.673645 0.368927 0.001892
0.690308 0.372314 0.001923
0.705170 0.375122 0.001953
0.719513 0.377899 0.001953
0.735229 0.380981 0.002014
0.751923 0.384094 0.001678
0.769379 0.387451 0.000793
0.787567 0.391205 0.000793
0.806854 0.394897 0.000000
0.840332 0.398590 0.002930
0.155701 0.347168 0.173676
0.156982 0.347839 0.170898
0.158295 0.348755 0.168060
0.160431 0.350311 0.165680
0.168243 0.352783 0.164490
0.196625 0.356812 0.168121
0.240265 0.354370 0.174347
0.277954 0.345337 0.176422
0.309082 0.341705 0.170563
0.338776 0.344696 0.158112
0.367645 0.347412 0.141449
0.397461 0.347015 0.107330
0.428802 0.343140 0.057953
0.461761 0.341705 0.022247
0.492584 0.347198 0.015320
0.517181 0.352325 0.012695
0.538513 0.356506 0.009216
0.558075 0.360565 0.007294
0.577423 0.364838 0.005890
0.596771 0.369354 0.005341
0.616333 0.374115 0.005463
0.636414 0.379120 0.005585
0.657501 0.384094 0.005035
0.678955 0.388611 0.002991
0.697601 0.392883 0.003052
0.713226 0.395721 0.002045
0.728088 0.398529 0.002045
0.743805 0.401581 0.002045
0.760803 0.404907 0.002106
0.778259 0.408508 0.002136
0.796478 0.412354 0.002167
0.816040 0.415985 0.000916
0.855011 0.421783 0.014923
0.162537 0.367004 0.180908
0.163635 0.367676 0.178131
0.164917 0.368683 0.175476
0.166931 0.370392 0.173218
0.173615 0.373444 0.171478
0.199127 0.377960 0.174011
0.241516 0.377472 0.180084
0.281067 0.369934 0.183136
0.312958 0.363922 0.180145
0.342407 0.364502 0.169037
0.370911 0.368011 0.154205
0.399353 0.370209 0.133453
0.428925 0.368958 0.094482
0.459442 0.365509 0.048065
0.490051 0.365356 0.021729
0.518188 0.370178 0.017548
0.539856 0.374878 0.015167
0.559448 0.378967 0.013153
0.579376 0.383026 0.010010
0.599457 0.387299 0.007446
0.619690 0.391907 0.006012
0.640137 0.396851 0.005737
0.661133 0.402039 0.005859
0.682678 0.407288 0.005951
0.702209 0.411865 0.006073
0.718781 0.415039 0.005096
0.734711 0.417450 0.002716
0.750824 0.420502 0.002441
0.768066 0.423706 0.002167
0.785828 0.427216 0.002167
0.804169 0.430969 0.002197
0.823425 0.434937 0.002258
0.860016 0.445984 0.038208
0.168427 0.386169 0.187073
0.169464 0.386871 0.184357
0.170563 0.387878 0.181824
0.172424 0.389679 0.179596
0.178375 0.393158 0.177460
0.201538 0.398254 0.179108
0.241913 0.399597 0.184631
0.282501 0.393738 0.188263
0.315796 0.385986 0.187622
0.345520 0.384369 0.180023
0.374176 0.387329 0.164459
0.401825 0.390472 0.146729
0.429962 0.391510 0.119720
0.458832 0.389557 0.077942
0.487274 0.387085 0.039337
0.514526 0.388123 0.024384
0.540924 0.391968 0.019897
0.560608 0.396149 0.017731
0.580475 0.400482 0.015686
0.600464 0.404846 0.013641
0.621124 0.409210 0.010529
0.642456 0.413727 0.007324
0.664154 0.418701 0.006012
0.686188 0.424133 0.006134
0.706848 0.429016 0.006256
0.723907 0.432617 0.006348
0.739319 0.435516 0.006409
0.755951 0.438354 0.005463
0.774048 0.441223 0.003204
0.792084 0.444489 0.002258
0.810638 0.448120 0.002289
0.830109 0.452026 0.002289
0.863281 0.468506 0.061981
0.172485 0.402161 0.191437
0.173584 0.403625 0.189056
0.174683 0.405029 0.186615
0.176331 0.407684 0.184387
0.180939 0.412170 0.181793
0.201752 0.417908 0.182922
0.241547 0.421417 0.188354
0.283295 0.416718 0.192108
0.318359 0.409210 0.192291
0.347748 0.404236 0.187500
0.376617 0.405975 0.175385
0.404266 0.409668 0.158081
0.431396 0.412292 0.137604
0.459137 0.412506 0.106018
0.486511 0.410278 0.065491
0.512177 0.408356 0.033875
0.536957 0.409912 0.025299
0.559875 0.412933 0.024658
0.580963 0.416779 0.020355
0.601349 0.421143 0.017944
0.621918 0.425720 0.015900
0.643005 0.430359 0.013458
0.665466 0.434937 0.009399
0.688934 0.439941 0.006500
0.710754 0.445007 0.006409
0.728638 0.448761 0.006500
0.744324 0.451752 0.006561
0.760498 0.454834 0.006653
0.778046 0.458160 0.006439
0.796417 0.461578 0.006226
0.816376 0.464569 0.002899
0.835876 0.468323 0.002380
0.867889 0.488373 0.080200
0.176300 0.418335 0.195587
0.177368 0.420135 0.193176
0.178406 0.421936 0.190857
0.179810 0.425232 0.188568
0.183319 0.430573 0.185425
0.201752 0.436981 0.185669
0.240326 0.442841 0.190674
0.283020 0.439301 0.194733
0.319824 0.432007 0.196075
0.349701 0.425446 0.192841
0.378143 0.424683 0.183594
0.406464 0.428314 0.167755
0.433228 0.431854 0.150757
0.459747 0.433929 0.127289
0.486328 0.433533 0.093536
0.511505 0.431366 0.057800
0.535370 0.430603 0.035828
0.556122 0.431122 0.025757
0.578552 0.433929 0.026245
0.601318 0.437622 0.023682
0.622589 0.441956 0.020630
0.643860 0.446716 0.018066
0.665833 0.451630 0.015839
0.689545 0.456604 0.012390
0.712921 0.461273 0.008881
0.732574 0.464996 0.006653
0.749146 0.468109 0.006744
0.765533 0.471130 0.006836
0.782990 0.474457 0.006897
0.801331 0.477997 0.006989
0.820404 0.481689 0.007111
0.843964 0.485199 0.005981
0.872467 0.507660 0.096863
0.179413 0.434753 0.198914
0.180450 0.436737 0.196503
0.181458 0.438782 0.194214
0.182861 0.442444 0.191986
0.185364 0.448456 0.188477
0.201813 0.455292 0.187897
0.238708 0.461884 0.192230
0.282196 0.460907 0.196381
0.320190 0.454102 0.198029
0.351776 0.447998 0.196167
0.379181 0.443542 0.189240
0.407715 0.446625 0.176483
0.435181 0.450531 0.157440
0.461212 0.453766 0.140320
0.486725 0.455139 0.114777
0.511292 0.454285 0.082825
0.534668 0.452850 0.054016
0.554749 0.452057 0.036835
0.575500 0.452545 0.026550
0.597565 0.455017 0.027283
0.621521 0.458832 0.027039
0.644287 0.463013 0.022949
0.666687 0.467957 0.020172
0.690094 0.473145 0.017822
0.713531 0.478149 0.015442
0.734711 0.481964 0.011475
0.753052 0.484741 0.008179
0.770233 0.487518 0.006989
0.787964 0.490784 0.007080
0.806519 0.494324 0.007172
0.825592 0.497894 0.007263
0.849548 0.503632 0.016907
0.876770 0.526459 0.110992
0.182098 0.451508 0.201721
0.183014 0.453613 0.199280
0.183929 0.455902 0.196899
0.185059 0.459869 0.194519
0.186981 0.466339 0.190704
0.201660 0.473419 0.189606
0.237030 0.480194 0.193268
0.280548 0.481201 0.196777
0.319672 0.475555 0.198669
0.352570 0.469696 0.197540
0.380646 0.464386 0.192505
0.408142 0.464203 0.181915
0.436218 0.468628 0.166260
0.462677 0.472351 0.144775
0.487640 0.475128 0.127686
0.511353 0.475922 0.103546
0.534424 0.475220 0.075623
0.554016 0.473846 0.053589
0.574188 0.473236 0.036652
0.595245 0.474060 0.027771
0.617554 0.476562 0.028290
0.642090 0.480286 0.029083
0.666809 0.484406 0.025757
0.690826 0.489502 0.022522
0.714691 0.494720 0.019714
0.736450 0.499084 0.017456
0.755310 0.502472 0.015167
0.773438 0.504761 0.010986
0.792572 0.507355 0.007233
0.811340 0.510834 0.007355
0.830780 0.514404 0.007416
0.854279 0.522644 0.030060
0.880157 0.544434 0.120361
0.184296 0.468933 0.203918
0.185120 0.471130 0.201508
0.185974 0.473724 0.199127
0.186859 0.477966 0.196594
0.188080 0.484741 0.192291
0.200958 0.491974 0.190308
0.235413 0.498810 0.193604
0.278809 0.501160 0.196960
0.318695 0.496674 0.198456
0.352386 0.491241 0.197205
0.381805 0.485901 0.193390
0.408447 0.482513 0.185333
0.436523 0.486023 0.172028
0.463531 0.490173 0.153839
0.488770 0.493561 0.132141
0.511902 0.495667 0.115936
0.534393 0.496216 0.094025
0.553436 0.495453 0.072784
0.573395 0.494476 0.052124
0.593842 0.494141 0.035217
0.615723 0.495728 0.029694
0.638672 0.498413 0.029388
0.663483 0.501770 0.030212
0.690399 0.506226 0.029480
0.715637 0.511230 0.024475
0.738495 0.516022 0.021667
0.758331 0.519775 0.019501
0.776184 0.522644 0.017426
0.794769 0.525513 0.014832
0.815155 0.528229 0.010712
0.835754 0.531281 0.007599
0.858917 0.542175 0.044037
0.881683 0.561798 0.126129
0.185760 0.487152 0.205383
0.186462 0.489410 0.202881
0.187195 0.492401 0.200470
0.188019 0.496918 0.197876
0.188965 0.503998 0.193665
0.200104 0.511353 0.190613
0.232727 0.518250 0.192963
0.276764 0.521790 0.196014
0.317291 0.518341 0.197357
0.351990 0.512817 0.196655
0.382141 0.507812 0.192566
0.409058 0.502991 0.186279
0.436127 0.503082 0.175140
0.463745 0.507660 0.159882
0.489441 0.511353 0.140320
0.512848 0.514099 0.120789
0.534760 0.515747 0.105103
0.553253 0.515869 0.088684
0.572723 0.515594 0.069397
0.593079 0.515137 0.050140
0.614136 0.515411 0.034821
0.636963 0.517548 0.031281
0.660828 0.520386 0.030548
0.686401 0.523621 0.031372
0.714569 0.528412 0.032196
0.740387 0.532898 0.026093
0.761200 0.536957 0.023743
0.779266 0.540131 0.021637
0.798248 0.543274 0.019501
0.817963 0.546326 0.017151
0.839050 0.549286 0.013367
0.863556 0.561615 0.056458
0.882690 0.578735 0.128632
0.186584 0.506409 0.206177
0.187103 0.508698 0.203491
0.187592 0.512390 0.200775
0.188049 0.517242 0.197845
0.188660 0.524414 0.193512
0.198273 0.531921 0.190338
0.229492 0.538879 0.191650
0.273438 0.543884 0.193756
0.315155 0.541077 0.195099
0.350555 0.535706 0.194031
0.382080 0.530487 0.191254
0.409637 0.525604 0.184967
0.435547 0.522125 0.176178
0.463226 0.525482 0.162842
0.489563 0.529510 0.146271
0.513519 0.532593 0.126953
0.535645 0.534973 0.110138
0.553467 0.535614 0.097412
0.572418 0.536072 0.083160
0.592407 0.536163 0.065369
0.613403 0.536316 0.048584
0.635315 0.537201 0.035828
0.659027 0.539398 0.031586
0.684326 0.542511 0.031677
0.710846 0.545807 0.032562
0.739136 0.550354 0.033386
0.763397 0.553925 0.029999
0.782257 0.556915 0.025909
0.801178 0.560211 0.023651
0.821350 0.563568 0.021362
0.842072 0.566864 0.018951
0.866364 0.580200 0.067261
0.884491 0.594910 0.127991
0.186554 0.526978 0.206024
0.186920 0.529510 0.203186
0.187256 0.533813 0.200287
0.187317 0.539551 0.197021
0.187378 0.546600 0.192322
0.195435 0.554016 0.188538
0.225220 0.560974 0.189178
0.269531 0.567383 0.190765
0.311890 0.565674 0.191071
0.348541 0.559875 0.190521
0.380829 0.554779 0.187378
0.409943 0.549652 0.182800
0.435760 0.544800 0.174652
0.462097 0.544250 0.163330
0.489105 0.548492 0.149078
0.513824 0.551941 0.132812
0.536591 0.554626 0.114441
0.554199 0.555573 0.100891
0.572479 0.556458 0.089874
0.591980 0.557129 0.077728
0.612640 0.557434 0.061157
0.634521 0.557983 0.046875
0.657562 0.559387 0.036865
0.682556 0.561676 0.031952
0.709534 0.565002 0.032867
0.736755 0.568176 0.033783
0.762268 0.571594 0.034546
0.783478 0.574158 0.034241
0.804047 0.576691 0.027893
0.824188 0.580139 0.025513
0.845093 0.583679 0.023010
0.868011 0.597351 0.073456
0.885345 0.611206 0.129852
0.185211 0.549133 0.204529
0.185394 0.552216 0.201447
0.185394 0.557190 0.198242
0.185364 0.563477 0.194824
0.185059 0.570465 0.190002
0.191620 0.577728 0.185638
0.220093 0.584656 0.185272
0.265137 0.591492 0.186249
0.308258 0.591461 0.186371
0.345764 0.585541 0.185364
0.379211 0.580139 0.182495
0.409088 0.575134 0.177521
0.436279 0.570038 0.171082
0.461243 0.565765 0.161621
0.488037 0.568237 0.148773
0.513367 0.571960 0.134430
0.536896 0.575012 0.118896
0.554962 0.576233 0.104584
0.573181 0.577332 0.091217
0.592041 0.578339 0.081543
0.612122 0.579285 0.071899
0.633789 0.579895 0.057251
0.656830 0.580872 0.045258
0.681396 0.582703 0.037018
0.708038 0.585236 0.033234
0.736725 0.588654 0.034180
0.761353 0.591003 0.034912
0.782166 0.592712 0.035645
0.804535 0.595215 0.035309
0.826904 0.597961 0.032013
0.848328 0.601227 0.027344
0.870300 0.614532 0.076569
0.884552 0.628876 0.136749
0.182983 0.572479 0.201996
0.182587 0.577118 0.198242
0.182098 0.582550 0.194519
0.181580 0.589325 0.190643
0.181213 0.596252 0.185913
0.186584 0.603363 0.181152
0.213989 0.610229 0.179871
0.259613 0.617065 0.180054
0.304047 0.618103 0.179779
0.342316 0.613007 0.178406
0.376862 0.607269 0.175415
0.407990 0.601929 0.171112
0.436066 0.596741 0.164551
0.461456 0.591583 0.156372
0.486664 0.589691 0.145752
0.512482 0.592987 0.133148
0.536560 0.596283 0.119568
0.555084 0.597839 0.107635
0.573730 0.599182 0.094086
0.592651 0.600342 0.080536
0.612244 0.601501 0.071625
0.633240 0.602844 0.065796
0.656219 0.603851 0.053650
0.680695 0.605316 0.043732
0.707184 0.607452 0.036774
