assets/luts/Classic Teal and Orange.cube
# Created by: Lutify.me
# Copyright: (c) Copyright Lutify.me 2016, G.T. Colord LTD
# Website: https://lutify.me
# Contact: help@lutify.me
LUT_3D_SIZE 5
0.012207 0.008179 0.009064
0.296326 0.023346 0.000031
0.501495 0.026703 0.000000
0.613617 0.029663 0.000031
0.734650 0.037323 0.000031
0.091095 0.208527 0.108490
0.277893 0.184937 0.007355
0.489716 0.222870 0.000000
0.623627 0.248688 0.000031
0.750824 0.271454 0.000031
0.168427 0.386169 0.187073
0.315796 0.385986 0.187622
0.540924 0.391968 0.019897
0.706848 0.429016 0.006256
0.863281 0.468506 0.061981
0.186554 0.526978 0.206024
0.311890 0.565674 0.191071
0.536591 0.554626 0.114441
0.709534 0.565002 0.032867
0.885345 0.611206 0.129852
0.132233 0.741699 0.164978
0.283875 0.788605 0.111053
0.534149 0.744537 0.062775
0.706818 0.755554 0.022552
0.876556 0.786102 0.144257
0.000000 0.054840 0.070862
0.243713 0.074097 0.201202
0.554199 0.046143 0.170624
0.687622 0.014862 0.140686
0.837341 0.003998 0.116150
0.000000 0.204834 0.197144
0.190735 0.244843 0.258453
0.501007 0.264679 0.227203
0.692139 0.263702 0.195740
0.860809 0.267365 0.177856
0.078186 0.408905 0.285065
0.218109 0.445831 0.309540
0.537933 0.456055 0.277557
0.724823 0.481384 0.224396
0.885193 0.510101 0.225433
0.127808 0.564331 0.317993
0.200134 0.613281 0.327332
0.534912 0.612946 0.300934
0.724670 0.629456 0.284332
0.903473 0.657471 0.274841
0.080963 0.780029 0.321411
0.167603 0.831787 0.332092
0.545441 0.855103 0.314819
0.726746 0.826080 0.305573
0.910675 0.850739 0.380280
0.000000 0.107971 0.135193
0.129517 0.194031 0.325500
0.459015 0.142670 0.364777
0.607727 0.120239 0.366669
0.791504 0.102539 0.359375
0.000031 0.233917 0.261597
0.113617 0.283264 0.334473
0.446014 0.309631 0.429718
0.688141 0.292664 0.429413
0.908600 0.272339 0.406006
0.000031 0.400848 0.393005
0.042633 0.455231 0.442810
0.480408 0.522064 0.535156
0.737976 0.534821 0.490540
0.924042 0.545410 0.470428
0.000031 0.558441 0.433411
0.049957 0.618988 0.453339
0.530182 0.692383 0.525421
0.741302 0.685791 0.529449
0.929749 0.710449 0.500519
0.000031 0.786560 0.457245
0.051086 0.845886 0.470917
0.526154 0.913849 0.539795
0.749603 0.902771 0.539032
0.941589 0.903442 0.594482
0.000031 0.153534 0.191345
0.070984 0.241852 0.332031
0.443451 0.209686 0.448578
0.558350 0.181641 0.486969
0.724335 0.153931 0.500702
0.000000 0.258423 0.302002
0.108032 0.317688 0.389008
0.416687 0.345459 0.600464
0.615082 0.336121 0.564880
0.821472 0.311340 0.579803
0.000000 0.419189 0.464478
0.029968 0.472015 0.542236
0.454895 0.551575 0.632874
0.713623 0.551300 0.658447
0.957092 0.538513 0.636749
0.000031 0.559174 0.543518
0.000031 0.618195 0.587006
0.492645 0.692993 0.669037
0.754486 0.723602 0.693542
0.957581 0.737091 0.670746
0.000031 0.760956 0.563385
0.001862 0.843231 0.585144
0.498077 0.925446 0.680176
0.758850 0.958740 0.707153
0.963074 0.935669 0.743866
0.000031 0.220154 0.277283
0.068512 0.296631 0.401886
0.388306 0.308838 0.655121
0.544189 0.278290 0.576813
0.700714 0.209412 0.642914
0.000031 0.313629 0.389526
0.114532 0.379669 0.490204
0.329559 0.418701 0.753174
0.604828 0.382385 0.687164
0.775940 0.346863 0.735229
0.000000 0.455200 0.565674
0.115417 0.532715 0.682098
0.432983 0.590729 0.792114
0.715363 0.571716 0.853516
0.872833 0.571686 0.835846
0.000031 0.590485 0.687042
0.043091 0.659241 0.793945
0.450012 0.729248 0.851288
0.737946 0.752441 0.918701
0.930603 0.753052 0.888672
0.000000 0.780823 0.740021
0.038940 0.855988 0.794891
0.472443 0.921326 0.861389
0.738708 0.960480 0.899963
0.991425 0.974945 0.937347
