assets/luts/Classic Teal and Orange.cube
# Created by: Lutify.me
# Copyright: (c) Copyright Lutify.me 2016, G.T. Colord LTD
# Website: https://lutify.me
# Contact: help@lutify.me
LUT_3D_SIZE 9
0.012207 0.008179 0.009064
0.130341 0.015442 0.000000
0.296326 0.023346 0.000031
0.426697 0.025848 0.000000
0.501495 0.026703 0.000000
0.556885 0.027771 0.000000
0.613617 0.029663 0.000031
0.669769 0.032135 0.000000
0.734650 0.037323 0.000031
0.043335 0.096558 0.044983
0.110901 0.080688 0.022858
0.230194 0.092285 0.000000
0.349945 0.108032 0.000031
0.438538 0.108337 0.000031
0.509583 0.103973 0.000031
0.560211 0.100037 0.000031
0.623779 0.097900 0.000000
0.688110 0.103180 0.000031
0.091095 0.208527 0.108490
0.143463 0.199921 0.103729
0.277893 0.184937 0.007355
0.402008 0.205780 0.000702
0.489716 0.222870 0.000000
0.563995 0.237976 0.000031
0.623627 0.248688 0.000031
0.681671 0.258942 0.000031
0.750824 0.271454 0.000031
0.139374 0.305664 0.156860
0.156219 0.309723 0.148132
0.299347 0.298584 0.141846
0.430237 0.296844 0.011597
0.530609 0.317413 0.004669
0.606781 0.333923 0.001709
0.681580 0.350006 0.000885
0.741730 0.361176 0.000000
0.819458 0.375854 0.000031
0.168427 0.386169 0.187073
0.178375 0.393158 0.177460
0.315796 0.385986 0.187622
0.429962 0.391510 0.119720
0.540924 0.391968 0.019897
0.621124 0.409210 0.010529
0.706848 0.429016 0.006256
0.774048 0.441223 0.003204
0.863281 0.468506 0.061981
0.182098 0.451508 0.201721
0.186981 0.466339 0.190704
0.319672 0.475555 0.198669
0.436218 0.468628 0.166260
0.534424 0.475220 0.075623
0.617554 0.476562 0.028290
0.714691 0.494720 0.019714
0.792572 0.507355 0.007233
0.880157 0.544434 0.120361
0.186554 0.526978 0.206024
0.187378 0.546600 0.192322
0.311890 0.565674 0.191071
0.435760 0.544800 0.174652
0.536591 0.554626 0.114441
0.612640 0.557434 0.061157
0.709534 0.565002 0.032867
0.804047 0.576691 0.027893
0.885345 0.611206 0.129852
0.173859 0.621643 0.193146
0.169312 0.651123 0.171814
0.294250 0.676605 0.160858
0.434174 0.655640 0.144135
0.534576 0.642670 0.110046
0.613373 0.649719 0.069824
0.706451 0.657166 0.046509
0.805939 0.664124 0.037689
0.879822 0.688385 0.161774
0.132233 0.741699 0.164978
0.135254 0.765411 0.140289
0.283875 0.788605 0.111053
0.432312 0.765411 0.087830
0.534149 0.744537 0.062775
0.611267 0.742432 0.041382
0.706818 0.755554 0.022552
0.812927 0.769440 0.041077
0.876556 0.786102 0.144257
0.000031 0.024170 0.032379
0.100006 0.033386 0.088226
0.315735 0.015167 0.058105
0.462341 0.002411 0.033569
0.559235 0.002960 0.023071
0.618439 0.003326 0.016327
0.679352 0.004333 0.011078
0.743347 0.006775 0.007263
0.813202 0.009644 0.004028
0.000031 0.088348 0.081909
0.064850 0.096405 0.101166
0.224823 0.105042 0.082001
0.377106 0.099640 0.050140
0.481415 0.079926 0.020508
0.564301 0.064362 0.005920
0.626556 0.057281 0.000549
0.697510 0.054688 0.000000
0.771820 0.058807 0.000000
0.046814 0.204559 0.138885
0.098511 0.207031 0.143860
0.259155 0.203827 0.116547
0.403046 0.202545 0.032501
0.492188 0.210327 0.000122
0.557159 0.225067 0.000000
0.622650 0.236969 0.000000
0.683777 0.247467 0.000000
0.760132 0.261261 0.000000
0.117035 0.310974 0.190674
0.141693 0.315125 0.192688
0.282562 0.308929 0.182770
0.421600 0.310791 0.093597
0.526855 0.315796 0.013397
0.602142 0.329712 0.001709
0.681671 0.346985 0.000885
0.744629 0.359009 0.000000
0.827026 0.374298 0.000000
0.155121 0.396729 0.223999
0.173492 0.402618 0.223328
0.292389 0.415039 0.214081
0.421143 0.405945 0.175049
0.536957 0.404785 0.070496
0.616699 0.412933 0.017731
0.707001 0.431335 0.006287
0.777649 0.444916 0.004242
0.868744 0.476013 0.080261
0.172699 0.468964 0.241943
0.187683 0.481567 0.238434
0.282532 0.508118 0.222137
0.425476 0.483856 0.203735
0.530396 0.493439 0.136566
0.614594 0.491669 0.073120
0.712280 0.503052 0.037262
0.795319 0.515411 0.018616
0.882599 0.553650 0.137817
0.175690 0.546112 0.249084
0.188019 0.563843 0.243347
0.264465 0.592560 0.219879
0.426331 0.575439 0.206604
0.531769 0.572449 0.156830
0.610413 0.577728 0.118805
0.708710 0.583130 0.080505
0.807465 0.591827 0.062866
0.887817 0.623047 0.148987
0.159698 0.645477 0.246918
0.167450 0.671600 0.235535
0.233795 0.700226 0.208893
0.420258 0.693085 0.191101
0.530304 0.667725 0.159821
0.611450 0.670471 0.127258
0.706451 0.677979 0.103851
0.810333 0.684387 0.092560
0.883057 0.703217 0.190521
0.116547 0.762634 0.241089
0.126343 0.785126 0.230469
0.227570 0.812927 0.211090
0.421783 0.818420 0.191681
0.541565 0.794373 0.170441
0.615845 0.775085 0.153534
0.712952 0.785217 0.127808
0.820831 0.796936 0.126953
0.886322 0.809662 0.211304
0.000000 0.054840 0.070862
0.009491 0.090851 0.130981
0.243713 0.074097 0.201202
0.421753 0.060974 0.193176
0.554199 0.046143 0.170624
0.621552 0.030426 0.155548
0.687622 0.014862 0.140686
0.762421 0.004517 0.126038
0.837341 0.003998 0.116150
0.000031 0.105743 0.120819
0.012024 0.118561 0.144318
0.187408 0.139954 0.196289
0.376953 0.136353 0.191803
0.503143 0.125183 0.171967
0.614746 0.106628 0.155914
0.691986 0.092377 0.144653
0.778229 0.075043 0.133209
0.872375 0.060883 0.123596
0.000000 0.204834 0.197144
0.000031 0.212433 0.205688
0.190735 0.244843 0.258453
0.378540 0.259796 0.242859
0.501007 0.264679 0.227203
0.601471 0.264282 0.210083
0.692139 0.263702 0.195740
0.768829 0.263794 0.185883
0.860809 0.267365 0.177856
0.014771 0.318054 0.248932
0.048981 0.324615 0.254761
0.219788 0.352844 0.286926
0.402100 0.357544 0.271271
0.529755 0.370819 0.242737
0.619263 0.378723 0.218323
0.714020 0.387604 0.194946
0.789581 0.392761 0.180420
0.875641 0.406921 0.188934
0.078186 0.408905 0.285065
0.105164 0.417023 0.290161
0.218109 0.445831 0.309540
0.411072 0.443542 0.296387
0.537933 0.456055 0.277557
0.628235 0.467773 0.250488
0.724823 0.481384 0.224396
0.805115 0.490662 0.206543
0.885193 0.510101 0.225433
0.112122 0.486572 0.306488
0.136780 0.501038 0.310425
0.208130 0.529999 0.321655
0.413116 0.540955 0.311981
0.533997 0.533234 0.289764
0.626526 0.539398 0.282593
0.727417 0.554474 0.255127
0.815094 0.565918 0.234436
0.895630 0.584351 0.255646
0.127808 0.564331 0.317993
0.147400 0.584656 0.320221
0.200134 0.613281 0.327332
0.404236 0.638062 0.314209
0.534912 0.612946 0.300934
0.620575 0.619934 0.284515
0.724670 0.629456 0.284332
0.825348 0.642090 0.266968
0.903473 0.657471 0.274841
0.119446 0.667175 0.322113
0.134460 0.692505 0.322540
0.177429 0.719055 0.327637
0.392700 0.747864 0.313416
0.539703 0.727112 0.304840
0.620911 0.710144 0.296112
0.721649 0.720947 0.288025
0.830872 0.728760 0.292847
0.905884 0.740570 0.331299
0.080963 0.780029 0.321411
0.098480 0.803284 0.322968
0.167603 0.831787 0.332092
0.395874 0.861938 0.320984
0.545441 0.855103 0.314819
0.633667 0.835693 0.310760
0.726746 0.826080 0.305573
0.839233 0.839355 0.302002
0.910675 0.850739 0.380280
0.000031 0.085083 0.107452
0.000305 0.116760 0.155273
0.206421 0.147034 0.280487
0.359558 0.117035 0.295624
0.498199 0.100800 0.297058
0.572876 0.095856 0.288910
0.652588 0.088531 0.277618
0.742767 0.071228 0.264008
0.828949 0.049316 0.253204
0.000031 0.126526 0.149841
0.003571 0.140961 0.175110
0.099518 0.185822 0.256836
0.320618 0.176514 0.295349
0.451874 0.164581 0.300873
0.578613 0.147308 0.293396
0.668671 0.132385 0.284210
0.766571 0.112274 0.274323
0.868988 0.093628 0.264496
0.000000 0.219849 0.235291
0.000031 0.222473 0.239563
0.135406 0.265045 0.301910
0.343719 0.283295 0.347046
0.499207 0.279419 0.336731
0.615601 0.277802 0.319977
0.721527 0.273621 0.308746
0.809631 0.268982 0.299713
0.915131 0.265106 0.290070
0.000031 0.313568 0.303253
0.000000 0.318146 0.306824
0.122864 0.361908 0.356750
0.336761 0.394257 0.410614
0.516052 0.403534 0.378357
0.615265 0.410706 0.373108
0.723022 0.416718 0.359467
0.805878 0.418213 0.347992
0.896027 0.425751 0.342743
0.000031 0.399475 0.338104
0.007172 0.420288 0.349243
0.112244 0.446747 0.369690
0.380524 0.486237 0.417297
0.530792 0.488251 0.399902
0.626465 0.501953 0.389557
0.728455 0.515442 0.370789
0.815186 0.523315 0.355316
0.902222 0.534882 0.354553
0.022736 0.489258 0.359985
0.056396 0.506683 0.367676
0.118317 0.533173 0.383270
0.384827 0.571503 0.425629
0.535065 0.563629 0.410126
0.630219 0.571228 0.415100
0.733459 0.587402 0.394775
0.825409 0.598480 0.376526
0.909149 0.611084 0.374847
0.056366 0.569794 0.375763
0.082092 0.591858 0.383179
0.116028 0.619232 0.391632
0.377289 0.657867 0.428894
0.539520 0.660370 0.419922
0.627014 0.650146 0.413177
0.733337 0.660431 0.419952
0.836090 0.675140 0.402832
0.917877 0.686890 0.396332
0.060608 0.677368 0.385681
0.081970 0.699951 0.390228
0.110992 0.726257 0.395630
0.368652 0.761566 0.429657
0.537354 0.776001 0.423096
0.631805 0.751709 0.421509
0.730774 0.750305 0.417053
0.842773 0.759003 0.428040
0.923309 0.769409 0.438141
0.030029 0.790405 0.388214
0.055450 0.812683 0.393524
0.090729 0.840607 0.400391
0.374084 0.876892 0.435699
0.537415 0.900940 0.431824
0.641022 0.883362 0.431274
0.737152 0.861328 0.430847
0.850342 0.869415 0.427673
0.927368 0.879791 0.495880
0.000000 0.107971 0.135193
0.000031 0.139496 0.181854
0.129517 0.194031 0.325500
0.354034 0.152405 0.342804
0.459015 0.142670 0.364777
0.531921 0.131287 0.368134
0.607727 0.120239 0.366669
0.700256 0.112823 0.362732
0.791504 0.102539 0.359375
0.000031 0.144318 0.172943
0.004822 0.162781 0.203033
0.067291 0.206665 0.271423
0.303772 0.211090 0.355865
0.416809 0.193756 0.378876
0.527283 0.177399 0.388977
0.615967 0.162781 0.391235
0.712158 0.150757 0.389984
0.820801 0.135559 0.386566
0.000031 0.233917 0.261597
0.000031 0.238403 0.268311
0.113617 0.283264 0.334473
0.284088 0.316925 0.461456
0.446014 0.309631 0.429718
0.563293 0.305756 0.434021
0.688141 0.292664 0.429413
0.791412 0.281647 0.419128
0.908600 0.272339 0.406006
0.000031 0.325745 0.342865
0.000000 0.331696 0.350037
0.062500 0.375793 0.412079
0.310120 0.412231 0.453705
0.490936 0.418243 0.488525
0.615784 0.418030 0.474213
0.745026 0.418427 0.455292
0.838562 0.416779 0.442841
0.944122 0.415924 0.432068
0.000031 0.400848 0.393005
0.000000 0.410889 0.400543
0.042633 0.455231 0.442810
0.325165 0.493042 0.497101
0.480408 0.522064 0.535156
0.625153 0.525513 0.494751
0.737976 0.534821 0.490540
0.830475 0.540070 0.480103
0.924042 0.545410 0.470428
0.000031 0.470886 0.416565
0.000031 0.499603 0.431854
0.026154 0.532806 0.449127
0.330017 0.573273 0.497192
0.529358 0.601929 0.526337
0.631714 0.596252 0.515106
0.737671 0.612518 0.503571
0.831512 0.623169 0.489166
0.922516 0.630676 0.477905
0.000031 0.558441 0.433411
0.006287 0.591431 0.442535
0.049957 0.618988 0.453339
0.329895 0.663879 0.504120
0.530182 0.692383 0.525421
0.633911 0.677429 0.522583
0.741302 0.685791 0.529449
0.843292 0.701599 0.514648
0.929749 0.710449 0.500519
0.000031 0.679779 0.445862
0.026093 0.702545 0.453644
0.061249 0.728149 0.462769
0.326843 0.769379 0.510742
0.526123 0.795624 0.531006
0.638062 0.792358 0.529358
0.739014 0.775055 0.529053
0.852142 0.783844 0.539703
0.937683 0.793640 0.531982
0.000031 0.786560 0.457245
0.011383 0.817902 0.461334
0.051086 0.845886 0.470917
0.339569 0.888885 0.524536
0.526154 0.913849 0.539795
0.639191 0.924866 0.538544
0.749603 0.902771 0.539032
0.859619 0.895752 0.539551
0.941589 0.903442 0.594482
0.000031 0.129364 0.161346
0.000031 0.161407 0.208496
0.084961 0.221802 0.317596
0.327362 0.208954 0.371399
0.451660 0.167511 0.413208
0.504425 0.163452 0.419769
0.576385 0.152924 0.424774
0.669037 0.135498 0.428253
0.757965 0.126740 0.430389
0.000000 0.160767 0.194183
0.005585 0.182617 0.228668
0.057098 0.224304 0.292328
0.251648 0.247314 0.461029
0.413452 0.217377 0.415405
0.505798 0.200195 0.444427
0.582001 0.187408 0.450256
0.675934 0.169067 0.456757
0.784485 0.155823 0.460327
0.000000 0.245056 0.280518
0.000000 0.252808 0.292084
0.110229 0.298431 0.358673
0.241547 0.342285 0.476746
0.439758 0.323517 0.478943
0.532135 0.325989 0.493958
0.642731 0.316467 0.502502
0.744568 0.303223 0.503784
0.866547 0.289581 0.499786
0.000031 0.334045 0.367218
0.000000 0.342194 0.377838
0.062378 0.386566 0.450134
0.289886 0.427887 0.492371
0.460297 0.436951 0.589600
0.575623 0.436615 0.549469
0.711273 0.431274 0.548828
0.820770 0.423492 0.538269
0.939880 0.416748 0.523102
0.000031 0.408264 0.427460
0.000031 0.420593 0.440125
0.023529 0.461243 0.491180
0.299011 0.504089 0.553040
0.474854 0.535950 0.578491
0.609711 0.534760 0.592621
0.754547 0.534698 0.571594
0.857666 0.536835 0.557892
0.962860 0.537781 0.546021
0.000031 0.477600 0.465546
0.000000 0.493225 0.476898
0.000061 0.531464 0.508881
0.306732 0.578094 0.567902
0.502563 0.603302 0.601990
0.612549 0.621521 0.623749
0.746124 0.627991 0.590057
0.846649 0.634399 0.583862
0.941833 0.638611 0.573853
0.000031 0.549286 0.482971
0.000031 0.581482 0.500824
0.008728 0.619354 0.519012
0.297302 0.661621 0.561890
0.510651 0.695984 0.602417
0.637695 0.709076 0.611603
0.748199 0.705688 0.613831
0.850067 0.720154 0.600677
0.940216 0.727905 0.585449
0.000031 0.656464 0.495911
0.000031 0.691467 0.506805
0.020935 0.724915 0.517395
0.296478 0.769348 0.568634
0.514557 0.801453 0.609924
0.635803 0.813538 0.616425
0.747528 0.795380 0.618805
0.860107 0.802643 0.628265
0.948120 0.813202 0.614410
0.000031 0.773987 0.508972
0.000031 0.811066 0.516449
0.021759 0.846985 0.526276
0.311829 0.892334 0.581055
0.519196 0.922150 0.621460
0.634613 0.936646 0.623383
0.756531 0.933929 0.624878
0.867065 0.915100 0.627838
0.952759 0.920837 0.672089
0.000031 0.153534 0.191345
0.000641 0.186157 0.239838
0.070984 0.241852 0.332031
0.277405 0.249359 0.496826
0.443451 0.209686 0.448578
0.504913 0.190247 0.471985
0.558350 0.181641 0.486969
0.635498 0.172241 0.491791
0.724335 0.153931 0.500702
0.000031 0.180634 0.219757
0.005493 0.206451 0.259735
0.051422 0.246490 0.321045
0.191956 0.289001 0.468262
0.394745 0.264252 0.469330
0.507660 0.224976 0.493073
0.569611 0.210480 0.513092
0.640839 0.201477 0.519257
0.747955 0.179688 0.531372
0.000000 0.258423 0.302002
0.000031 0.273865 0.326965
0.108032 0.317688 0.389008
0.208252 0.365417 0.499390
0.416687 0.345459 0.600464
0.530182 0.338074 0.542664
0.615082 0.336121 0.564880
0.701752 0.327759 0.572021
0.821472 0.311340 0.579803
0.000000 0.344879 0.394379
0.000031 0.354889 0.408081
0.077209 0.402405 0.487274
0.277283 0.445648 0.533966
0.424103 0.459198 0.660828
0.566803 0.450989 0.601746
0.669128 0.452057 0.617310
0.771942 0.443176 0.622375
0.897156 0.429352 0.620575
0.000000 0.419189 0.464478
0.000031 0.431824 0.479797
0.029968 0.472015 0.542236
0.286163 0.519989 0.599579
0.454895 0.551575 0.632874
0.601288 0.546143 0.673279
0.713623 0.551300 0.658447
0.832947 0.544525 0.653442
0.957092 0.538513 0.636749
0.000000 0.488678 0.513733
0.000031 0.502167 0.526154
0.000031 0.539581 0.569305
0.293671 0.588043 0.640198
0.478516 0.614746 0.661896
0.606354 0.633636 0.686157
0.748047 0.630676 0.680634
0.868866 0.630707 0.660217
0.970734 0.633362 0.648346
0.000031 0.559174 0.543518
0.000031 0.578369 0.556549
0.000031 0.618195 0.587006
0.296356 0.665619 0.640045
0.492645 0.692993 0.669037
0.623322 0.710083 0.689453
0.754486 0.723602 0.693542
0.860809 0.733032 0.681000
0.957581 0.737091 0.670746
0.000031 0.651123 0.556183
0.000031 0.683380 0.572510
0.000122 0.721191 0.587738
0.279144 0.765808 0.630157
0.491943 0.799652 0.669037
0.629974 0.817444 0.694916
0.759247 0.820007 0.700989
0.868134 0.819244 0.706787
0.957336 0.829529 0.691315
0.000031 0.760956 0.563385
0.000031 0.798828 0.574677
0.001862 0.843231 0.585144
0.294586 0.893707 0.641113
0.498077 0.925446 0.680176
0.633270 0.943726 0.705811
0.758850 0.958740 0.707153
0.875153 0.932831 0.710510
0.963074 0.935669 0.743866
0.000031 0.181732 0.227081
0.003326 0.214264 0.276459
0.066956 0.264648 0.358551
0.216370 0.292450 0.521149
0.420654 0.269745 0.492676
0.495667 0.236664 0.507996
0.561005 0.211823 0.536713
0.627686 0.197601 0.560608
0.694977 0.189850 0.569641
0.000031 0.210083 0.259674
0.007599 0.236816 0.300079
0.053253 0.275940 0.361237
0.144775 0.324463 0.479950
0.352295 0.305023 0.620575
0.487122 0.286743 0.533325
0.572052 0.243561 0.569244
0.641632 0.225494 0.594269
0.720154 0.211975 0.610260
0.000031 0.280945 0.336853
0.004700 0.308502 0.384705
0.105682 0.344940 0.432861
0.186523 0.392151 0.536682
0.353302 0.386505 0.696503
0.526855 0.364319 0.628693
0.612335 0.350616 0.626312
0.687317 0.342957 0.649200
0.774048 0.337341 0.661560
0.000000 0.363281 0.433685
0.000000 0.373260 0.449738
0.100647 0.427673 0.532776
0.265198 0.470825 0.591614
0.394318 0.484589 0.723755
0.563751 0.461945 0.754852
0.661469 0.467377 0.685883
0.741455 0.461243 0.706177
0.839905 0.453796 0.715515
0.000031 0.436584 0.515198
0.000000 0.447327 0.531189
0.048889 0.498260 0.616150
0.283569 0.544678 0.660980
0.435760 0.571991 0.707092
0.570557 0.565887 0.808838
0.702881 0.567657 0.731598
0.787537 0.565125 0.748627
0.897797 0.558838 0.752075
0.000031 0.504395 0.575256
0.000000 0.515961 0.589355
0.019043 0.559021 0.659821
0.287415 0.608002 0.713593
0.455200 0.637085 0.732971
0.593414 0.650513 0.773468
0.729706 0.647675 0.764465
0.819427 0.649841 0.771759
0.941376 0.641693 0.770508
0.000000 0.574554 0.615509
0.000031 0.588684 0.627502
0.000031 0.629120 0.673950
0.288086 0.681244 0.746613
0.471619 0.705261 0.768738
0.601074 0.725403 0.778381
0.751831 0.736145 0.809387
0.864532 0.736816 0.793274
0.978729 0.735870 0.776154
0.000000 0.662567 0.640839
0.000031 0.684570 0.656494
0.000031 0.724152 0.686066
0.291107 0.770691 0.736725
0.476868 0.795807 0.762360
0.608215 0.812744 0.779297
0.756439 0.833313 0.801514
0.877472 0.840820 0.806183
0.971863 0.848389 0.794128
0.000031 0.765228 0.646881
0.000031 0.798309 0.662415
0.000031 0.837860 0.677643
0.281281 0.891968 0.723541
0.472931 0.923920 0.757904
0.610382 0.946106 0.783997
0.759094 0.966248 0.813080
0.888153 0.963593 0.816193
0.976379 0.954834 0.836517
0.000031 0.220154 0.277283
0.012024 0.252258 0.327087
0.068512 0.296631 0.401886
0.170868 0.332642 0.534607
0.388306 0.308838 0.655121
0.479004 0.301147 0.574188
0.544189 0.278290 0.576813
0.632690 0.230347 0.618378
0.700714 0.209412 0.642914
0.000031 0.251587 0.316467
0.017609 0.275269 0.352142
0.063965 0.314453 0.417358
0.132965 0.357025 0.518494
0.305328 0.350586 0.695282
0.485718 0.324219 0.653778
0.551086 0.312286 0.610626
0.643982 0.259644 0.649414
0.725708 0.231354 0.678833
0.000031 0.313629 0.389526
0.042450 0.345428 0.436523
0.114532 0.379669 0.490204
0.181183 0.420807 0.590149
0.329559 0.418701 0.753174
0.516388 0.388885 0.778748
0.604828 0.382385 0.687164
0.682190 0.363495 0.702637
0.775940 0.346863 0.735229
0.000000 0.386230 0.479675
0.000031 0.421021 0.538177
0.143585 0.459381 0.586182
0.262512 0.498871 0.657990
0.382050 0.505524 0.796875
0.541840 0.482422 0.877960
0.670288 0.475220 0.776978
0.733917 0.477386 0.763763
0.831726 0.461212 0.794495
0.000000 0.455200 0.565674
0.000000 0.470490 0.589081
0.115417 0.532715 0.682098
0.308411 0.572632 0.723755
0.432983 0.590729 0.792114
0.561523 0.583038 0.900818
0.715363 0.571716 0.853516
0.780487 0.578979 0.812897
0.872833 0.571686 0.835846
0.000000 0.520111 0.636749
0.000000 0.530609 0.652679
0.084290 0.595825 0.750977
0.310577 0.636230 0.784454
0.434631 0.661194 0.815765
0.592133 0.665802 0.862213
0.735809 0.653900 0.906738
0.812683 0.661499 0.843964
0.901550 0.659302 0.863892
0.000031 0.590485 0.687042
0.000000 0.603485 0.701691
0.043091 0.659241 0.793945
0.311127 0.703522 0.830872
0.450012 0.729248 0.851288
0.585419 0.749023 0.860687
0.737946 0.752441 0.918701
0.846100 0.751007 0.876862
0.930603 0.753052 0.888672
0.000000 0.677185 0.721100
0.000000 0.695496 0.738220
0.017426 0.750427 0.804504
0.309937 0.788910 0.856415
0.466980 0.807312 0.877472
0.597046 0.824280 0.889282
0.738403 0.846466 0.899109
0.877167 0.851410 0.924255
0.973419 0.853516 0.914062
0.000000 0.780823 0.740021
0.000031 0.810089 0.760529
0.038940 0.855988 0.794891
0.324554 0.899109 0.839996
0.472443 0.921326 0.861389
0.598022 0.940216 0.879242
0.738708 0.960480 0.899963
0.885101 0.977997 0.926697
0.991425 0.974945 0.937347
