assets/luts/French Comedy.cube
# Created by: Lutify.me
# Copyright: (c) Copyright Lutify.me 2016, G.T. Colord LTD
# Website: https://lutify.me
# Contact: help@lutify.me
LUT_3D_SIZE 9
0.000000 0.000000 0.000000
0.157471 0.006226 0.000000
0.314941 0.012451 0.000000
0.472412 0.018677 0.000000
0.629883 0.024902 0.000000
0.787354 0.031128 0.000000
0.944824 0.037354 0.000000
1.000000 0.043579 0.000000
1.000000 0.049805 0.000000
0.000000 0.118652 0.063721
0.142578 0.124878 0.008789
0.300049 0.131104 0.000000
0.457520 0.137329 0.000000
0.614990 0.143555 0.000000
0.772461 0.149780 0.000000
0.929932 0.156006 0.000000
1.000000 0.162231 0.000000
1.000000 0.168457 0.000000
0.000000 0.237305 0.127441
0.127686 0.243530 0.072510
0.285156 0.249756 0.017578
0.442627 0.255981 0.000000
0.600098 0.262207 0.000000
0.757568 0.268433 0.000000
0.915039 0.274658 0.000000
1.000000 0.280884 0.000000
1.000000 0.287109 0.000000
0.000000 0.355957 0.191162
0.112793 0.362183 0.136230
0.270264 0.368408 0.081299
0.427734 0.374634 0.026367
0.585205 0.380859 0.000000
0.742676 0.387085 0.000000
0.900146 0.393311 0.000000
1.000000 0.399536 0.000000
1.000000 0.405762 0.000000
0.000000 0.474609 0.254883
0.097900 0.480835 0.199951
0.255371 0.487061 0.145020
0.412842 0.493286 0.090088
0.570312 0.499512 0.035156
0.727783 0.505737 0.000000
0.885254 0.511963 0.000000
1.000000 0.518188 0.000000
1.000000 0.524414 0.000000
0.000000 0.593262 0.318604
0.083008 0.599487 0.263672
0.240479 0.605713 0.208740
0.397949 0.611938 0.153809
0.555420 0.618164 0.098877
0.712891 0.624390 0.043945
0.870361 0.630615 0.000000
1.000000 0.636841 0.000000
1.000000 0.643066 0.000000
0.000000 0.711914 0.382324
0.068115 0.718140 0.327393
0.225586 0.724365 0.272461
0.383057 0.730591 0.217529
0.540527 0.736816 0.162598
0.697998 0.743042 0.107666
0.855469 0.749268 0.052734
1.000000 0.755493 0.000000
1.000000 0.761719 0.000000
0.000000 0.830566 0.446045
0.053223 0.836792 0.391113
0.210693 0.843018 0.336182
0.368164 0.849243 0.281250
0.525635 0.855469 0.226318
0.683105 0.861694 0.171387
0.840576 0.867920 0.116455
0.998047 0.874146 0.061523
1.000000 0.880371 0.006592
0.000000 0.949219 0.509766
0.038330 0.955444 0.454834
0.195801 0.961670 0.399902
0.353271 0.967896 0.344971
0.510742 0.974121 0.290039
0.668213 0.980347 0.235107
0.825684 0.986572 0.180176
0.983154 0.992798 0.125244
1.000000 0.999023 0.070312
0.000000 0.000000 0.116211
0.140015 0.006226 0.061279
0.297485 0.012451 0.006348
0.454956 0.018677 0.000000
0.612427 0.024902 0.000000
0.769897 0.031128 0.000000
0.927368 0.037354 0.000000
1.000000 0.043579 0.000000
1.000000 0.049805 0.000000
0.000000 0.118652 0.179932
0.125122 0.124878 0.125000
0.282593 0.131104 0.070068
0.440063 0.137329 0.015137
0.597534 0.143555 0.000000
0.755005 0.149780 0.000000
0.912476 0.156006 0.000000
1.000000 0.162231 0.000000
1.000000 0.168457 0.000000
0.000000 0.237305 0.243652
0.110229 0.243530 0.188721
0.267700 0.249756 0.133789
0.425171 0.255981 0.078857
0.582642 0.262207 0.023926
0.740112 0.268433 0.000000
0.897583 0.274658 0.000000
1.000000 0.280884 0.000000
1.000000 0.287109 0.000000
0.000000 0.355957 0.307373
0.095337 0.362183 0.252441
0.252808 0.368408 0.197510
0.410278 0.374634 0.142578
0.567749 0.380859 0.087646
0.725220 0.387085 0.032715
0.882690 0.393311 0.000000
1.000000 0.399536 0.000000
1.000000 0.405762 0.000000
0.000000 0.474609 0.371094
0.080444 0.480835 0.316162
0.237915 0.487061 0.261230
0.395386 0.493286 0.206299
0.552856 0.499512 0.151367
0.710327 0.505737 0.096436
0.867798 0.511963 0.041504
1.000000 0.518188 0.000000
1.000000 0.524414 0.000000
0.000000 0.593262 0.434814
0.065552 0.599487 0.379883
0.223022 0.605713 0.324951
0.380493 0.611938 0.270020
0.537964 0.618164 0.215088
0.695435 0.624390 0.160156
0.852905 0.630615 0.105225
1.000000 0.636841 0.050293
1.000000 0.643066 0.000000
0.000000 0.711914 0.498535
0.050659 0.718140 0.443604
0.208130 0.724365 0.388672
0.365601 0.730591 0.333740
0.523071 0.736816 0.278809
0.680542 0.743042 0.223877
0.838013 0.749268 0.168945
0.995483 0.755493 0.114014
1.000000 0.761719 0.059082
0.000000 0.830566 0.562256
0.035767 0.836792 0.507324
0.193237 0.843018 0.452393
0.350708 0.849243 0.397461
0.508179 0.855469 0.342529
0.665649 0.861694 0.287598
0.823120 0.867920 0.232666
0.980591 0.874146 0.177734
1.000000 0.880371 0.122803
0.000000 0.949219 0.625977
0.020874 0.955444 0.571045
0.178345 0.961670 0.516113
0.335815 0.967896 0.461182
0.493286 0.974121 0.406250
0.650757 0.980347 0.351318
0.808228 0.986572 0.296387
0.965698 0.992798 0.241455
1.000000 0.999023 0.186523
0.000000 0.000000 0.232422
0.122559 0.006226 0.177490
0.280029 0.012451 0.122559
0.437500 0.018677 0.067627
0.594971 0.024902 0.012695
0.752441 0.031128 0.000000
0.909912 0.037354 0.000000
1.000000 0.043579 0.000000
1.000000 0.049805 0.000000
0.000000 0.118652 0.296143
0.107666 0.124878 0.241211
0.265137 0.131104 0.186279
0.422607 0.137329 0.131348
0.580078 0.143555 0.076416
0.737549 0.149780 0.021484
0.895020 0.156006 0.000000
1.000000 0.162231 0.000000
1.000000 0.168457 0.000000
0.000000 0.237305 0.359863
0.092773 0.243530 0.304932
0.250244 0.249756 0.250000
0.407715 0.255981 0.195068
0.565186 0.262207 0.140137
0.722656 0.268433 0.085205
0.880127 0.274658 0.030273
1.000000 0.280884 0.000000
1.000000 0.287109 0.000000
0.000000 0.355957 0.423584
0.077881 0.362183 0.368652
0.235352 0.368408 0.313721
0.392822 0.374634 0.258789
0.550293 0.380859 0.203857
0.707764 0.387085 0.148926
0.865234 0.393311 0.093994
1.000000 0.399536 0.039062
1.000000 0.405762 0.000000
0.000000 0.474609 0.487305
0.062988 0.480835 0.432373
0.220459 0.487061 0.377441
0.377930 0.493286 0.322510
0.535400 0.499512 0.267578
0.692871 0.505737 0.212646
0.850342 0.511963 0.157715
1.000000 0.518188 0.102783
1.000000 0.524414 0.047852
0.000000 0.593262 0.551025
0.048096 0.599487 0.496094
0.205566 0.605713 0.441162
0.363037 0.611938 0.386230
0.520508 0.618164 0.331299
0.677979 0.624390 0.276367
0.835449 0.630615 0.221436
0.992920 0.636841 0.166504
1.000000 0.643066 0.111572
0.000000 0.711914 0.614746
0.033203 0.718140 0.559814
0.190674 0.724365 0.504883
0.348145 0.730591 0.449951
0.505615 0.736816 0.395020
0.663086 0.743042 0.340088
0.820557 0.749268 0.285156
0.978027 0.755493 0.230225
1.000000 0.761719 0.175293
0.000000 0.830566 0.678467
0.018311 0.836792 0.623535
0.175781 0.843018 0.568604
0.333252 0.849243 0.513672
0.490723 0.855469 0.458740
0.648193 0.861694 0.403809
0.805664 0.867920 0.348877
0.963135 0.874146 0.293945
1.000000 0.880371 0.239014
0.000000 0.949219 0.742188
0.003418 0.955444 0.687256
0.160889 0.961670 0.632324
0.318359 0.967896 0.577393
0.475830 0.974121 0.522461
0.633301 0.980347 0.467529
0.790771 0.986572 0.412598
0.948242 0.992798 0.357666
1.000000 0.999023 0.302734
0.000000 0.000000 0.348633
0.105103 0.006226 0.293701
0.262573 0.012451 0.238770
0.420044 0.018677 0.183838
0.577515 0.024902 0.128906
0.734985 0.031128 0.073975
0.892456 0.037354 0.019043
1.000000 0.043579 0.000000
1.000000 0.049805 0.000000
0.000000 0.118652 0.412354
0.090210 0.124878 0.357422
0.247681 0.131104 0.302490
0.405151 0.137329 0.247559
0.562622 0.143555 0.192627
0.720093 0.149780 0.137695
0.877563 0.156006 0.082764
1.000000 0.162231 0.027832
1.000000 0.168457 0.000000
0.000000 0.237305 0.476074
0.075317 0.243530 0.421143
0.232788 0.249756 0.366211
0.390259 0.255981 0.311279
0.547729 0.262207 0.256348
0.705200 0.268433 0.201416
0.862671 0.274658 0.146484
1.000000 0.280884 0.091553
1.000000 0.287109 0.036621
0.000000 0.355957 0.539795
0.060425 0.362183 0.484863
0.217896 0.368408 0.429932
0.375366 0.374634 0.375000
0.532837 0.380859 0.320068
0.690308 0.387085 0.265137
0.847778 0.393311 0.210205
1.000000 0.399536 0.155273
1.000000 0.405762 0.100342
0.000000 0.474609 0.603516
0.045532 0.480835 0.548584
0.203003 0.487061 0.493652
0.360474 0.493286 0.438721
0.517944 0.499512 0.383789
0.675415 0.505737 0.328857
0.832886 0.511963 0.273926
0.990356 0.518188 0.218994
1.000000 0.524414 0.164062
0.000000 0.593262 0.667236
0.030640 0.599487 0.612305
0.188110 0.605713 0.557373
0.345581 0.611938 0.502441
0.503052 0.618164 0.447510
0.660522 0.624390 0.392578
0.817993 0.630615 0.337646
0.975464 0.636841 0.282715
1.000000 0.643066 0.227783
0.000000 0.711914 0.730957
0.015747 0.718140 0.676025
0.173218 0.724365 0.621094
0.330688 0.730591 0.566162
0.488159 0.736816 0.511230
0.645630 0.743042 0.456299
0.803101 0.749268 0.401367
0.960571 0.755493 0.346436
1.000000 0.761719 0.291504
0.000000 0.830566 0.794678
0.000854 0.836792 0.739746
0.158325 0.843018 0.684814
0.315796 0.849243 0.629883
0.473267 0.855469 0.574951
0.630737 0.861694 0.520020
0.788208 0.867920 0.465088
0.945679 0.874146 0.410156
1.000000 0.880371 0.355225
0.000000 0.949219 0.858398
0.000000 0.955444 0.803467
0.143433 0.961670 0.748535
0.300903 0.967896 0.693604
0.458374 0.974121 0.638672
0.615845 0.980347 0.583740
0.773315 0.986572 0.528809
0.930786 0.992798 0.473877
1.000000 0.999023 0.418945
0.000000 0.000000 0.464844
0.087646 0.006226 0.409912
0.245117 0.012451 0.354980
0.402588 0.018677 0.300049
0.560059 0.024902 0.245117
0.717529 0.031128 0.190186
0.875000 0.037354 0.135254
1.000000 0.043579 0.080322
1.000000 0.049805 0.025391
0.000000 0.118652 0.528564
0.072754 0.124878 0.473633
0.230225 0.131104 0.418701
0.387695 0.137329 0.363770
0.545166 0.143555 0.308838
0.702637 0.149780 0.253906
0.860107 0.156006 0.198975
1.000000 0.162231 0.144043
1.000000 0.168457 0.089111
0.000000 0.237305 0.592285
0.057861 0.243530 0.537354
0.215332 0.249756 0.482422
0.372803 0.255981 0.427490
0.530273 0.262207 0.372559
0.687744 0.268433 0.317627
0.845215 0.274658 0.262695
1.000000 0.280884 0.207764
1.000000 0.287109 0.152832
0.000000 0.355957 0.656006
0.042969 0.362183 0.601074
0.200439 0.368408 0.546143
0.357910 0.374634 0.491211
0.515381 0.380859 0.436279
0.672852 0.387085 0.381348
0.830322 0.393311 0.326416
0.987793 0.399536 0.271484
1.000000 0.405762 0.216553
0.000000 0.474609 0.719727
0.028076 0.480835 0.664795
0.185547 0.487061 0.609863
0.343018 0.493286 0.554932
0.500488 0.499512 0.500000
0.657959 0.505737 0.445068
0.815430 0.511963 0.390137
0.972900 0.518188 0.335205
1.000000 0.524414 0.280273
0.000000 0.593262 0.783447
0.013184 0.599487 0.728516
0.170654 0.605713 0.673584
0.328125 0.611938 0.618652
0.485596 0.618164 0.563721
0.643066 0.624390 0.508789
0.800537 0.630615 0.453857
0.958008 0.636841 0.398926
1.000000 0.643066 0.343994
0.000000 0.711914 0.847168
0.000000 0.718140 0.792236
0.155762 0.724365 0.737305
0.313232 0.730591 0.682373
0.470703 0.736816 0.627441
0.628174 0.743042 0.572510
0.785645 0.749268 0.517578
0.943115 0.755493 0.462646
1.000000 0.761719 0.407715
0.000000 0.830566 0.910889
0.000000 0.836792 0.855957
0.140869 0.843018 0.801025
0.298340 0.849243 0.746094
0.455811 0.855469 0.691162
0.613281 0.861694 0.636230
0.770752 0.867920 0.581299
0.928223 0.874146 0.526367
1.000000 0.880371 0.471436
0.000000 0.949219 0.974609
0.000000 0.955444 0.919678
0.125977 0.961670 0.864746
0.283447 0.967896 0.809814
0.440918 0.974121 0.754883
0.598389 0.980347 0.699951
0.755859 0.986572 0.645020
0.913330 0.992798 0.590088
1.000000 0.999023 0.535156
0.000000 0.000000 0.581055
0.070190 0.006226 0.526123
0.227661 0.012451 0.471191
0.385132 0.018677 0.416260
0.542603 0.024902 0.361328
0.700073 0.031128 0.306396
0.857544 0.037354 0.251465
1.000000 0.043579 0.196533
1.000000 0.049805 0.141602
0.000000 0.118652 0.644775
0.055298 0.124878 0.589844
0.212769 0.131104 0.534912
0.370239 0.137329 0.479980
0.527710 0.143555 0.425049
0.685181 0.149780 0.370117
0.842651 0.156006 0.315186
1.000000 0.162231 0.260254
1.000000 0.168457 0.205322
0.000000 0.237305 0.708496
0.040405 0.243530 0.653564
0.197876 0.249756 0.598633
0.355347 0.255981 0.543701
0.512817 0.262207 0.488770
0.670288 0.268433 0.433838
0.827759 0.274658 0.378906
0.985229 0.280884 0.323975
1.000000 0.287109 0.269043
0.000000 0.355957 0.772217
0.025513 0.362183 0.717285
0.182983 0.368408 0.662354
0.340454 0.374634 0.607422
0.497925 0.380859 0.552490
0.655396 0.387085 0.497559
0.812866 0.393311 0.442627
0.970337 0.399536 0.387695
1.000000 0.405762 0.332764
0.000000 0.474609 0.835938
0.010620 0.480835 0.781006
0.168091 0.487061 0.726074
0.325562 0.493286 0.671143
0.483032 0.499512 0.616211
0.640503 0.505737 0.561279
0.797974 0.511963 0.506348
0.955444 0.518188 0.451416
1.000000 0.524414 0.396484
0.000000 0.593262 0.899658
0.000000 0.599487 0.844727
0.153198 0.605713 0.789795
0.310669 0.611938 0.734863
0.468140 0.618164 0.679932
0.625610 0.624390 0.625000
0.783081 0.630615 0.570068
0.940552 0.636841 0.515137
1.000000 0.643066 0.460205
0.000000 0.711914 0.963379
0.000000 0.718140 0.908447
0.138306 0.724365 0.853516
0.295776 0.730591 0.798584
0.453247 0.736816 0.743652
0.610718 0.743042 0.688721
0.768188 0.749268 0.633789
0.925659 0.755493 0.578857
1.000000 0.761719 0.523926
0.000000 0.830566 1.000000
0.000000 0.836792 0.972168
0.123413 0.843018 0.917236
0.280884 0.849243 0.862305
0.438354 0.855469 0.807373
0.595825 0.861694 0.752441
0.753296 0.867920 0.697510
0.910767 0.874146 0.642578
1.000000 0.880371 0.587646
0.000000 0.949219 1.000000
0.000000 0.955444 1.000000
0.108521 0.961670 0.980957
0.265991 0.967896 0.926025
0.423462 0.974121 0.871094
0.580933 0.980347 0.816162
0.738403 0.986572 0.761230
0.895874 0.992798 0.706299
1.000000 0.999023 0.651367
0.000000 0.000000 0.697266
0.052734 0.006226 0.642334
0.210205 0.012451 0.587402
0.367676 0.018677 0.532471
0.525146 0.024902 0.477539
0.682617 0.031128 0.422607
0.840088 0.037354 0.367676
0.997559 0.043579 0.312744
1.000000 0.049805 0.257812
0.000000 0.118652 0.760986
0.037842 0.124878 0.706055
0.195312 0.131104 0.651123
0.352783 0.137329 0.596191
0.510254 0.143555 0.541260
0.667725 0.149780 0.486328
0.825195 0.156006 0.431396
0.982666 0.162231 0.376465
1.000000 0.168457 0.321533
0.000000 0.237305 0.824707
0.022949 0.243530 0.769775
0.180420 0.249756 0.714844
0.337891 0.255981 0.659912
0.495361 0.262207 0.604980
0.652832 0.268433 0.550049
0.810303 0.274658 0.495117
0.967773 0.280884 0.440186
1.000000 0.287109 0.385254
0.000000 0.355957 0.888428
0.008057 0.362183 0.833496
0.165527 0.368408 0.778564
0.322998 0.374634 0.723633
0.480469 0.380859 0.668701
0.637939 0.387085 0.613770
0.795410 0.393311 0.558838
0.952881 0.399536 0.503906
1.000000 0.405762 0.448975
0.000000 0.474609 0.952148
0.000000 0.480835 0.897217
0.150635 0.487061 0.842285
0.308105 0.493286 0.787354
0.465576 0.499512 0.732422
0.623047 0.505737 0.677490
0.780518 0.511963 0.622559
0.937988 0.518188 0.567627
1.000000 0.524414 0.512695
0.000000 0.593262 1.000000
0.000000 0.599487 0.960938
0.135742 0.605713 0.906006
0.293213 0.611938 0.851074
0.450684 0.618164 0.796143
0.608154 0.624390 0.741211
0.765625 0.630615 0.686279
0.923096 0.636841 0.631348
1.000000 0.643066 0.576416
0.000000 0.711914 1.000000
0.000000 0.718140 1.000000
0.120850 0.724365 0.969727
0.278320 0.730591 0.914795
0.435791 0.736816 0.859863
0.593262 0.743042 0.804932
0.750732 0.749268 0.750000
0.908203 0.755493 0.695068
1.000000 0.761719 0.640137
0.000000 0.830566 1.000000
0.000000 0.836792 1.000000
0.105957 0.843018 1.000000
0.263428 0.849243 0.978516
0.420898 0.855469 0.923584
0.578369 0.861694 0.868652
0.735840 0.867920 0.813721
0.893311 0.874146 0.758789
1.000000 0.880371 0.703857
0.000000 0.949219 1.000000
0.000000 0.955444 1.000000
0.091064 0.961670 1.000000
0.248535 0.967896 1.000000
0.406006 0.974121 0.987305
0.563477 0.980347 0.932373
0.720947 0.986572 0.877441
0.878418 0.992798 0.822510
1.000000 0.999023 0.767578
0.000000 0.000000 0.813477
0.035278 0.006226 0.758545
0.192749 0.012451 0.703613
0.350220 0.018677 0.648682
0.507690 0.024902 0.593750
0.665161 0.031128 0.538818
0.822632 0.037354 0.483887
0.980103 0.043579 0.428955
1.000000 0.049805 0.374023
0.000000 0.118652 0.877197
0.020386 0.124878 0.822266
0.177856 0.131104 0.767334
0.335327 0.137329 0.712402
0.492798 0.143555 0.657471
0.650269 0.149780 0.602539
0.807739 0.156006 0.547607
0.965210 0.162231 0.492676
1.000000 0.168457 0.437744
0.000000 0.237305 0.940918
0.005493 0.243530 0.885986
0.162964 0.249756 0.831055
0.320435 0.255981 0.776123
0.477905 0.262207 0.721191
0.635376 0.268433 0.666260
0.792847 0.274658 0.611328
0.950317 0.280884 0.556396
1.000000 0.287109 0.501465
0.000000 0.355957 1.000000
0.000000 0.362183 0.949707
0.148071 0.368408 0.894775
0.305542 0.374634 0.839844
0.463013 0.380859 0.784912
0.620483 0.387085 0.729980
0.777954 0.393311 0.675049
0.935425 0.399536 0.620117
1.000000 0.405762 0.565186
0.000000 0.474609 1.000000
0.000000 0.480835 1.000000
0.133179 0.487061 0.958496
0.290649 0.493286 0.903564
0.448120 0.499512 0.848633
0.605591 0.505737 0.793701
0.763062 0.511963 0.738770
0.920532 0.518188 0.683838
1.000000 0.524414 0.628906
0.000000 0.593262 1.000000
0.000000 0.599487 1.000000
0.118286 0.605713 1.000000
0.275757 0.611938 0.967285
0.433228 0.618164 0.912354
0.590698 0.624390 0.857422
0.748169 0.630615 0.802490
0.905640 0.636841 0.747559
1.000000 0.643066 0.692627
0.000000 0.711914 1.000000
0.000000 0.718140 1.000000
0.103394 0.724365 1.000000
0.260864 0.730591 1.000000
0.418335 0.736816 0.976074
0.575806 0.743042 0.921143
0.733276 0.749268 0.866211
0.890747 0.755493 0.811279
1.000000 0.761719 0.756348
0.000000 0.830566 1.000000
0.000000 0.836792 1.000000
0.088501 0.843018 1.000000
0.245972 0.849243 1.000000
0.403442 0.855469 1.000000
0.560913 0.861694 0.984863
0.718384 0.867920 0.929932
0.875854 0.874146 0.875000
1.000000 0.880371 0.820068
0.000000 0.949219 1.000000
0.000000 0.955444 1.000000
0.073608 0.961670 1.000000
0.231079 0.967896 1.000000
0.388550 0.974121 1.000000
0.546021 0.980347 1.000000
0.703491 0.986572 0.993652
0.860962 0.992798 0.938721
1.000000 0.999023 0.883789
0.000000 0.000000 0.929688
0.017822 0.006226 0.874756
0.175293 0.012451 0.819824
0.332764 0.018677 0.764893
0.490234 0.024902 0.709961
0.647705 0.031128 0.655029
0.805176 0.037354 0.600098
0.962646 0.043579 0.545166
1.000000 0.049805 0.490234
0.000000 0.118652 0.993408
0.002930 0.124878 0.938477
0.160400 0.131104 0.883545
0.317871 0.137329 0.828613
0.475342 0.143555 0.773682
0.632812 0.149780 0.718750
0.790283 0.156006 0.663818
0.947754 0.162231 0.608887
1.000000 0.168457 0.553955
0.000000 0.237305 1.000000
0.000000 0.243530 1.000000
0.145508 0.249756 0.947266
0.302979 0.255981 0.892334
0.460449 0.262207 0.837402
0.617920 0.268433 0.782471
0.775391 0.274658 0.727539
0.932861 0.280884 0.672607
1.000000 0.287109 0.617676
0.000000 0.355957 1.000000
0.000000 0.362183 1.000000
0.130615 0.368408 1.000000
0.288086 0.374634 0.956055
0.445557 0.380859 0.901123
0.603027 0.387085 0.846191
0.760498 0.393311 0.791260
0.917969 0.399536 0.736328
1.000000 0.405762 0.681396
0.000000 0.474609 1.000000
0.000000 0.480835 1.000000
0.115723 0.487061 1.000000
0.273193 0.493286 1.000000
0.430664 0.499512 0.964844
0.588135 0.505737 0.909912
0.745605 0.511963 0.854980
0.903076 0.518188 0.800049
1.000000 0.524414 0.745117
0.000000 0.593262 1.000000
0.000000 0.599487 1.000000
0.100830 0.605713 1.000000
0.258301 0.611938 1.000000
0.415771 0.618164 1.000000
0.573242 0.624390 0.973633
0.730713 0.630615 0.918701
0.888184 0.636841 0.863770
1.000000 0.643066 0.808838
0.000000 0.711914 1.000000
0.000000 0.718140 1.000000
0.085938 0.724365 1.000000
0.243408 0.730591 1.000000
0.400879 0.736816 1.000000
0.558350 0.743042 1.000000
0.715820 0.749268 0.982422
0.873291 0.755493 0.927490
1.000000 0.761719 0.872559
0.000000 0.830566 1.000000
0.000000 0.836792 1.000000
0.071045 0.843018 1.000000
0.228516 0.849243 1.000000
0.385986 0.855469 1.000000
0.543457 0.861694 1.000000
0.700928 0.867920 1.000000
0.858398 0.874146 0.991211
1.000000 0.880371 0.936279
0.000000 0.949219 1.000000
0.000000 0.955444 1.000000
0.056152 0.961670 1.000000
0.213623 0.967896 1.000000
0.371094 0.974121 1.000000
0.528564 0.980347 1.000000
0.686035 0.986572 1.000000
0.843506 0.992798 1.000000
1.000000 0.999023 1.000000
