assets/luts/French Comedy.cube
# Created by: Lutify.me
# Copyright: (c) Copyright Lutify.me 2016, G.T. Colord LTD
# Website: https://lutify.me
# Contact: help@lutify.me
LUT_3D_SIZE 5
0.000000 0.000000 0.000000
0.314941 0.012451 0.000000
0.629883 0.024902 0.000000
0.944824 0.037354 0.000000
1.000000 0.049805 0.000000
0.000000 0.237305 0.127441
0.285156 0.249756 0.017578
0.600098 0.262207 0.000000
0.915039 0.274658 0.000000
1.000000 0.287109 0.000000
0.000000 0.474609 0.254883
0.255371 0.487061 0.145020
0.570312 0.499512 0.035156
0.885254 0.511963 0.000000
1.000000 0.524414 0.000000
0.000000 0.711914 0.382324
0.225586 0.724365 0.272461
0.540527 0.736816 0.162598
0.855469 0.749268 0.052734
1.000000 0.761719 0.000000
0.000000 0.949219 0.509766
0.195801 0.961670 0.399902
0.510742 0.974121 0.290039
0.825684 0.986572 0.180176
1.000000 0.999023 0.070312
0.000000 0.000000 0.232422
0.280029 0.012451 0.122559
0.594971 0.024902 0.012695
0.909912 0.037354 0.000000
1.000000 0.049805 0.000000
0.000000 0.237305 0.359863
0.250244 0.249756 0.250000
0.565186 0.262207 0.140137
0.880127 0.274658 0.030273
1.000000 0.287109 0.000000
0.000000 0.474609 0.487305
0.220459 0.487061 0.377441
0.535400 0.499512 0.267578
0.850342 0.511963 0.157715
1.000000 0.524414 0.047852
0.000000 0.711914 0.614746
0.190674 0.724365 0.504883
0.505615 0.736816 0.395020
0.820557 0.749268 0.285156
1.000000 0.761719 0.175293
0.000000 0.949219 0.742188
0.160889 0.961670 0.632324
0.475830 0.974121 0.522461
0.790771 0.986572 0.412598
1.000000 0.999023 0.302734
0.000000 0.000000 0.464844
0.245117 0.012451 0.354980
0.560059 0.024902 0.245117
0.875000 0.037354 0.135254
1.000000 0.049805 0.025391
0.000000 0.237305 0.592285
0.215332 0.249756 0.482422
0.530273 0.262207 0.372559
0.845215 0.274658 0.262695
1.000000 0.287109 0.152832
0.000000 0.474609 0.719727
0.185547 0.487061 0.609863
0.500488 0.499512 0.500000
0.815430 0.511963 0.390137
1.000000 0.524414 0.280273
0.000000 0.711914 0.847168
0.155762 0.724365 0.737305
0.470703 0.736816 0.627441
0.785645 0.749268 0.517578
1.000000 0.761719 0.407715
0.000000 0.949219 0.974609
0.125977 0.961670 0.864746
0.440918 0.974121 0.754883
0.755859 0.986572 0.645020
1.000000 0.999023 0.535156
0.000000 0.000000 0.697266
0.210205 0.012451 0.587402
0.525146 0.024902 0.477539
0.840088 0.037354 0.367676
1.000000 0.049805 0.257812
0.000000 0.237305 0.824707
0.180420 0.249756 0.714844
0.495361 0.262207 0.604980
0.810303 0.274658 0.495117
1.000000 0.287109 0.385254
0.000000 0.474609 0.952148
0.150635 0.487061 0.842285
0.465576 0.499512 0.732422
0.780518 0.511963 0.622559
1.000000 0.524414 0.512695
0.000000 0.711914 1.000000
0.120850 0.724365 0.969727
0.435791 0.736816 0.859863
0.750732 0.749268 0.750000
1.000000 0.761719 0.640137
0.000000 0.949219 1.000000
0.091064 0.961670 1.000000
0.406006 0.974121 0.987305
0.720947 0.986572 0.877441
1.000000 0.999023 0.767578
0.000000 0.000000 0.929688
0.175293 0.012451 0.819824
0.490234 0.024902 0.709961
0.805176 0.037354 0.600098
1.000000 0.049805 0.490234
0.000000 0.237305 1.000000
0.145508 0.249756 0.947266
0.460449 0.262207 0.837402
0.775391 0.274658 0.727539
1.000000 0.287109 0.617676
0.000000 0.474609 1.000000
0.115723 0.487061 1.000000
0.430664 0.499512 0.964844
0.745605 0.511963 0.854980
1.000000 0.524414 0.745117
0.000000 0.711914 1.000000
0.085938 0.724365 1.000000
0.400879 0.736816 1.000000
0.715820 0.749268 0.982422
1.000000 0.761719 0.872559
0.000000 0.949219 1.000000
0.056152 0.961670 1.000000
0.371094 0.974121 1.000000
0.686035 0.986572 1.000000
1.000000 0.999023 1.000000
