assets/luts/French Comedy.cube
# Created by: Lutify.me
# Copyright: (c) Copyright Lutify.me 2016, G.T. Colord LTD
# Website: https://lutify.me
# Contact: help@lutify.me
LUT_3D_SIZE 33
0.000000 0.000000 0.000000
0.039368 0.001556 0.000000
0.078735 0.003113 0.000000
0.118103 0.004669 0.000000
0.157471 0.006226 0.000000
0.196838 0.007782 0.000000
0.236206 0.009338 0.000000
0.275574 0.010895 0.000000
0.314941 0.012451 0.000000
0.354309 0.014008 0.000000
0.393677 0.015564 0.000000
0.433044 0.017120 0.000000
0.472412 0.018677 0.000000
0.511780 0.020233 0.000000
0.551147 0.021790 0.000000
0.590515 0.023346 0.000000
0.629883 0.024902 0.000000
0.669250 0.026459 0.000000
0.708618 0.028015 0.000000
0.747986 0.029572 0.000000
0.787354 0.031128 0.000000
0.826721 0.032684 0.000000
0.866089 0.034241 0.000000
0.905457 0.035797 0.000000
0.944824 0.037354 0.000000
0.984192 0.038910 0.000000
1.000000 0.040466 0.000000
1.000000 0.042023 0.000000
1.000000 0.043579 0.000000
1.000000 0.045135 0.000000
1.000000 0.046692 0.000000
1.000000 0.048248 0.000000
1.000000 0.049805 0.000000
0.000000 0.029663 0.015930
0.035645 0.031219 0.002197
0.075012 0.032776 0.000000
0.114380 0.034332 0.000000
0.153748 0.035889 0.000000
0.193115 0.037445 0.000000
0.232483 0.039001 0.000000
0.271851 0.040558 0.000000
0.311218 0.042114 0.000000
0.350586 0.043671 0.000000
0.389954 0.045227 0.000000
0.429321 0.046783 0.000000
0.468689 0.048340 0.000000
0.508057 0.049896 0.000000
0.547424 0.051453 0.000000
0.586792 0.053009 0.000000
0.626160 0.054565 0.000000
0.665527 0.056122 0.000000
0.704895 0.057678 0.000000
0.744263 0.059235 0.000000
0.783630 0.060791 0.000000
0.822998 0.062347 0.000000
0.862366 0.063904 0.000000
0.901733 0.065460 0.000000
0.941101 0.067017 0.000000
0.980469 0.068573 0.000000
1.000000 0.070129 0.000000
1.000000 0.071686 0.000000
1.000000 0.073242 0.000000
1.000000 0.074799 0.000000
1.000000 0.076355 0.000000
1.000000 0.077911 0.000000
1.000000 0.079468 0.000000
0.000000 0.059326 0.031860
0.031921 0.060883 0.018127
0.071289 0.062439 0.004395
0.110657 0.063995 0.000000
0.150024 0.065552 0.000000
0.189392 0.067108 0.000000
0.228760 0.068665 0.000000
0.268127 0.070221 0.000000
0.307495 0.071777 0.000000
0.346863 0.073334 0.000000
0.386230 0.074890 0.000000
0.425598 0.076447 0.000000
0.464966 0.078003 0.000000
0.504333 0.079559 0.000000
0.543701 0.081116 0.000000
0.583069 0.082672 0.000000
0.622437 0.084229 0.000000
0.661804 0.085785 0.000000
0.701172 0.087341 0.000000
0.740540 0.088898 0.000000
0.779907 0.090454 0.000000
0.819275 0.092010 0.000000
0.858643 0.093567 0.000000
0.898010 0.095123 0.000000
0.937378 0.096680 0.000000
0.976746 0.098236 0.000000
1.000000 0.099792 0.000000
1.000000 0.101349 0.000000
1.000000 0.102905 0.000000
1.000000 0.104462 0.000000
1.000000 0.106018 0.000000
1.000000 0.107574 0.000000
1.000000 0.109131 0.000000
0.000000 0.088989 0.047791
0.028198 0.090546 0.034058
0.067566 0.092102 0.020325
0.106934 0.093658 0.006592
0.146301 0.095215 0.000000
0.185669 0.096771 0.000000
0.225037 0.098328 0.000000
0.264404 0.099884 0.000000
0.303772 0.101440 0.000000
0.343140 0.102997 0.000000
0.382507 0.104553 0.000000
0.421875 0.106110 0.000000
0.461243 0.107666 0.000000
0.500610 0.109222 0.000000
0.539978 0.110779 0.000000
0.579346 0.112335 0.000000
0.618713 0.113892 0.000000
0.658081 0.115448 0.000000
0.697449 0.117004 0.000000
0.736816 0.118561 0.000000
0.776184 0.120117 0.000000
0.815552 0.121674 0.000000
0.854919 0.123230 0.000000
0.894287 0.124786 0.000000
0.933655 0.126343 0.000000
0.973022 0.127899 0.000000
1.000000 0.129456 0.000000
1.000000 0.131012 0.000000
1.000000 0.132568 0.000000
1.000000 0.134125 0.000000
1.000000 0.135681 0.000000
1.000000 0.137238 0.000000
1.000000 0.138794 0.000000
0.000000 0.118652 0.063721
0.024475 0.120209 0.049988
0.063843 0.121765 0.036255
0.103210 0.123322 0.022522
0.142578 0.124878 0.008789
0.181946 0.126434 0.000000
0.221313 0.127991 0.000000
0.260681 0.129547 0.000000
0.300049 0.131104 0.000000
0.339417 0.132660 0.000000
0.378784 0.134216 0.000000
0.418152 0.135773 0.000000
0.457520 0.137329 0.000000
0.496887 0.138885 0.000000
0.536255 0.140442 0.000000
0.575623 0.141998 0.000000
0.614990 0.143555 0.000000
0.654358 0.145111 0.000000
0.693726 0.146667 0.000000
0.733093 0.148224 0.000000
0.772461 0.149780 0.000000
0.811829 0.151337 0.000000
0.851196 0.152893 0.000000
0.890564 0.154449 0.000000
0.929932 0.156006 0.000000
0.969299 0.157562 0.000000
1.000000 0.159119 0.000000
1.000000 0.160675 0.000000
1.000000 0.162231 0.000000
1.000000 0.163788 0.000000
1.000000 0.165344 0.000000
1.000000 0.166901 0.000000
1.000000 0.168457 0.000000
0.000000 0.148315 0.079651
0.020752 0.149872 0.065918
0.060120 0.151428 0.052185
0.099487 0.152985 0.038452
0.138855 0.154541 0.024719
0.178223 0.156097 0.010986
0.217590 0.157654 0.000000
0.256958 0.159210 0.000000
0.296326 0.160767 0.000000
0.335693 0.162323 0.000000
0.375061 0.163879 0.000000
0.414429 0.165436 0.000000
0.453796 0.166992 0.000000
0.493164 0.168549 0.000000
0.532532 0.170105 0.000000
0.571899 0.171661 0.000000
0.611267 0.173218 0.000000
0.650635 0.174774 0.000000
0.690002 0.176331 0.000000
0.729370 0.177887 0.000000
0.768738 0.179443 0.000000
0.808105 0.181000 0.000000
0.847473 0.182556 0.000000
0.886841 0.184113 0.000000
0.926208 0.185669 0.000000
0.965576 0.187225 0.000000
1.000000 0.188782 0.000000
1.000000 0.190338 0.000000
1.000000 0.191895 0.000000
1.000000 0.193451 0.000000
1.000000 0.195007 0.000000
1.000000 0.196564 0.000000
1.000000 0.198120 0.000000
0.000000 0.177979 0.095581
0.017029 0.179535 0.081848
0.056396 0.181091 0.068115
0.095764 0.182648 0.054382
0.135132 0.184204 0.040649
0.174500 0.185760 0.026917
0.213867 0.187317 0.013184
0.253235 0.188873 0.000000
0.292603 0.190430 0.000000
0.331970 0.191986 0.000000
0.371338 0.193542 0.000000
0.410706 0.195099 0.000000
0.450073 0.196655 0.000000
0.489441 0.198212 0.000000
0.528809 0.199768 0.000000
0.568176 0.201324 0.000000
0.607544 0.202881 0.000000
0.646912 0.204437 0.000000
0.686279 0.205994 0.000000
0.725647 0.207550 0.000000
0.765015 0.209106 0.000000
0.804382 0.210663 0.000000
0.843750 0.212219 0.000000
0.883118 0.213776 0.000000
0.922485 0.215332 0.000000
0.961853 0.216888 0.000000
1.000000 0.218445 0.000000
1.000000 0.220001 0.000000
1.000000 0.221558 0.000000
1.000000 0.223114 0.000000
1.000000 0.224670 0.000000
1.000000 0.226227 0.000000
1.000000 0.227783 0.000000
0.000000 0.207642 0.111511
0.013306 0.209198 0.097778
0.052673 0.210754 0.084045
0.092041 0.212311 0.070312
0.131409 0.213867 0.056580
0.170776 0.215424 0.042847
0.210144 0.216980 0.029114
0.249512 0.218536 0.015381
0.288879 0.220093 0.001648
0.328247 0.221649 0.000000
0.367615 0.223206 0.000000
0.406982 0.224762 0.000000
0.446350 0.226318 0.000000
0.485718 0.227875 0.000000
0.525085 0.229431 0.000000
0.564453 0.230988 0.000000
0.603821 0.232544 0.000000
0.643188 0.234100 0.000000
0.682556 0.235657 0.000000
0.721924 0.237213 0.000000
0.761292 0.238770 0.000000
0.800659 0.240326 0.000000
0.840027 0.241882 0.000000
0.879395 0.243439 0.000000
0.918762 0.244995 0.000000
0.958130 0.246552 0.000000
0.997498 0.248108 0.000000
1.000000 0.249664 0.000000
1.000000 0.251221 0.000000
1.000000 0.252777 0.000000
1.000000 0.254333 0.000000
1.000000 0.255890 0.000000
1.000000 0.257446 0.000000
0.000000 0.237305 0.127441
0.009583 0.238861 0.113708
0.048950 0.240417 0.099976
0.088318 0.241974 0.086243
0.127686 0.243530 0.072510
0.167053 0.245087 0.058777
0.206421 0.246643 0.045044
0.245789 0.248199 0.031311
0.285156 0.249756 0.017578
0.324524 0.251312 0.003845
0.363892 0.252869 0.000000
0.403259 0.254425 0.000000
0.442627 0.255981 0.000000
0.481995 0.257538 0.000000
0.521362 0.259094 0.000000
0.560730 0.260651 0.000000
0.600098 0.262207 0.000000
0.639465 0.263763 0.000000
0.678833 0.265320 0.000000
0.718201 0.266876 0.000000
0.757568 0.268433 0.000000
0.796936 0.269989 0.000000
0.836304 0.271545 0.000000
0.875671 0.273102 0.000000
0.915039 0.274658 0.000000
0.954407 0.276215 0.000000
0.993774 0.277771 0.000000
1.000000 0.279327 0.000000
1.000000 0.280884 0.000000
1.000000 0.282440 0.000000
1.000000 0.283997 0.000000
1.000000 0.285553 0.000000
1.000000 0.287109 0.000000
0.000000 0.266968 0.143372
0.005859 0.268524 0.129639
0.045227 0.270081 0.115906
0.084595 0.271637 0.102173
0.123962 0.273193 0.088440
0.163330 0.274750 0.074707
0.202698 0.276306 0.060974
0.242065 0.277863 0.047241
0.281433 0.279419 0.033508
0.320801 0.280975 0.019775
0.360168 0.282532 0.006042
0.399536 0.284088 0.000000
0.438904 0.285645 0.000000
0.478271 0.287201 0.000000
0.517639 0.288757 0.000000
0.557007 0.290314 0.000000
0.596375 0.291870 0.000000
0.635742 0.293427 0.000000
0.675110 0.294983 0.000000
0.714478 0.296539 0.000000
0.753845 0.298096 0.000000
0.793213 0.299652 0.000000
0.832581 0.301208 0.000000
0.871948 0.302765 0.000000
0.911316 0.304321 0.000000
0.950684 0.305878 0.000000
0.990051 0.307434 0.000000
1.000000 0.308990 0.000000
1.000000 0.310547 0.000000
1.000000 0.312103 0.000000
1.000000 0.313660 0.000000
1.000000 0.315216 0.000000
1.000000 0.316772 0.000000
0.000000 0.296631 0.159302
0.002136 0.298187 0.145569
0.041504 0.299744 0.131836
0.080872 0.301300 0.118103
0.120239 0.302856 0.104370
0.159607 0.304413 0.090637
0.198975 0.305969 0.076904
0.238342 0.307526 0.063171
0.277710 0.309082 0.049438
0.317078 0.310638 0.035706
0.356445 0.312195 0.021973
0.395813 0.313751 0.008240
0.435181 0.315308 0.000000
0.474548 0.316864 0.000000
0.513916 0.318420 0.000000
0.553284 0.319977 0.000000
0.592651 0.321533 0.000000
0.632019 0.323090 0.000000
0.671387 0.324646 0.000000
0.710754 0.326202 0.000000
0.750122 0.327759 0.000000
0.789490 0.329315 0.000000
0.828857 0.330872 0.000000
0.868225 0.332428 0.000000
0.907593 0.333984 0.000000
0.946960 0.335541 0.000000
0.986328 0.337097 0.000000
1.000000 0.338654 0.000000
1.000000 0.340210 0.000000
1.000000 0.341766 0.000000
1.000000 0.343323 0.000000
1.000000 0.344879 0.000000
1.000000 0.346436 0.000000
0.000000 0.326294 0.175232
0.000000 0.327850 0.161499
0.037781 0.329407 0.147766
0.077148 0.330963 0.134033
0.116516 0.332520 0.120300
0.155884 0.334076 0.106567
0.195251 0.335632 0.092834
0.234619 0.337189 0.079102
0.273987 0.338745 0.065369
0.313354 0.340302 0.051636
0.352722 0.341858 0.037903
0.392090 0.343414 0.024170
0.431458 0.344971 0.010437
0.470825 0.346527 0.000000
0.510193 0.348083 0.000000
0.549561 0.349640 0.000000
0.588928 0.351196 0.000000
0.628296 0.352753 0.000000
0.667664 0.354309 0.000000
0.707031 0.355865 0.000000
0.746399 0.357422 0.000000
0.785767 0.358978 0.000000
0.825134 0.360535 0.000000
0.864502 0.362091 0.000000
0.903870 0.363647 0.000000
0.943237 0.365204 0.000000
0.982605 0.366760 0.000000
1.000000 0.368317 0.000000
1.000000 0.369873 0.000000
1.000000 0.371429 0.000000
1.000000 0.372986 0.000000
1.000000 0.374542 0.000000
1.000000 0.376099 0.000000
0.000000 0.355957 0.191162
0.000000 0.357513 0.177429
0.034058 0.359070 0.163696
0.073425 0.360626 0.149963
0.112793 0.362183 0.136230
0.152161 0.363739 0.122498
0.191528 0.365295 0.108765
0.230896 0.366852 0.095032
0.270264 0.368408 0.081299
0.309631 0.369965 0.067566
0.348999 0.371521 0.053833
0.388367 0.373077 0.040100
0.427734 0.374634 0.026367
0.467102 0.376190 0.012634
0.506470 0.377747 0.000000
0.545837 0.379303 0.000000
0.585205 0.380859 0.000000
0.624573 0.382416 0.000000
0.663940 0.383972 0.000000
0.703308 0.385529 0.000000
0.742676 0.387085 0.000000
0.782043 0.388641 0.000000
0.821411 0.390198 0.000000
0.860779 0.391754 0.000000
0.900146 0.393311 0.000000
0.939514 0.394867 0.000000
0.978882 0.396423 0.000000
1.000000 0.397980 0.000000
1.000000 0.399536 0.000000
1.000000 0.401093 0.000000
1.000000 0.402649 0.000000
1.000000 0.404205 0.000000
1.000000 0.405762 0.000000
0.000000 0.385620 0.207092
0.000000 0.387177 0.193359
0.030334 0.388733 0.179626
0.069702 0.390289 0.165894
0.109070 0.391846 0.152161
0.148438 0.393402 0.138428
0.187805 0.394958 0.124695
0.227173 0.396515 0.110962
0.266541 0.398071 0.097229
0.305908 0.399628 0.083496
0.345276 0.401184 0.069763
0.384644 0.402740 0.056030
0.424011 0.404297 0.042297
0.463379 0.405853 0.028564
0.502747 0.407410 0.014832
0.542114 0.408966 0.001099
0.581482 0.410522 0.000000
0.620850 0.412079 0.000000
0.660217 0.413635 0.000000
0.699585 0.415192 0.000000
0.738953 0.416748 0.000000
0.778320 0.418304 0.000000
0.817688 0.419861 0.000000
0.857056 0.421417 0.000000
0.896423 0.422974 0.000000
0.935791 0.424530 0.000000
0.975159 0.426086 0.000000
1.000000 0.427643 0.000000
1.000000 0.429199 0.000000
1.000000 0.430756 0.000000
1.000000 0.432312 0.000000
1.000000 0.433868 0.000000
1.000000 0.435425 0.000000
0.000000 0.415283 0.223022
0.000000 0.416840 0.209290
0.026611 0.418396 0.195557
0.065979 0.419952 0.181824
0.105347 0.421509 0.168091
0.144714 0.423065 0.154358
0.184082 0.424622 0.140625
0.223450 0.426178 0.126892
0.262817 0.427734 0.113159
0.302185 0.429291 0.099426
0.341553 0.430847 0.085693
0.380920 0.432404 0.071960
0.420288 0.433960 0.058228
0.459656 0.435516 0.044495
0.499023 0.437073 0.030762
0.538391 0.438629 0.017029
0.577759 0.440186 0.003296
0.617126 0.441742 0.000000
0.656494 0.443298 0.000000
0.695862 0.444855 0.000000
0.735229 0.446411 0.000000
0.774597 0.447968 0.000000
0.813965 0.449524 0.000000
0.853333 0.451080 0.000000
0.892700 0.452637 0.000000
0.932068 0.454193 0.000000
0.971436 0.455750 0.000000
1.000000 0.457306 0.000000
1.000000 0.458862 0.000000
1.000000 0.460419 0.000000
1.000000 0.461975 0.000000
1.000000 0.463531 0.000000
1.000000 0.465088 0.000000
0.000000 0.444946 0.238953
0.000000 0.446503 0.225220
0.022888 0.448059 0.211487
0.062256 0.449615 0.197754
0.101624 0.451172 0.184021
0.140991 0.452728 0.170288
0.180359 0.454285 0.156555
0.219727 0.455841 0.142822
0.259094 0.457397 0.129089
0.298462 0.458954 0.115356
0.337830 0.460510 0.101624
0.377197 0.462067 0.087891
0.416565 0.463623 0.074158
0.455933 0.465179 0.060425
0.495300 0.466736 0.046692
0.534668 0.468292 0.032959
0.574036 0.469849 0.019226
0.613403 0.471405 0.005493
0.652771 0.472961 0.000000
0.692139 0.474518 0.000000
0.731506 0.476074 0.000000
0.770874 0.477631 0.000000
0.810242 0.479187 0.000000
0.849609 0.480743 0.000000
0.888977 0.482300 0.000000
0.928345 0.483856 0.000000
0.967712 0.485413 0.000000
1.000000 0.486969 0.000000
1.000000 0.488525 0.000000
1.000000 0.490082 0.000000
1.000000 0.491638 0.000000
1.000000 0.493195 0.000000
1.000000 0.494751 0.000000
0.000000 0.474609 0.254883
0.000000 0.476166 0.241150
0.019165 0.477722 0.227417
0.058533 0.479279 0.213684
0.097900 0.480835 0.199951
0.137268 0.482391 0.186218
0.176636 0.483948 0.172485
0.216003 0.485504 0.158752
0.255371 0.487061 0.145020
0.294739 0.488617 0.131287
0.334106 0.490173 0.117554
0.373474 0.491730 0.103821
0.412842 0.493286 0.090088
0.452209 0.494843 0.076355
0.491577 0.496399 0.062622
0.530945 0.497955 0.048889
0.570312 0.499512 0.035156
0.609680 0.501068 0.021423
0.649048 0.502625 0.007690
0.688416 0.504181 0.000000
0.727783 0.505737 0.000000
0.767151 0.507294 0.000000
0.806519 0.508850 0.000000
0.845886 0.510406 0.000000
0.885254 0.511963 0.000000
0.924622 0.513519 0.000000
0.963989 0.515076 0.000000
1.000000 0.516632 0.000000
1.000000 0.518188 0.000000
1.000000 0.519745 0.000000
1.000000 0.521301 0.000000
1.000000 0.522858 0.000000
1.000000 0.524414 0.000000
0.000000 0.504272 0.270813
0.000000 0.505829 0.257080
0.015442 0.507385 0.243347
0.054810 0.508942 0.229614
0.094177 0.510498 0.215881
0.133545 0.512054 0.202148
0.172913 0.513611 0.188416
0.212280 0.515167 0.174683
0.251648 0.516724 0.160950
0.291016 0.518280 0.147217
0.330383 0.519836 0.133484
0.369751 0.521393 0.119751
0.409119 0.522949 0.106018
0.448486 0.524506 0.092285
0.487854 0.526062 0.078552
0.527222 0.527618 0.064819
0.566589 0.529175 0.051086
0.605957 0.530731 0.037354
0.645325 0.532288 0.023621
0.684692 0.533844 0.009888
0.724060 0.535400 0.000000
0.763428 0.536957 0.000000
0.802795 0.538513 0.000000
0.842163 0.540070 0.000000
0.881531 0.541626 0.000000
0.920898 0.543182 0.000000
0.960266 0.544739 0.000000
0.999634 0.546295 0.000000
1.000000 0.547852 0.000000
1.000000 0.549408 0.000000
1.000000 0.550964 0.000000
1.000000 0.552521 0.000000
1.000000 0.554077 0.000000
0.000000 0.533936 0.286743
0.000000 0.535492 0.273010
0.011719 0.537048 0.259277
0.051086 0.538605 0.245544
0.090454 0.540161 0.231812
0.129822 0.541718 0.218079
0.169189 0.543274 0.204346
0.208557 0.544830 0.190613
0.247925 0.546387 0.176880
0.287292 0.547943 0.163147
0.326660 0.549500 0.149414
0.366028 0.551056 0.135681
0.405396 0.552612 0.121948
0.444763 0.554169 0.108215
0.484131 0.555725 0.094482
0.523499 0.557281 0.080750
0.562866 0.558838 0.067017
0.602234 0.560394 0.053284
0.641602 0.561951 0.039551
0.680969 0.563507 0.025818
0.720337 0.565063 0.012085
0.759705 0.566620 0.000000
0.799072 0.568176 0.000000
0.838440 0.569733 0.000000
0.877808 0.571289 0.000000
0.917175 0.572845 0.000000
0.956543 0.574402 0.000000
0.995911 0.575958 0.000000
1.000000 0.577515 0.000000
1.000000 0.579071 0.000000
1.000000 0.580627 0.000000
1.000000 0.582184 0.000000
1.000000 0.583740 0.000000
0.000000 0.563599 0.302673
0.000000 0.565155 0.288940
0.007996 0.566711 0.275208
0.047363 0.568268 0.261475
0.086731 0.569824 0.247742
0.126099 0.571381 0.234009
0.165466 0.572937 0.220276
0.204834 0.574493 0.206543
0.244202 0.576050 0.192810
0.283569 0.577606 0.179077
0.322937 0.579163 0.165344
0.362305 0.580719 0.151611
0.401672 0.582275 0.137878
0.441040 0.583832 0.124146
0.480408 0.585388 0.110413
0.519775 0.586945 0.096680
0.559143 0.588501 0.082947
0.598511 0.590057 0.069214
0.637878 0.591614 0.055481
0.677246 0.593170 0.041748
0.716614 0.594727 0.028015
0.755981 0.596283 0.014282
0.795349 0.597839 0.000549
0.834717 0.599396 0.000000
0.874084 0.600952 0.000000
0.913452 0.602509 0.000000
0.952820 0.604065 0.000000
0.992188 0.605621 0.000000
1.000000 0.607178 0.000000
1.000000 0.608734 0.000000
1.000000 0.610291 0.000000
1.000000 0.611847 0.000000
1.000000 0.613403 0.000000
0.000000 0.593262 0.318604
0.000000 0.594818 0.304871
0.004272 0.596375 0.291138
0.043640 0.597931 0.277405
0.083008 0.599487 0.263672
0.122375 0.601044 0.249939
0.161743 0.602600 0.236206
0.201111 0.604156 0.222473
0.240479 0.605713 0.208740
0.279846 0.607269 0.195007
0.319214 0.608826 0.181274
0.358582 0.610382 0.167542
0.397949 0.611938 0.153809
0.437317 0.613495 0.140076
0.476685 0.615051 0.126343
0.516052 0.616608 0.112610
0.555420 0.618164 0.098877
0.594788 0.619720 0.085144
0.634155 0.621277 0.071411
0.673523 0.622833 0.057678
0.712891 0.624390 0.043945
0.752258 0.625946 0.030212
0.791626 0.627502 0.016479
0.830994 0.629059 0.002747
0.870361 0.630615 0.000000
0.909729 0.632172 0.000000
0.949097 0.633728 0.000000
0.988464 0.635284 0.000000
1.000000 0.636841 0.000000
1.000000 0.638397 0.000000
1.000000 0.639954 0.000000
1.000000 0.641510 0.000000
1.000000 0.643066 0.000000
0.000000 0.622925 0.334534
0.000000 0.624481 0.320801
0.000549 0.626038 0.307068
0.039917 0.627594 0.293335
0.079285 0.629150 0.279602
0.118652 0.630707 0.265869
0.158020 0.632263 0.252136
0.197388 0.633820 0.238403
0.236755 0.635376 0.224670
0.276123 0.636932 0.210938
0.315491 0.638489 0.197205
0.354858 0.640045 0.183472
0.394226 0.641602 0.169739
0.433594 0.643158 0.156006
0.472961 0.644714 0.142273
0.512329 0.646271 0.128540
0.551697 0.647827 0.114807
0.591064 0.649384 0.101074
0.630432 0.650940 0.087341
0.669800 0.652496 0.073608
0.709167 0.654053 0.059875
0.748535 0.655609 0.046143
0.787903 0.657166 0.032410
0.827271 0.658722 0.018677
0.866638 0.660278 0.004944
0.906006 0.661835 0.000000
0.945374 0.663391 0.000000
0.984741 0.664948 0.000000
1.000000 0.666504 0.000000
1.000000 0.668060 0.000000
1.000000 0.669617 0.000000
1.000000 0.671173 0.000000
1.000000 0.672729 0.000000
0.000000 0.652588 0.350464
0.000000 0.654144 0.336731
0.000000 0.655701 0.322998
0.036194 0.657257 0.309265
0.075562 0.658813 0.295532
0.114929 0.660370 0.281799
0.154297 0.661926 0.268066
0.193665 0.663483 0.254333
0.233032 0.665039 0.240601
0.272400 0.666595 0.226868
0.311768 0.668152 0.213135
0.351135 0.669708 0.199402
0.390503 0.671265 0.185669
0.429871 0.672821 0.171936
0.469238 0.674377 0.158203
0.508606 0.675934 0.144470
0.547974 0.677490 0.130737
0.587341 0.679047 0.117004
0.626709 0.680603 0.103271
0.666077 0.682159 0.089539
0.705444 0.683716 0.075806
0.744812 0.685272 0.062073
0.784180 0.686829 0.048340
0.823547 0.688385 0.034607
0.862915 0.689941 0.020874
0.902283 0.691498 0.007141
0.941650 0.693054 0.000000
0.981018 0.694611 0.000000
1.000000 0.696167 0.000000
1.000000 0.697723 0.000000
1.000000 0.699280 0.000000
1.000000 0.700836 0.000000
1.000000 0.702393 0.000000
0.000000 0.682251 0.366394
0.000000 0.683807 0.352661
0.000000 0.685364 0.338928
0.032471 0.686920 0.325195
0.071838 0.688477 0.311462
0.111206 0.690033 0.297729
0.150574 0.691589 0.283997
0.189941 0.693146 0.270264
0.229309 0.694702 0.256531
0.268677 0.696259 0.242798
0.308044 0.697815 0.229065
0.347412 0.699371 0.215332
0.386780 0.700928 0.201599
0.426147 0.702484 0.187866
0.465515 0.704041 0.174133
0.504883 0.705597 0.160400
0.544250 0.707153 0.146667
0.583618 0.708710 0.132935
0.622986 0.710266 0.119202
0.662354 0.711823 0.105469
0.701721 0.713379 0.091736
0.741089 0.714935 0.078003
0.780457 0.716492 0.064270
0.819824 0.718048 0.050537
0.859192 0.719604 0.036804
0.898560 0.721161 0.023071
0.937927 0.722717 0.009338
0.977295 0.724274 0.000000
1.000000 0.725830 0.000000
1.000000 0.727386 0.000000
1.000000 0.728943 0.000000
1.000000 0.730499 0.000000
1.000000 0.732056 0.000000
0.000000 0.711914 0.382324
0.000000 0.713470 0.368591
0.000000 0.715027 0.354858
0.028748 0.716583 0.341125
0.068115 0.718140 0.327393
0.107483 0.719696 0.313660
0.146851 0.721252 0.299927
0.186218 0.722809 0.286194
0.225586 0.724365 0.272461
0.264954 0.725922 0.258728
0.304321 0.727478 0.244995
0.343689 0.729034 0.231262
0.383057 0.730591 0.217529
0.422424 0.732147 0.203796
0.461792 0.733704 0.190063
0.501160 0.735260 0.176331
0.540527 0.736816 0.162598
0.579895 0.738373 0.148865
0.619263 0.739929 0.135132
0.658630 0.741486 0.121399
0.697998 0.743042 0.107666
0.737366 0.744598 0.093933
0.776733 0.746155 0.080200
0.816101 0.747711 0.066467
0.855469 0.749268 0.052734
0.894836 0.750824 0.039001
0.934204 0.752380 0.025269
0.973572 0.753937 0.011536
1.000000 0.755493 0.000000
1.000000 0.757050 0.000000
1.000000 0.758606 0.000000
1.000000 0.760162 0.000000
1.000000 0.761719 0.000000
0.000000 0.741577 0.398254
0.000000 0.743134 0.384521
0.000000 0.744690 0.370789
0.025024 0.746246 0.357056
0.064392 0.747803 0.343323
0.103760 0.749359 0.329590
0.143127 0.750916 0.315857
0.182495 0.752472 0.302124
0.221863 0.754028 0.288391
0.261230 0.755585 0.274658
0.300598 0.757141 0.260925
0.339966 0.758698 0.247192
0.379333 0.760254 0.233459
0.418701 0.761810 0.219727
0.458069 0.763367 0.205994
0.497437 0.764923 0.192261
0.536804 0.766479 0.178528
0.576172 0.768036 0.164795
0.615540 0.769592 0.151062
0.654907 0.771149 0.137329
0.694275 0.772705 0.123596
0.733643 0.774261 0.109863
0.773010 0.775818 0.096130
0.812378 0.777374 0.082397
0.851746 0.778931 0.068665
0.891113 0.780487 0.054932
0.930481 0.782043 0.041199
0.969849 0.783600 0.027466
1.000000 0.785156 0.013733
1.000000 0.786713 0.000000
1.000000 0.788269 0.000000
1.000000 0.789825 0.000000
1.000000 0.791382 0.000000
0.000000 0.771240 0.414185
0.000000 0.772797 0.400452
0.000000 0.774353 0.386719
0.021301 0.775909 0.372986
0.060669 0.777466 0.359253
0.100037 0.779022 0.345520
0.139404 0.780579 0.331787
0.178772 0.782135 0.318054
0.218140 0.783691 0.304321
0.257507 0.785248 0.290588
0.296875 0.786804 0.276855
0.336243 0.788361 0.263123
0.375610 0.789917 0.249390
0.414978 0.791473 0.235657
0.454346 0.793030 0.221924
0.493713 0.794586 0.208191
0.533081 0.796143 0.194458
0.572449 0.797699 0.180725
0.611816 0.799255 0.166992
0.651184 0.800812 0.153259
0.690552 0.802368 0.139526
0.729919 0.803925 0.125793
0.769287 0.805481 0.112061
0.808655 0.807037 0.098328
0.848022 0.808594 0.084595
