assets/luts/Landscape.cube
# Created by Adobe Lightroom plugin Export LUT (1.18.0)
# www.johnrellis.com/lightroom/exportlut.htm
# Preset: Landscape4
# Color profile: /Library/Application Support/Adobe/Color/Profiles/Recommended/AdobeRGB1998.icc
LUT_3D_SIZE 5
DOMAIN_MIN 0.000000 0.000000 0.000000
DOMAIN_MAX 0.903226 0.903226 0.903226
0.092103 0.090425 0.098177
0.191073 0.085237 0.100710
0.411719 0.000000 0.104341
0.733608 0.000000 0.090852
1.000000 0.000000 0.091920
0.097414 0.191409 0.104433
0.203952 0.194369 0.107820
0.412787 0.174624 0.107332
0.730953 0.143526 0.086793
0.997650 0.000000 0.088106
0.088106 0.432258 0.099550
0.235599 0.437690 0.098787
0.477333 0.447944 0.092256
0.734493 0.410101 0.038117
0.990845 0.378637 0.058961
0.000000 0.760891 0.000000
0.249973 0.762295 0.000000
0.526238 0.766842 0.000000
0.812558 0.768734 0.000000
0.996887 0.675196 0.096986
0.146761 0.982208 0.149355
0.287297 0.980896 0.157992
0.522850 0.976654 0.187869
0.761654 0.967010 0.233555
0.986328 0.953948 0.300145
0.091798 0.087587 0.201266
0.199802 0.089723 0.195163
0.433661 0.000000 0.204746
0.761166 0.000000 0.210147
1.000000 0.000000 0.218601
0.092622 0.198093 0.209842
0.200595 0.195438 0.210483
0.436957 0.175051 0.210178
0.756283 0.079500 0.204593
1.000000 0.000000 0.215579
0.000000 0.438087 0.232395
0.199588 0.445563 0.209140
0.482856 0.454658 0.210025
0.741573 0.392126 0.181674
0.996002 0.371374 0.200443
0.000000 0.765225 0.215824
0.185000 0.767636 0.192325
0.514366 0.770718 0.197208
0.813321 0.770809 0.205905
0.996796 0.669062 0.221927
0.120180 0.982849 0.270115
0.279057 0.981415 0.275303
0.521233 0.976013 0.293584
0.761227 0.966552 0.328374
0.984802 0.953704 0.381903
0.106203 0.061067 0.448341
0.262303 0.000000 0.445899
0.464515 0.000000 0.423316
0.781704 0.000000 0.410834
1.000000 0.000000 0.435462
0.000000 0.222965 0.463905
0.200687 0.178256 0.460578
0.472175 0.147677 0.434668
0.787503 0.000000 0.424506
1.000000 0.136538 0.458747
0.000000 0.469032 0.472511
0.147463 0.468635 0.473701
0.473671 0.452827 0.466865
0.786526 0.428901 0.462379
1.000000 0.421057 0.470039
0.000000 0.770504 0.496712
0.101686 0.774289 0.488991
0.483955 0.777951 0.470130
0.811551 0.773678 0.478859
0.992126 0.649226 0.437324
0.150423 0.982666 0.497322
0.297246 0.980804 0.500755
0.551812 0.973114 0.527398
0.773342 0.964446 0.551568
0.980133 0.953704 0.586358
0.160403 0.000000 0.768582
0.324437 0.000000 0.765774
0.595941 0.000000 0.754757
0.813535 0.000000 0.711727
1.000000 0.000000 0.610163
0.000000 0.171542 0.778195
0.235966 0.141054 0.775235
0.576837 0.000000 0.762997
0.816587 0.000000 0.718227
1.000000 0.129458 0.617731
0.000000 0.542260 0.793332
0.000000 0.530694 0.795254
0.489296 0.443946 0.783536
0.817838 0.434485 0.739651
0.997375 0.513268 0.684352
0.000000 0.799893 0.781491
0.000000 0.799100 0.781918
0.499641 0.792538 0.780392
0.801053 0.772671 0.769558
0.973144 0.763546 0.766384
0.213199 0.980621 0.731350
0.339605 0.978332 0.733486
0.587335 0.969207 0.747524
0.815427 0.956847 0.784665
0.971649 0.953429 0.797726
0.192935 0.000000 0.970642
0.327214 0.000000 0.969909
0.576928 0.000000 0.966827
0.840421 0.000000 0.960510
1.000000 0.000000 0.902800
0.000000 0.154574 0.972686
0.266758 0.133394 0.971832
0.556115 0.000000 0.968353
0.832242 0.000000 0.961639
1.000000 0.145907 0.905974
0.000000 0.499763 0.973816
0.200259 0.487892 0.973175
0.517082 0.459632 0.970123
0.809628 0.452796 0.962219
0.996735 0.511559 0.916503
0.205509 0.767788 0.968231
0.346166 0.771359 0.967987
0.607691 0.789975 0.966369
0.818540 0.787778 0.959625
0.976501 0.790097 0.933959
0.405035 0.972076 0.958801
0.481910 0.970855 0.958648
0.668208 0.966369 0.957519
0.842283 0.961700 0.956756
0.964233 0.955871 0.953582
