assets/luts/Landscape.cube
# Created by Adobe Lightroom plugin Export LUT (1.18.0)
# www.johnrellis.com/lightroom/exportlut.htm
# Preset: Landscape4
# Color profile: /Library/Application Support/Adobe/Color/Profiles/Recommended/AdobeRGB1998.icc
LUT_3D_SIZE 8
DOMAIN_MIN 0.000000 0.000000 0.000000
DOMAIN_MAX 0.903226 0.903226 0.903226
0.092103 0.090425 0.098177
0.132113 0.088075 0.098634
0.214328 0.083558 0.101564
0.335454 0.060060 0.103822
0.496712 0.000000 0.103639
0.684627 0.000000 0.094728
0.870451 0.000000 0.079225
1.000000 0.000000 0.091920
0.093233 0.131014 0.099550
0.136568 0.131533 0.100832
0.216709 0.117342 0.103700
0.338201 0.109773 0.105409
0.499489 0.078370 0.104280
0.687343 0.000000 0.093904
0.871855 0.000000 0.077760
1.000000 0.000000 0.091615
0.099123 0.216800 0.106661
0.139162 0.218143 0.107454
0.233188 0.221530 0.110018
0.343359 0.206088 0.108644
0.495949 0.200443 0.104524
0.681666 0.191318 0.089998
0.865415 0.162142 0.069062
0.997223 0.119203 0.086183
0.097261 0.348852 0.107424
0.147890 0.350805 0.107668
0.253696 0.355871 0.107668
0.383673 0.361212 0.106661
0.518181 0.346624 0.096437
0.669551 0.318334 0.077852
0.857939 0.321996 0.030182
0.993286 0.306706 0.073213
0.066407 0.523217 0.081514
0.146334 0.524651 0.081239
0.277226 0.528923 0.078614
0.420844 0.534691 0.072969
0.578698 0.542412 0.059174
0.725887 0.523491 0.000000
0.866270 0.484718 0.000000
0.987610 0.445930 0.011139
0.000000 0.715602 0.000000
0.126772 0.715023 0.000000
0.289006 0.717678 0.000000
0.444800 0.721920 0.000000
0.608576 0.726131 0.000000
0.772854 0.729183 0.000000
0.897307 0.689784 0.000000
0.994446 0.627680 0.072419
0.000000 0.876341 0.000000
0.122927 0.876097 0.000000
0.292363 0.876005 0.000000
0.448646 0.875242 0.000000
0.601068 0.873716 0.000000
0.757565 0.869596 0.071015
0.904936 0.864317 0.112856
1.000000 0.813382 0.189639
0.146761 0.982208 0.149355
0.200809 0.981842 0.152132
0.319371 0.980377 0.160433
0.453285 0.977539 0.174350
0.590875 0.974487 0.199435
0.727016 0.968811 0.225956
0.861875 0.961395 0.258274
0.986328 0.953948 0.300145
0.090883 0.088930 0.138918
0.134981 0.088197 0.136049
0.219364 0.093080 0.137636
0.346014 0.064302 0.145296
0.510094 0.000000 0.143526
0.698146 0.000000 0.137087
0.878569 0.000000 0.129824
1.000000 0.000000 0.140749
0.090913 0.132753 0.142214
0.135073 0.131930 0.143130
0.220676 0.128176 0.144747
0.346715 0.113191 0.144747
0.510460 0.061494 0.143160
0.698512 0.000000 0.136294
0.879118 0.000000 0.128542
1.000000 0.000000 0.140352
0.098756 0.219059 0.147341
0.137789 0.220523 0.146365
0.233951 0.223331 0.148013
0.347295 0.203525 0.141878
0.506706 0.200046 0.139590
0.692927 0.183963 0.131502
0.873991 0.147677 0.122621
1.000000 0.102785 0.136355
0.080537 0.353552 0.149599
0.134859 0.355383 0.144808
0.251102 0.359716 0.145388
0.387915 0.365637 0.144503
0.525994 0.347448 0.133577
0.682338 0.320256 0.119112
0.866453 0.319799 0.107851
0.996826 0.303563 0.128115
0.000000 0.526818 0.129488
0.117678 0.528557 0.129152
0.268803 0.532860 0.128115
0.419837 0.539330 0.125948
0.583032 0.546807 0.120729
0.730526 0.523888 0.103120
0.869108 0.480873 0.083803
0.990265 0.444892 0.107881
0.000000 0.719448 0.090639
0.074281 0.720058 0.090578
0.276951 0.722408 0.090059
0.440955 0.725704 0.089052
0.607843 0.728969 0.087373
0.774197 0.730739 0.086763
0.898466 0.689204 0.109804
0.995239 0.625818 0.130434
0.000000 0.878996 0.092073
0.083070 0.879149 0.094392
0.282292 0.878721 0.100252
0.444526 0.877256 0.110201
0.599451 0.875090 0.125551
0.757229 0.870909 0.144289
0.905760 0.865568 0.169833
1.000000 0.813840 0.226535
0.139773 0.983032 0.195071
0.196139 0.982544 0.196719
0.317479 0.981018 0.203128
0.452705 0.978027 0.214694
0.589899 0.973968 0.232944
0.726558 0.968627 0.257939
0.861936 0.961517 0.288426
0.986236 0.954253 0.327520
0.091951 0.087098 0.226932
0.142641 0.084077 0.226963
0.227268 0.087007 0.220218
0.354376 0.049317 0.215366
0.524254 0.000000 0.232395
0.718990 0.000000 0.242161
0.890288 0.000000 0.240818
1.000000 0.000000 0.249607
0.082673 0.136019 0.232334
0.132845 0.127779 0.232700
0.229496 0.126711 0.225681
0.358312 0.110262 0.222843
0.528893 0.000000 0.237217
0.719326 0.000000 0.241672
0.890196 0.000000 0.239750
1.000000 0.000000 0.249180
0.086488 0.226230 0.238407
0.128603 0.226047 0.239017
0.228946 0.222599 0.238895
0.362127 0.213840 0.238529
0.527550 0.194339 0.237400
0.713100 0.154879 0.234867
0.885893 0.087770 0.234379
1.000000 0.018158 0.246006
0.048402 0.355138 0.255558
0.113191 0.357244 0.252476
0.229587 0.363104 0.239170
0.386847 0.366827 0.240146
0.527062 0.331243 0.225528
0.701472 0.317052 0.220615
0.877348 0.307439 0.222049
1.000000 0.293889 0.238315
0.000000 0.529625 0.267582
0.003113 0.532006 0.259892
0.227054 0.538018 0.236027
0.404730 0.542779 0.236973
0.582513 0.547875 0.236728
0.732570 0.514153 0.219760
0.869718 0.461067 0.203677
0.993957 0.441138 0.223239
0.000000 0.722072 0.263676
0.000000 0.723598 0.252506
0.223423 0.727413 0.229862
0.421576 0.730282 0.231601
0.600427 0.732662 0.234165
0.775326 0.733089 0.236973
0.899321 0.684657 0.236728
0.994751 0.616602 0.235935
0.000000 0.880217 0.258579
0.000000 0.880735 0.250584
0.243687 0.880827 0.244999
0.428534 0.879332 0.250858
0.592859 0.876768 0.259922
0.753964 0.871916 0.271641
0.904509 0.865660 0.287053
0.999420 0.811521 0.317571
0.124117 0.983276 0.302556
0.186343 0.983001 0.303410
0.314519 0.981445 0.308415
0.452491 0.978088 0.316655
0.591424 0.973877 0.330816
0.727108 0.968383 0.350683
0.861906 0.961181 0.375189
0.984588 0.953979 0.407904
0.097292 0.075990 0.364782
0.158206 0.068208 0.363989
0.274083 0.000000 0.362097
0.373571 0.000000 0.347753
0.536828 0.000000 0.332647
0.729000 0.000000 0.351354
0.900114 0.000000 0.366064
1.000000 0.000000 0.388373
0.004883 0.124056 0.370062
0.134676 0.118654 0.369482
0.268101 0.097383 0.366644
0.376013 0.079774 0.351537
0.540246 0.000000 0.333410
0.731685 0.000000 0.355077
0.901122 0.000000 0.370733
1.000000 0.000000 0.396368
0.000000 0.258946 0.382544
0.014710 0.253178 0.383551
0.225315 0.212589 0.380285
0.381842 0.207065 0.363897
0.547814 0.193057 0.352361
0.735805 0.145846 0.370886
0.900053 0.113832 0.389563
1.000000 0.151217 0.399451
0.000000 0.375525 0.384955
0.025605 0.375799 0.385748
0.214359 0.374365 0.386328
0.379492 0.364874 0.382238
0.550805 0.352819 0.380346
0.733577 0.335149 0.378454
0.893919 0.317998 0.379126
1.000000 0.316625 0.388220
0.000000 0.532494 0.404120
0.000000 0.534936 0.402991
0.205051 0.541100 0.396063
0.381445 0.546319 0.381720
0.580316 0.548821 0.383093
0.730587 0.493385 0.357671
0.881102 0.459663 0.350042
0.997772 0.451026 0.368597
0.000000 0.723476 0.419806
0.000000 0.723964 0.415442
0.183536 0.729000 0.401526
0.386481 0.733547 0.382605
0.585351 0.734951 0.386542
0.773678 0.734157 0.390143
0.897795 0.674037 0.370916
0.992645 0.600000 0.355840
0.000000 0.880888 0.418189
0.000000 0.881071 0.414801
0.215946 0.881468 0.405035
0.409705 0.880247 0.399878
0.586053 0.876951 0.407355
0.749599 0.872099 0.417609
0.902342 0.865873 0.429999
0.995392 0.809232 0.438514
0.134524 0.982513 0.431037
0.193912 0.982055 0.431708
0.323796 0.980224 0.437140
0.467262 0.976684 0.449744
0.603204 0.972320 0.461433
0.734493 0.966949 0.478187
0.863951 0.960174 0.497993
0.981689 0.953552 0.523125
0.120516 0.001617 0.538354
0.185580 0.000000 0.537163
0.316564 0.000000 0.534081
0.457099 0.000000 0.525933
0.563684 0.000000 0.504051
0.740017 0.000000 0.484962
0.904784 0.000000 0.474525
1.000000 0.000000 0.482948
0.000000 0.105715 0.543664
0.150057 0.094697 0.541955
0.303380 0.000000 0.538048
0.454475 0.000000 0.530053
0.566186 0.000000 0.507103
0.742367 0.000000 0.485359
0.905241 0.000000 0.478065
1.000000 0.000000 0.488411
0.000000 0.261814 0.558068
0.000000 0.240177 0.556664
0.235203 0.201083 0.552575
0.438544 0.168460 0.542840
0.573632 0.156558 0.518273
0.749935 0.114992 0.489143
0.906401 0.097078 0.494026
1.000000 0.209079 0.511528
0.000000 0.429084 0.566918
0.000000 0.425788 0.567895
0.149874 0.411078 0.569787
0.382208 0.355200 0.560296
0.578302 0.348577 0.534539
0.755215 0.352483 0.513664
0.903807 0.368841 0.532097
1.000000 0.422461 0.560967
0.000000 0.568872 0.564477
0.000000 0.568750 0.564843
0.168002 0.567620 0.565209
0.376104 0.562127 0.563317
0.573938 0.547295 0.555718
0.751797 0.534661 0.552056
0.895079 0.525414 0.551263
0.995483 0.526177 0.557000
0.000000 0.729061 0.571862
0.000000 0.730495 0.571099
0.168978 0.734463 0.568444
0.383764 0.738247 0.563226
0.580407 0.738643 0.558679
0.772000 0.736355 0.561151
0.889891 0.660090 0.523064
0.989776 0.611872 0.512474
0.000000 0.882170 0.568231
0.000000 0.882475 0.567163
0.219699 0.882597 0.563561
0.415747 0.880980 0.561944
0.596429 0.876371 0.570733
0.751675 0.872099 0.578882
0.899229 0.866606 0.587884
0.988830 0.807736 0.569421
0.165652 0.982330 0.563287
0.218418 0.981872 0.564141
0.342931 0.979797 0.568902
0.490242 0.974792 0.582147
0.635340 0.968566 0.605524
0.754238 0.963867 0.617700
0.869902 0.958618 0.632471
0.977905 0.953460 0.650477
0.153170 0.000000 0.723537
0.217411 0.000000 0.722774
0.354925 0.000000 0.720333
0.508843 0.000000 0.714107
0.663172 0.000000 0.705013
0.768032 0.000000 0.672328
0.906371 0.000000 0.625055
1.000000 0.000000 0.578424
0.072694 0.039826 0.729274
0.178225 0.000000 0.728267
0.338018 0.000000 0.725216
0.502312 0.000000 0.718318
0.662654 0.000000 0.707881
0.769955 0.000000 0.675166
0.907256 0.000000 0.626032
1.000000 0.000000 0.582879
0.000000 0.212802 0.739254
0.000000 0.206943 0.738369
0.255222 0.183597 0.734798
0.470283 0.130007 0.727352
0.653651 0.000000 0.715297
0.773159 0.000000 0.682124
0.908293 0.024659 0.629541
1.000000 0.200565 0.599664
0.000000 0.459907 0.752804
0.000000 0.448737 0.752285
0.021393 0.403998 0.748836
0.393744 0.346777 0.740475
0.627741 0.318517 0.726192
0.774228 0.322454 0.693294
0.906920 0.354528 0.640070
1.000000 0.414221 0.636225
0.000000 0.613062 0.750607
0.000000 0.611109 0.750973
0.034913 0.604028 0.752255
0.363439 0.591028 0.753231
0.581506 0.543114 0.741970
0.772702 0.537682 0.711513
0.900359 0.566003 0.679194
0.988769 0.608331 0.700130
0.000000 0.761685 0.744564
0.000000 0.761196 0.744350
0.129702 0.759915 0.744381
0.385504 0.756405 0.743648
0.587121 0.748959 0.740993
0.763607 0.733730 0.731930
0.886259 0.724758 0.727657
0.977203 0.722286 0.728511
0.000000 0.884337 0.719142
0.000000 0.883909 0.718593
0.227115 0.882444 0.717617
0.425788 0.879667 0.717250
0.608667 0.874540 0.721706
0.769131 0.868101 0.736934
0.893370 0.866209 0.741726
0.975189 0.809415 0.706691
0.202121 0.981018 0.697139
0.248386 0.980438 0.697749
0.366186 0.978119 0.701106
0.508629 0.973266 0.709224
0.658228 0.965820 0.728389
0.785733 0.958770 0.753658
0.879484 0.956054 0.761776
0.972900 0.953307 0.770809
0.177066 0.000000 0.872435
0.234836 0.000000 0.871672
0.366522 0.000000 0.869871
0.519158 0.000000 0.866361
0.677607 0.000000 0.860716
0.828000 0.000000 0.855863
0.918547 0.000000 0.808103
1.000000 0.000000 0.734005
0.119692 0.000000 0.874876
0.198642 0.000000 0.874174
0.349157 0.000000 0.872282
0.510369 0.000000 0.868711
0.673671 0.000000 0.863005
0.827451 0.000000 0.857786
0.919707 0.000000 0.810483
1.000000 0.000000 0.736324
0.000000 0.201419 0.879026
0.000000 0.195529 0.878477
0.274235 0.173312 0.876616
0.475044 0.121370 0.872770
0.655970 0.000000 0.866606
0.821195 0.000000 0.859434
0.918425 0.000000 0.813962
1.000000 0.204685 0.741024
0.000000 0.423560 0.883452
0.000000 0.413397 0.883330
0.000000 0.363439 0.882841
0.410864 0.348638 0.878294
0.624262 0.326970 0.871336
0.807706 0.296910 0.860838
0.914458 0.336828 0.820554
1.000000 0.411688 0.753872
0.000000 0.613611 0.885893
0.000000 0.612299 0.886320
0.154330 0.608576 0.887358
0.401373 0.583062 0.884337
0.595483 0.549035 0.877287
0.785824 0.533715 0.865873
0.907439 0.552972 0.833066
0.989776 0.602625 0.781399
0.000000 0.754879 0.880247
0.000000 0.754360 0.880369
0.224125 0.753017 0.880644
0.435798 0.752651 0.880583
0.623255 0.757229 0.880003
0.774014 0.740322 0.870481
0.895293 0.736446 0.846677
0.975738 0.761288 0.823972
0.000000 0.890654 0.872160
0.053651 0.890166 0.872038
0.290867 0.888701 0.871855
0.469215 0.885649 0.871244
0.640620 0.881132 0.870237
0.783444 0.875395 0.868162
0.887083 0.866087 0.861814
0.964813 0.861295 0.859220
0.268132 0.981415 0.835386
0.305455 0.980591 0.835660
0.403784 0.977173 0.836027
0.533989 0.971557 0.838560
0.674281 0.963867 0.845274
0.796170 0.957366 0.855344
0.890257 0.953887 0.866392
0.967987 0.953826 0.870542
0.192935 0.000000 0.970642
0.241611 0.000000 0.970336
0.360204 0.000000 0.969665
0.502495 0.000000 0.967987
0.652338 0.000000 0.965423
0.803128 0.000000 0.961700
0.937163 0.000000 0.959350
1.000000 0.000000 0.902800
0.155184 0.000000 0.971527
0.214603 0.000000 0.971191
0.345495 0.000000 0.970428
0.494331 0.000000 0.968780
0.647730 0.000000 0.966094
0.800504 0.000000 0.962280
0.936187 0.000000 0.959777
1.000000 0.000000 0.904051
0.000000 0.199344 0.973297
0.046571 0.195285 0.973022
0.292271 0.180667 0.972229
0.466163 0.150210 0.970062
0.631708 0.094606 0.967193
0.790951 0.000000 0.963195
0.931456 0.000000 0.959869
1.000000 0.213687 0.907134
0.000000 0.389929 0.974304
0.000000 0.373144 0.974517
0.205234 0.367651 0.973541
0.429206 0.360906 0.971344
0.610559 0.352148 0.968017
0.776150 0.342596 0.963470
0.922484 0.343938 0.958801
1.000000 0.416968 0.912505
0.000000 0.595544 0.973449
0.065156 0.592920 0.973175
0.287724 0.585412 0.972412
0.459205 0.575708 0.970245
0.610590 0.561089 0.967559
0.768399 0.558801 0.962737
0.911955 0.554894 0.956420
0.991089 0.603113 0.921080
0.172305 0.737026 0.969757
0.231083 0.738125 0.969757
0.366033 0.742733 0.969482
0.520439 0.753414 0.968627
0.671077 0.761318 0.965728
0.784970 0.750423 0.960937
0.899413 0.741238 0.954284
0.979004 0.757656 0.931029
0.300969 0.859403 0.964294
0.336370 0.859892 0.964233
0.434974 0.861784 0.963958
0.565728 0.866117 0.963195
0.701320 0.874601 0.962127
0.815091 0.885130 0.961517
0.896788 0.876646 0.957397
0.970123 0.872313 0.942443
0.405035 0.972076 0.958801
0.429877 0.971740 0.958801
0.504692 0.970367 0.958556
0.611597 0.967864 0.957916
0.723049 0.964904 0.957214
0.820706 0.962280 0.956817
0.900694 0.960113 0.956481
0.964233 0.955871 0.953582
