assets/luts/Landscape.cube
# Created by Adobe Lightroom plugin Export LUT (1.18.0)
# www.johnrellis.com/lightroom/exportlut.htm
# Preset: Landscape4
# Color profile: /Library/Application Support/Adobe/Color/Profiles/Recommended/AdobeRGB1998.icc
LUT_3D_SIZE 32
0.092103 0.090425 0.098177
0.094759 0.089967 0.098146
0.100679 0.089204 0.098054
0.114260 0.088808 0.098451
0.132113 0.088075 0.098634
0.150546 0.087282 0.098939
0.170047 0.086458 0.099794
0.191073 0.085237 0.100710
0.214328 0.083558 0.101564
0.240238 0.080751 0.102358
0.269169 0.076265 0.102968
0.300999 0.069642 0.103578
0.335454 0.060060 0.103822
0.372351 0.035279 0.104097
0.411719 0.000000 0.104341
0.453346 0.000000 0.104555
0.496712 0.000000 0.103639
0.541711 0.000000 0.102296
0.587640 0.000000 0.100526
0.635767 0.000000 0.098238
0.684627 0.000000 0.094728
0.733608 0.000000 0.090852
0.781857 0.000000 0.086336
0.828061 0.000000 0.082734
0.870451 0.000000 0.079225
0.908721 0.000000 0.078737
0.942718 0.000000 0.080415
0.973205 0.000000 0.085115
1.000000 0.000000 0.091920
1.000000 0.000000 0.101808
1.000000 0.000000 0.113619
1.000000 0.000000 0.127932
0.092012 0.093080 0.098238
0.095216 0.093416 0.098146
0.101350 0.092622 0.098299
0.114839 0.092531 0.098390
0.132540 0.092134 0.098817
0.150729 0.091432 0.099123
0.170352 0.090608 0.100221
0.191348 0.089143 0.101137
0.214847 0.087434 0.101747
0.240970 0.084596 0.102541
0.269780 0.081056 0.103120
0.301549 0.074983 0.103700
0.336309 0.066346 0.103914
0.373266 0.052461 0.104341
0.412818 0.014496 0.104585
0.454353 0.000000 0.104463
0.497993 0.000000 0.103792
0.542962 0.000000 0.102663
0.588922 0.000000 0.100557
0.637079 0.000000 0.097963
0.685878 0.000000 0.094362
0.734676 0.000000 0.090455
0.782864 0.000000 0.086488
0.829068 0.000000 0.082307
0.871366 0.000000 0.079744
0.909392 0.000000 0.078645
0.943297 0.000000 0.080629
0.973663 0.000000 0.085603
1.000000 0.000000 0.092164
1.000000 0.000000 0.102235
1.000000 0.000000 0.113619
1.000000 0.000000 0.128298
0.091737 0.099214 0.097993
0.096132 0.099580 0.098116
0.102358 0.099886 0.098177
0.115297 0.098817 0.098634
0.133272 0.097292 0.098878
0.151492 0.096620 0.099672
0.170748 0.095644 0.100313
0.191836 0.094209 0.101228
0.215122 0.092683 0.102083
0.241184 0.090608 0.103059
0.270268 0.086885 0.103395
0.302251 0.082094 0.103914
0.336675 0.075105 0.104341
0.373938 0.065156 0.104524
0.413092 0.044953 0.104707
0.454963 0.000000 0.104585
0.498512 0.000000 0.103822
0.543420 0.000000 0.102419
0.589685 0.000000 0.100526
0.637720 0.000000 0.097902
0.686549 0.000000 0.094301
0.735286 0.000000 0.090303
0.783322 0.000000 0.085939
0.829496 0.000000 0.082033
0.871733 0.000000 0.079133
0.909667 0.000000 0.078370
0.943603 0.000000 0.080720
0.973877 0.000000 0.085115
1.000000 0.000000 0.092256
1.000000 0.000000 0.101900
1.000000 0.000000 0.113771
1.000000 0.000000 0.128603
0.092470 0.113100 0.098238
0.097108 0.113375 0.098329
0.103822 0.113527 0.098634
0.117586 0.113802 0.099184
0.134066 0.111116 0.099855
0.152041 0.107027 0.100252
0.171237 0.105653 0.101167
0.192233 0.104646 0.102052
0.215640 0.103273 0.102663
0.241733 0.101381 0.103639
0.270817 0.098939 0.103883
0.302647 0.095216 0.104158
0.337285 0.090425 0.104707
0.374395 0.083680 0.105318
0.413794 0.073915 0.104982
0.455634 0.059022 0.104952
0.499214 0.009735 0.103914
0.544213 0.000000 0.102388
0.590265 0.000000 0.100435
0.638514 0.000000 0.097658
0.687373 0.000000 0.093935
0.736141 0.000000 0.089815
0.784146 0.000000 0.085725
0.830014 0.000000 0.081514
0.871946 0.000000 0.078950
0.909728 0.000000 0.077943
0.943481 0.000000 0.080323
0.973724 0.000000 0.084443
1.000000 0.000000 0.091981
1.000000 0.000000 0.101656
1.000000 0.000000 0.114199
1.000000 0.000000 0.128634
0.093233 0.131014 0.099550
0.098207 0.131014 0.099672
0.104829 0.131167 0.099977
0.117739 0.131289 0.100526
0.136568 0.131533 0.100832
0.153902 0.127260 0.101534
0.172854 0.122103 0.102144
0.193210 0.118624 0.102846
0.216709 0.117342 0.103700
0.242771 0.116396 0.104097
0.271855 0.114687 0.104555
0.303685 0.112703 0.104921
0.338201 0.109773 0.105409
0.375189 0.105501 0.105928
0.414557 0.099611 0.105715
0.456031 0.091096 0.105196
0.499489 0.078370 0.104280
0.544274 0.058076 0.102724
0.590448 0.000000 0.100404
0.638605 0.000000 0.097475
0.687343 0.000000 0.093904
0.736141 0.000000 0.089387
0.784207 0.000000 0.085115
0.830045 0.000000 0.080720
0.871855 0.000000 0.077760
0.909667 0.000000 0.077424
0.943389 0.000000 0.079500
0.973602 0.000000 0.083742
1.000000 0.000000 0.091615
1.000000 0.000000 0.101625
1.000000 0.000000 0.114015
1.000000 0.000000 0.129030
0.094362 0.149630 0.101106
0.099580 0.149599 0.101228
0.105562 0.149783 0.101289
0.118105 0.149935 0.102083
0.135805 0.150118 0.102663
0.156954 0.150301 0.102968
0.175479 0.145937 0.104067
0.195926 0.140810 0.104280
0.217868 0.135470 0.104768
0.243442 0.133455 0.105318
0.272587 0.132906 0.105653
0.304173 0.132265 0.105928
0.338750 0.130556 0.106569
0.375647 0.128359 0.106264
0.414740 0.125307 0.106172
0.456153 0.120089 0.105776
0.499367 0.112978 0.104280
0.543938 0.103304 0.102602
0.589776 0.089906 0.100435
0.637903 0.069398 0.097139
0.686610 0.010773 0.093141
0.735348 0.000000 0.088746
0.776120 0.000000 0.084810
0.822690 0.000000 0.080140
0.865599 0.000000 0.076417
0.904265 0.000000 0.074678
0.938903 0.000000 0.076539
0.970001 0.000000 0.081758
0.997864 0.000000 0.089448
1.000000 0.000000 0.099580
1.000000 0.000000 0.111971
1.000000 0.000000 0.127443
0.095979 0.169192 0.102846
0.100832 0.169192 0.102724
0.106691 0.169223 0.103304
0.118685 0.169528 0.103365
0.135225 0.169833 0.103944
0.155856 0.170199 0.104677
0.178561 0.170413 0.104768
0.198520 0.166354 0.106142
0.220890 0.161685 0.106142
0.244968 0.156893 0.106722
0.271366 0.151797 0.106752
0.302647 0.151858 0.107210
0.336797 0.151980 0.107240
0.373419 0.151522 0.107301
0.412482 0.149874 0.106905
0.453712 0.147616 0.105867
0.496681 0.144045 0.104494
0.541283 0.138277 0.102724
0.586877 0.131075 0.100191
0.634730 0.121035 0.096803
0.683040 0.107607 0.092805
0.731167 0.089570 0.088106
0.778592 0.063478 0.082734
0.824186 0.000000 0.078126
0.866239 0.000000 0.074922
0.904479 0.000000 0.073213
0.938964 0.000000 0.075593
0.969940 0.000000 0.080598
0.997803 0.000000 0.088472
1.000000 0.000000 0.099580
1.000000 0.000000 0.111971
1.000000 0.000000 0.128237
0.097414 0.191409 0.104433
0.101717 0.191684 0.104738
0.108186 0.191775 0.104555
0.119875 0.192172 0.105043
0.136690 0.192508 0.105348
0.156680 0.193118 0.106294
0.179568 0.193606 0.106996
0.203952 0.194369 0.107820
0.225864 0.191073 0.109041
0.250889 0.186862 0.108461
0.277409 0.182406 0.108461
0.305669 0.177188 0.108370
0.337346 0.173922 0.108217
0.373754 0.174685 0.107485
0.412787 0.174624 0.107332
0.453864 0.174197 0.106111
0.496651 0.172610 0.104341
0.541039 0.169558 0.102602
0.586633 0.165743 0.099580
0.634394 0.160098 0.095949
0.682826 0.153109 0.091493
0.730953 0.143526 0.086793
0.778317 0.132570 0.081086
0.824002 0.118410 0.075776
0.866117 0.100954 0.072602
0.904417 0.080293 0.071504
0.938781 0.048157 0.073915
0.969757 0.000000 0.079042
0.997650 0.000000 0.088106
1.000000 0.000000 0.098756
1.000000 0.000000 0.112245
1.000000 0.000000 0.128511
0.099123 0.216800 0.106661
0.103426 0.216922 0.106752
0.109926 0.217197 0.106752
0.122194 0.217380 0.107271
0.139162 0.218143 0.107454
0.158907 0.218845 0.108309
0.181857 0.219638 0.108675
0.206790 0.220584 0.109163
0.233188 0.221530 0.110018
0.256840 0.218601 0.111543
0.284459 0.215366 0.110262
0.313146 0.210941 0.109438
0.343359 0.206088 0.108644
0.375067 0.199985 0.108186
0.412299 0.199466 0.107240
0.453132 0.200381 0.106081
0.495949 0.200443 0.104524
0.540154 0.199771 0.101534
0.585657 0.197940 0.098756
0.633295 0.195193 0.094789
0.681666 0.191318 0.089998
0.729946 0.185946 0.084535
0.777493 0.179294 0.078584
0.823270 0.171084 0.073091
0.865415 0.162142 0.069062
0.903777 0.151522 0.068208
0.938262 0.140658 0.070771
0.969268 0.129427 0.076875
0.997223 0.119203 0.086183
1.000000 0.110201 0.097993
1.000000 0.104585 0.112062
1.000000 0.104219 0.128969
0.100160 0.245365 0.108370
0.105501 0.245579 0.108400
0.111574 0.245853 0.108400
0.124514 0.246311 0.108583
0.141665 0.246983 0.109194
0.162203 0.247929 0.109499
0.184878 0.248936 0.109987
0.210788 0.250004 0.110353
0.238010 0.251164 0.110811
0.266361 0.252384 0.111330
0.291203 0.249271 0.112825
0.321813 0.246952 0.110842
0.352422 0.242893 0.109316
0.384161 0.237949 0.108522
0.417243 0.232242 0.106874
0.452247 0.225742 0.105715
0.494453 0.227390 0.103731
0.538445 0.227970 0.101015
0.583612 0.228214 0.097658
0.631373 0.227420 0.093568
0.679988 0.225986 0.087953
0.728481 0.223178 0.082460
0.776425 0.219608 0.075410
0.822446 0.214481 0.069490
0.864836 0.208316 0.065705
0.903258 0.201328 0.065003
0.937743 0.193668 0.067994
0.968750 0.186252 0.074434
0.996735 0.179263 0.084169
1.000000 0.173220 0.096651
1.000000 0.169009 0.111696
1.000000 0.167910 0.129091
0.100984 0.277684 0.108919
0.106142 0.277958 0.109377
0.112734 0.278202 0.109133
0.126192 0.278569 0.109316
0.144533 0.279210 0.109407
0.165743 0.280095 0.109865
0.189334 0.281285 0.110445
0.215061 0.282444 0.110689
0.243442 0.283726 0.110536
0.272831 0.285130 0.111055
0.303105 0.286656 0.111391
0.329107 0.283055 0.112917
0.362371 0.281712 0.110536
0.394873 0.277623 0.107759
0.427985 0.272770 0.106233
0.462257 0.266880 0.104494
0.497322 0.259464 0.102205
0.536736 0.255772 0.099428
0.581872 0.257267 0.096223
0.629694 0.258152 0.091341
0.678279 0.258671 0.085969
0.726894 0.257755 0.079500
0.774838 0.256291 0.071901
0.820981 0.253330 0.065492
0.863523 0.249363 0.059998
0.902129 0.244053 0.059907
0.936797 0.238254 0.063050
0.967926 0.232517 0.070375
0.996033 0.226627 0.081697
1.000000 0.221500 0.095705
1.000000 0.217624 0.110994
1.000000 0.216251 0.129335
0.099886 0.312963 0.108827
0.105257 0.313146 0.108888
0.113191 0.313298 0.108827
0.127230 0.313695 0.108980
0.146883 0.314366 0.108980
0.169131 0.315282 0.109346
0.193851 0.316503 0.109529
0.220066 0.317662 0.109682
0.248875 0.319097 0.109804
0.279332 0.320531 0.109926
0.310765 0.321965 0.109865
0.342992 0.323522 0.109743
0.365759 0.315984 0.112123
0.401343 0.315984 0.108827
0.435096 0.311955 0.105043
0.469306 0.306950 0.102754
0.504265 0.301061 0.100465
0.539910 0.293950 0.097505
0.576532 0.285496 0.094240
0.622461 0.285954 0.089174
0.671382 0.288182 0.082734
0.720333 0.289342 0.075227
0.769009 0.289342 0.067475
0.815946 0.288487 0.059388
0.859251 0.286229 0.048798
0.898466 0.282444 0.046479
0.933745 0.277836 0.054139
0.965454 0.272770 0.065339
0.993957 0.267979 0.077333
1.000000 0.263188 0.092164
1.000000 0.259648 0.109133
1.000000 0.257542 0.128420
0.097261 0.348852 0.107424
0.104189 0.349065 0.107424
0.111849 0.349279 0.107576
0.127352 0.349798 0.107607
0.147890 0.350805 0.107668
0.171633 0.351904 0.107637
0.197543 0.353124 0.107698
0.224979 0.354406 0.107881
0.253696 0.355871 0.107668
0.285039 0.357244 0.107637
0.317144 0.358526 0.107424
0.350042 0.359747 0.106996
0.383673 0.361212 0.106661
0.410681 0.356268 0.108980
0.448341 0.356451 0.105501
0.483009 0.352117 0.100374
0.518181 0.346624 0.096437
0.553704 0.340246 0.093294
0.590112 0.333104 0.089113
0.628717 0.325444 0.084352
0.669551 0.318334 0.077852
0.718685 0.320897 0.070039
0.767330 0.322667 0.060517
0.814511 0.322972 0.045624
0.857939 0.321996 0.030182
0.897368 0.319310 0.029419
0.932769 0.315709 0.036683
0.964599 0.311284 0.058686
0.993286 0.306706 0.073213
1.000000 0.302312 0.090059
1.000000 0.298711 0.108248
1.000000 0.296300 0.128542
0.093324 0.389471 0.104707
0.101625 0.389532 0.104250
0.110231 0.389899 0.104341
0.126955 0.390539 0.104494
0.148898 0.391333 0.104524
0.174472 0.392279 0.104646
0.202090 0.393561 0.104280
0.230533 0.395056 0.104219
0.260258 0.396521 0.104219
0.291661 0.397864 0.103822
0.325170 0.399084 0.103334
0.359136 0.400397 0.102815
0.393835 0.401862 0.102113
0.429328 0.403540 0.101198
0.459083 0.399573 0.103334
0.497322 0.399268 0.100160
0.532860 0.394202 0.092958
0.568688 0.388495 0.087160
0.605219 0.381842 0.082551
0.642969 0.375036 0.076722
0.681758 0.367102 0.069886
0.721126 0.358221 0.061921
0.765225 0.354589 0.044862
0.812528 0.356237 0.022034
0.856199 0.356115 0.009491
0.895750 0.354467 0.006348
0.931426 0.351415 0.016327
0.963409 0.347662 0.043030
0.992248 0.343481 0.067231
1.000000 0.339269 0.086458
1.000000 0.335546 0.106905
1.000000 0.333074 0.128237
0.088106 0.432258 0.099550
0.096559 0.432319 0.099580
0.106600 0.432502 0.099428
0.125246 0.433204 0.099245
0.149508 0.433906 0.099458
0.176608 0.435218 0.099275
0.205447 0.436408 0.099245
0.235599 0.437690 0.098787
0.266575 0.439033 0.098604
0.298650 0.440528 0.097871
0.332403 0.441749 0.097414
0.367773 0.443000 0.096254
0.403510 0.444495 0.095644
0.440040 0.446204 0.093965
0.477333 0.447944 0.092256
0.510155 0.445380 0.094148
0.548241 0.444007 0.091920
0.584222 0.438514 0.082765
0.620966 0.432288 0.072938
0.658198 0.425605 0.066499
0.696101 0.418219 0.057160
0.734493 0.410101 0.038117
0.773251 0.401129 0.016754
0.811612 0.390570 0.000000
0.854063 0.389380 0.000000
0.893889 0.388495 0.000000
0.929747 0.386053 0.000000
0.961852 0.382605 0.020386
0.990845 0.378637 0.058961
1.000000 0.374487 0.081910
1.000000 0.370703 0.103822
1.000000 0.367834 0.127016
0.078645 0.476783 0.092348
0.089540 0.476844 0.092317
0.100984 0.477058 0.092164
0.121584 0.477638 0.092226
0.148379 0.478157 0.091859
0.177584 0.479133 0.091646
0.208286 0.480201 0.091218
0.239475 0.481514 0.091005
0.272007 0.482765 0.090333
0.304936 0.484230 0.089815
0.338811 0.485756 0.088930
0.375463 0.487190 0.087953
0.412512 0.488746 0.085939
0.450263 0.490547 0.084016
0.488502 0.492439 0.082002
0.527581 0.494667 0.078981
0.563104 0.493324 0.079927
0.599695 0.489967 0.079957
0.636805 0.484352 0.066926
0.673732 0.477424 0.048249
0.710658 0.470069 0.025483
0.747951 0.462104 0.006561
0.785489 0.453529 0.000000
0.822019 0.443549 0.000000
0.857053 0.432044 0.000000
0.891356 0.421241 0.000000
0.927459 0.419379 0.000000
0.959899 0.416388 0.000000
0.989197 0.412634 0.039918
1.000000 0.408545 0.075990
1.000000 0.404791 0.100679
1.000000 0.401770 0.126131
0.066407 0.523217 0.081514
0.078523 0.523278 0.081483
0.092775 0.523552 0.081819
0.116976 0.524071 0.081209
0.146334 0.524651 0.081239
0.177523 0.525628 0.080842
0.209842 0.526513 0.080568
0.243229 0.527672 0.079469
0.277226 0.528923 0.078614
0.311498 0.530175 0.077455
0.346258 0.531701 0.076326
0.382452 0.533104 0.075380
0.420844 0.534691 0.072969
0.459510 0.536339 0.070588
0.498817 0.538170 0.066987
0.538476 0.540246 0.063355
0.578698 0.542412 0.059174
0.616846 0.542535 0.057008
0.650874 0.536278 0.063111
0.689357 0.531151 0.035187
0.725887 0.523491 0.000000
0.762295 0.515282 0.000000
0.798276 0.506371 0.000000
0.833036 0.496101 0.000000
0.866270 0.484718 0.000000
0.897826 0.471992 0.000000
0.927733 0.458015 0.000000
0.958129 0.449531 0.000000
0.987610 0.445930 0.011139
1.000000 0.441993 0.067414
1.000000 0.438087 0.096803
1.000000 0.434852 0.124086
0.032288 0.570459 0.066255
0.064485 0.570520 0.065766
0.082246 0.566888 0.067506
0.110964 0.567254 0.066377
0.143099 0.567895 0.066224
0.176638 0.568872 0.065095
0.210300 0.570001 0.064668
0.244633 0.571221 0.063722
0.280095 0.572473 0.062623
0.315435 0.573968 0.061677
0.351263 0.575494 0.059297
0.387640 0.577111 0.055726
0.426062 0.578820 0.050050
0.465614 0.580560 0.044221
0.505577 0.582391 0.034882
0.545983 0.584436 0.023468
0.586725 0.586694 0.014466
0.627863 0.588891 0.001801
0.668330 0.590265 0.000000
0.699702 0.581262 0.021942
0.739071 0.576898 0.000000
0.774777 0.568231 0.000000
0.809476 0.558495 0.000000
0.842710 0.547997 0.000000
0.874388 0.536187 0.000000
0.904601 0.523369 0.000000
0.933257 0.509636 0.000000
0.960510 0.495216 0.000000
0.986358 0.480018 0.000000
1.000000 0.474708 0.054627
1.000000 0.470741 0.090608
1.000000 0.467323 0.122042
0.000000 0.617914 0.026917
0.019867 0.617517 0.027161
0.065644 0.617151 0.026764
0.102358 0.617090 0.024537
0.137758 0.617334 0.025116
0.174533 0.617853 0.024781
0.211246 0.618860 0.019745
0.247135 0.619959 0.017853
0.284123 0.621027 0.014557
0.320592 0.622370 0.011566
0.357519 0.623682 0.007080
0.394873 0.625208 0.002502
0.432593 0.626825 0.000000
0.472999 0.628504 0.000000
0.513878 0.630152 0.000000
0.554772 0.631922 0.000000
0.596124 0.633783 0.000000
0.637537 0.635798 0.000000
0.679255 0.637903 0.000000
0.720974 0.639765 0.000000
0.749660 0.628046 0.000000
0.788449 0.623194 0.000000
0.821439 0.612421 0.000000
0.853178 0.600641 0.000000
0.883055 0.587945 0.000000
0.911620 0.574456 0.000000
0.938842 0.560296 0.000000
0.964813 0.545708 0.000000
0.989563 0.530755 0.005402
1.000000 0.515587 0.053834
1.000000 0.502831 0.083803
1.000000 0.499336 0.118074
0.000000 0.667079 0.000000
0.000000 0.666682 0.000000
0.031342 0.666438 0.000000
0.090181 0.666255 0.000000
0.132906 0.666468 0.000000
0.171969 0.666987 0.000000
0.210697 0.667750 0.000000
0.249149 0.668696 0.000000
0.286778 0.669642 0.000000
0.324956 0.670741 0.000000
0.362707 0.672023 0.000000
0.401007 0.673182 0.000000
0.439460 0.674678 0.000000
0.478737 0.676173 0.000000
0.520378 0.677638 0.000000
0.561913 0.679133 0.000000
0.603632 0.680842 0.000000
0.645380 0.682521 0.000000
0.687251 0.684138 0.000000
0.728725 0.685664 0.000000
0.770047 0.687160 0.000000
0.796048 0.672877 0.000000
0.832609 0.666438 0.000000
0.862547 0.653346 0.000000
0.891234 0.639460 0.000000
0.918303 0.624994 0.000000
0.944152 0.610254 0.000000
0.968933 0.595300 0.000000
0.992615 0.580255 0.044221
1.000000 0.564996 0.075776
1.000000 0.550072 0.097200
1.000000 0.535637 0.120333
0.000000 0.715602 0.000000
0.000000 0.715328 0.000000
0.000000 0.715023 0.000000
0.077913 0.714931 0.000000
0.126772 0.715023 0.000000
0.169253 0.715480 0.000000
0.210269 0.716091 0.000000
0.249638 0.716915 0.000000
0.289006 0.717678 0.000000
0.328161 0.718624 0.000000
0.367010 0.719631 0.000000
0.405951 0.720699 0.000000
0.444800 0.721920 0.000000
0.484230 0.723079 0.000000
0.524834 0.724239 0.000000
0.566857 0.725277 0.000000
0.608576 0.726131 0.000000
0.650050 0.727016 0.000000
0.691341 0.727901 0.000000
0.732265 0.728603 0.000000
0.772854 0.729183 0.000000
0.813107 0.729671 0.000000
0.836362 0.713069 0.000000
0.870207 0.704982 0.000000
0.897307 0.689784 0.000000
0.923247 0.674403 0.000000
0.947997 0.658778 0.000000
0.971679 0.643214 0.038941
0.994446 0.627680 0.072419
1.000000 0.612390 0.094026
1.000000 0.597406 0.114534
1.000000 0.583124 0.136324
0.000000 0.760891 0.000000
0.000000 0.760769 0.000000
0.000000 0.760708 0.000000
0.061677 0.760800 0.000000
0.121248 0.761044 0.000000
0.165957 0.761349 0.000000
0.208713 0.761837 0.000000
0.249973 0.762295 0.000000
0.289708 0.762844 0.000000
0.329717 0.763394 0.000000
0.369329 0.764004 0.000000
0.408759 0.764614 0.000000
0.448035 0.765286 0.000000
0.486976 0.766049 0.000000
0.526238 0.766842 0.000000
0.567987 0.767391 0.000000
0.609766 0.767819 0.000000
0.651118 0.768185 0.000000
0.692042 0.768521 0.000000
0.732631 0.768704 0.000000
0.772854 0.768765 0.000000
0.812558 0.768734 0.000000
0.851835 0.768765 0.000000
0.872892 0.750607 0.000000
0.903990 0.741054 0.058717
0.928710 0.724453 0.058686
0.952361 0.707820 0.065858
0.975128 0.691310 0.077180
0.996887 0.675196 0.096986
1.000000 0.659419 0.116060
1.000000 0.644160 0.135409
1.000000 0.629816 0.156741
0.000000 0.803891 0.000000
0.000000 0.803769 0.000000
0.000000 0.803708 0.000000
0.047395 0.803677 0.000000
0.117250 0.803799 0.000000
0.164584 0.804013 0.000000
0.208286 0.804349 0.000000
0.249912 0.804562 0.000000
0.290745 0.804929 0.000000
0.330816 0.805173 0.000000
0.370733 0.805447 0.000000
0.410132 0.805692 0.000000
0.449256 0.805997 0.000000
0.488594 0.806332 0.000000
0.527672 0.806577 0.000000
0.567315 0.806790 0.000000
0.608728 0.806668 0.000000
0.649714 0.806455 0.000000
0.690211 0.806149 0.000000
0.730251 0.805814 0.000000
0.769802 0.805325 0.000000
0.808743 0.804746 0.000000
0.847257 0.804105 0.000000
0.885191 0.803403 0.000000
0.905180 0.785031 0.070680
0.933471 0.773953 0.101991
0.956329 0.756588 0.107027
0.978119 0.739193 0.113436
0.999115 0.722164 0.123140
1.000000 0.705745 0.139742
1.000000 0.690120 0.158633
1.000000 0.675502 0.179263
0.000000 0.841581 0.000000
0.000000 0.841428 0.000000
0.000000 0.841337 0.000000
0.046540 0.841337 0.000000
0.116152 0.841459 0.000000
0.164462 0.841611 0.000000
0.208652 0.841794 0.000000
0.250156 0.841978 0.000000
0.291203 0.842100 0.000000
0.331273 0.842222 0.000000
0.370855 0.842405 0.000000
0.410315 0.842405 0.000000
0.449470 0.842405 0.000000
0.488228 0.842466 0.000000
0.527062 0.842466 0.000000
0.565545 0.842466 0.000000
0.605707 0.842161 0.000000
0.646357 0.841611 0.000000
0.686336 0.841001 0.000000
0.725826 0.840146 0.000000
0.764736 0.839231 0.000000
0.803128 0.838224 0.000671
0.840970 0.837217 0.031495
0.878294 0.836118 0.057038
0.914885 0.835080 0.073335
0.933135 0.815946 0.112520
0.958709 0.803220 0.139223
0.980316 0.786038 0.148806
1.000000 0.768338 0.156497
1.000000 0.751156 0.166751
1.000000 0.734981 0.183047
1.000000 0.719997 0.203647
0.000000 0.876341 0.000000
0.000000 0.876219 0.000000
0.000000 0.876127 0.000000
0.066438 0.876127 0.000000
0.122927 0.876097 0.000000
0.168795 0.876097 0.000000
0.211490 0.876097 0.000000
0.252506 0.876066 0.000000
0.292363 0.876005 0.000000
0.331975 0.875914 0.000000
0.371130 0.875761 0.000000
0.409979 0.875486 0.000000
0.448646 0.875242 0.000000
0.487007 0.874907 0.000000
0.525139 0.874571 0.000000
0.563134 0.874205 0.000000
0.601068 0.873716 0.000000
0.640833 0.872953 0.014496
0.680323 0.871946 0.037903
0.719265 0.870848 0.059937
0.757565 0.869596 0.071015
0.795346 0.868345 0.082155
0.832486 0.867002 0.092348
0.868986 0.865721 0.101839
0.904936 0.864317 0.112856
0.940215 0.862943 0.122957
0.957916 0.844297 0.150637
0.980865 0.830167 0.176669
1.000000 0.813382 0.189639
1.000000 0.795621 0.199100
1.000000 0.778805 0.211521
1.000000 0.763210 0.228672
0.000000 0.907164 0.000000
0.000000 0.907073 0.000000
0.003876 0.907012 0.000000
0.088746 0.906981 0.000000
0.134646 0.906950 0.000000
0.176059 0.906950 0.000000
0.216556 0.906859 0.000000
0.256138 0.906737 0.000000
0.295445 0.906493 0.000000
0.333989 0.906188 0.000000
0.372229 0.905852 0.000000
0.410315 0.905455 0.008606
0.448127 0.904936 0.026032
0.485878 0.904387 0.046357
0.523278 0.903838 0.061524
0.560540 0.903197 0.071687
0.597528 0.902525 0.081575
0.634974 0.901640 0.090181
0.673854 0.900450 0.097719
0.712062 0.899168 0.105653
0.749722 0.897734 0.114046
0.786862 0.896269 0.122194
0.823301 0.894743 0.130861
0.859159 0.893187 0.139773
0.894377 0.891600 0.148745
0.928893 0.890013 0.158602
0.962768 0.888426 0.168887
0.980987 0.871458 0.190616
1.000000 0.855497 0.216526
1.000000 0.839261 0.233890
1.000000 0.821958 0.245029
1.000000 0.805936 0.261082
0.021759 0.935088 0.056214
0.062745 0.934997 0.056397
0.083467 0.934936 0.058625
0.116182 0.934874 0.059846
0.152895 0.934722 0.060304
0.188724 0.934569 0.064851
0.225864 0.934264 0.067140
0.262943 0.933928 0.070985
0.300053 0.933440 0.074372
0.337102 0.932891 0.077974
0.374060 0.932250 0.083040
0.410681 0.931579 0.088014
0.447486 0.930846 0.092653
0.484169 0.930053 0.099550
0.520623 0.929229 0.105837
0.557031 0.928435 0.112490
0.593194 0.927581 0.119722
0.629023 0.926665 0.126680
0.666102 0.925444 0.134005
0.703670 0.924010 0.141512
0.740719 0.922454 0.148379
0.777005 0.920867 0.156191
0.812772 0.919249 0.164157
0.847990 0.917571 0.172641
0.882475 0.915862 0.181674
0.916320 0.914153 0.190951
0.949432 0.912444 0.201205
0.981872 0.910704 0.211429
1.000000 0.895567 0.229770
1.000000 0.878325 0.256596
1.000000 0.863066 0.278752
1.000000 0.846708 0.293858
0.099886 0.959319 0.106722
0.110109 0.959289 0.106508
0.121706 0.959228 0.107576
0.144381 0.959167 0.108675
0.173556 0.959045 0.109346
0.204929 0.958892 0.111849
0.238437 0.958618 0.113741
0.272892 0.958251 0.115908
0.307469 0.957824 0.119448
0.342687 0.957305 0.122927
0.378210 0.956725 0.126528
0.413642 0.956023 0.130404
0.449195 0.955291 0.135195
0.484871 0.954467 0.140291
0.520317 0.953613 0.145968
0.555688 0.952697 0.151583
