assets/luts/Moody.cube
# Created by Adobe Lightroom plugin Export LUT (1.18.0)
# www.johnrellis.com/lightroom/exportlut.htm
# Preset: Blood-Brothers_Free-LR-Presets.co
# Color profile: /Library/Application Support/Adobe/Color/Profiles/Recommended/AdobeRGB1998.icc
LUT_3D_SIZE 5
DOMAIN_MIN 0.000000 0.000000 0.000000
DOMAIN_MAX 0.903226 0.903226 0.903226
0.000000 0.000000 0.000000
0.095735 0.011780 0.001801
0.372534 0.000000 0.000000
0.796780 0.000000 0.000000
1.000000 0.217716 0.000000
0.021973 0.095460 0.034272
0.094453 0.117128 0.016266
0.411780 0.111910 0.000000
0.815793 0.088960 0.000000
1.000000 0.354711 0.000000
0.000000 0.379065 0.100557
0.079347 0.366918 0.121431
0.448432 0.491066 0.000000
0.864073 0.548119 0.000000
1.000000 0.604547 0.000000
0.000000 0.765988 0.267308
0.218936 0.760128 0.273381
0.497536 0.727687 0.348516
0.823941 0.831724 0.168093
1.000000 0.842893 0.000000
0.561364 0.965789 0.599481
0.597833 0.962127 0.598840
0.718349 0.943572 0.637842
0.850065 0.938293 0.702693
0.987701 0.950317 0.592706
0.008606 0.000000 0.097505
0.093904 0.002258 0.114870
0.361730 0.000000 0.102510
0.752010 0.000000 0.102571
1.000000 0.181369 0.073579
0.000000 0.104799 0.120027
0.097627 0.127657 0.134585
0.392645 0.123476 0.130312
0.778134 0.060853 0.105287
1.000000 0.324376 0.083436
0.000000 0.398657 0.193576
0.104738 0.406928 0.214359
0.433234 0.468757 0.183017
0.842985 0.519921 0.110140
1.000000 0.601587 0.144411
0.036652 0.776059 0.352789
0.274693 0.776974 0.366583
0.526116 0.743984 0.414130
0.821836 0.829343 0.309361
1.000000 0.841611 0.267918
0.576593 0.964996 0.646754
0.621088 0.960845 0.652766
0.740993 0.947417 0.694545
0.857816 0.938048 0.753414
0.984680 0.950500 0.659785
0.000000 0.018311 0.346075
0.000000 0.001831 0.371283
0.430182 0.000000 0.429633
0.821530 0.000000 0.428901
1.000000 0.000000 0.371313
0.000000 0.134798 0.367071
0.000000 0.140169 0.388983
0.452827 0.078828 0.448951
0.808499 0.000000 0.422736
1.000000 0.295354 0.413336
0.000000 0.409522 0.427527
0.000000 0.432074 0.440436
0.490608 0.499428 0.489998
0.809171 0.512413 0.467994
1.000000 0.594293 0.467018
0.000000 0.806607 0.547051
0.178988 0.801816 0.549157
0.582544 0.796994 0.590936
0.822202 0.831815 0.581445
1.000000 0.839353 0.580560
0.508965 0.970520 0.722896
0.589380 0.965362 0.738125
0.754482 0.950500 0.783871
0.863371 0.933654 0.828885
0.974029 0.947936 0.780819
0.000000 0.000000 0.678889
0.000000 0.000000 0.697292
0.500420 0.000000 0.758267
0.823545 0.000000 0.803037
1.000000 0.000000 0.797482
0.000000 0.152407 0.684810
0.000000 0.154147 0.701320
0.498024 0.120760 0.757565
0.820615 0.000000 0.802670
1.000000 0.199832 0.791318
0.000000 0.409613 0.665003
0.000000 0.422950 0.679408
0.472633 0.462409 0.750942
0.812741 0.511559 0.806180
0.999481 0.558953 0.778164
0.000000 0.769833 0.772427
0.000000 0.773739 0.774960
0.511559 0.794522 0.795102
0.825650 0.839017 0.841855
0.975189 0.831907 0.814786
0.388495 0.983337 0.869230
0.489540 0.978058 0.869688
0.706203 0.962249 0.876738
0.878874 0.943816 0.901610
0.967956 0.946227 0.899687
0.000000 0.000000 0.956481
0.286839 0.000000 0.958648
0.593042 0.000000 0.966766
0.846036 0.166384 0.976989
0.995575 0.196567 0.979950
0.000000 0.195743 0.953521
0.265110 0.188815 0.955718
0.583673 0.184878 0.963836
0.838956 0.306157 0.973419
0.991180 0.334508 0.977478
0.000000 0.477241 0.943847
0.045960 0.438941 0.947753
0.531548 0.457099 0.955230
0.817075 0.548974 0.965270
0.979858 0.608057 0.972778
0.000000 0.763302 0.938872
0.186984 0.758083 0.937285
0.457130 0.743282 0.934783
0.781918 0.781460 0.955108
0.969940 0.852567 0.971801
0.412909 0.955444 0.962890
0.474525 0.953246 0.962615
0.649378 0.947234 0.963531
0.835752 0.940917 0.965515
0.971130 0.945739 0.976562
