assets/luts/Moody.cube
# Created by Adobe Lightroom plugin Export LUT (1.18.0)
# www.johnrellis.com/lightroom/exportlut.htm
# Preset: Blood-Brothers_Free-LR-Presets.co
# Color profile: /Library/Application Support/Adobe/Color/Profiles/Recommended/AdobeRGB1998.icc
LUT_3D_SIZE 32
DOMAIN_MIN 0.0 0.0 0.0
DOMAIN_MAX 1.0 1.0 1.0
0.000000 0.000000 0.000000
0.004059 0.000000 0.000000
0.011994 0.000000 0.000946
0.030793 0.000000 0.001770
0.054902 0.000000 0.002441
0.068574 0.000000 0.002258
0.080903 0.004761 0.001709
0.095735 0.011780 0.001801
0.115358 0.015137 0.002350
0.140627 0.011322 0.000855
0.173129 0.000000 0.000000
0.213535 0.000000 0.000000
0.261295 0.000000 0.000000
0.314946 0.000000 0.000000
0.372534 0.000000 0.000000
0.431739 0.000000 0.000000
0.491707 0.000000 0.000000
0.550805 0.000000 0.000000
0.611109 0.000000 0.000000
0.679622 0.000000 0.000000
0.741115 0.000000 0.000000
0.796780 0.000000 0.000000
0.845640 0.000000 0.000000
0.888487 0.000000 0.000000
0.925750 0.000000 0.000000
0.958618 0.000000 0.000000
0.988067 0.027649 0.000000
1.000000 0.154910 0.000000
1.000000 0.217716 0.000000
1.000000 0.270054 0.000000
1.000000 0.316564 0.000000
1.000000 0.360021 0.000000
0.001129 0.000000 0.001068
0.005219 0.000000 0.001007
0.013367 0.000000 0.000916
0.032136 0.000000 0.001770
0.055421 0.000000 0.002045
0.068269 0.003052 0.001801
0.081086 0.009369 0.001312
0.095521 0.016571 0.002502
0.114992 0.018982 0.002075
0.140108 0.016571 0.001617
0.172091 0.002350 0.000000
0.211734 0.000000 0.000000
0.258915 0.000000 0.000000
0.311711 0.000000 0.000000
0.368627 0.000000 0.000000
0.427527 0.000000 0.000000
0.487007 0.000000 0.000000
0.545861 0.000000 0.000000
0.606622 0.000000 0.000000
0.673274 0.000000 0.000000
0.733791 0.000000 0.000000
0.788968 0.000000 0.000000
0.838224 0.000000 0.000000
0.881621 0.000000 0.000000
0.919677 0.000000 0.000000
0.953399 0.000000 0.000000
0.983703 0.000000 0.000000
1.000000 0.150362 0.000000
1.000000 0.214145 0.000000
1.000000 0.266941 0.000000
1.000000 0.314061 0.000000
1.000000 0.357549 0.000000
0.003418 0.000000 0.003204
0.007507 0.000000 0.003174
0.012818 0.000153 0.001801
0.032502 0.001617 0.001190
0.055573 0.004364 0.001373
0.068910 0.009827 0.001190
0.081117 0.016358 0.001801
0.095674 0.022370 0.002014
0.115023 0.025971 0.002594
0.139986 0.022583 0.001129
0.171817 0.009796 0.000000
0.211368 0.000000 0.000000
0.258213 0.000000 0.000000
0.311070 0.000000 0.000000
0.367498 0.000000 0.000000
0.426154 0.000000 0.000000
0.485389 0.000000 0.000000
0.544030 0.000000 0.000000
0.605554 0.000000 0.000000
0.670832 0.000000 0.000000
0.730739 0.000000 0.000000
0.785733 0.000000 0.000000
0.834897 0.000000 0.000000
0.878508 0.000000 0.000000
0.916838 0.000000 0.000000
0.950866 0.000000 0.000000
0.981506 0.020111 0.000000
1.000000 0.153140 0.000000
1.000000 0.216068 0.000000
1.000000 0.268650 0.000000
1.000000 0.315221 0.000000
1.000000 0.358312 0.000000
0.007202 0.013825 0.006256
0.011048 0.013153 0.007294
0.016266 0.012268 0.008301
0.030365 0.020630 0.003998
0.055177 0.024353 0.001892
0.069306 0.027192 0.001892
0.082002 0.031098 0.001617
0.096986 0.036652 0.002869
0.116396 0.040040 0.002319
0.141634 0.037201 0.000732
0.173556 0.024933 0.000000
0.213046 0.000000 0.000000
0.259586 0.000000 0.000000
0.312200 0.000000 0.000000
0.368383 0.000000 0.000000
0.426520 0.000000 0.000000
0.485267 0.000000 0.000000
0.543572 0.000000 0.000000
0.605707 0.000000 0.000000
0.668238 0.000000 0.000000
0.726314 0.000000 0.000000
0.780484 0.000000 0.000000
0.829862 0.000000 0.000000
0.874662 0.000000 0.000000
0.914366 0.000000 0.000000
0.949676 0.000000 0.000000
0.981140 0.087892 0.000000
1.000000 0.171084 0.000000
1.000000 0.229404 0.000000
1.000000 0.278569 0.000000
1.000000 0.323033 0.000000
1.000000 0.364233 0.000000
0.011719 0.037507 0.011780
0.015778 0.036835 0.011719
0.021180 0.034730 0.012848
0.031250 0.035340 0.014679
0.051667 0.047120 0.007721
0.069184 0.052369 0.002960
0.082277 0.055146 0.002655
0.098238 0.057923 0.002869
0.118410 0.058747 0.002350
0.143801 0.058045 0.000519
0.175631 0.051942 0.000000
0.215183 0.034577 0.000000
0.261875 0.000000 0.000000
0.314275 0.000000 0.000000
0.370489 0.000000 0.000000
0.429114 0.000000 0.000000
0.488350 0.000000 0.000000
0.546777 0.000000 0.000000
0.610803 0.000000 0.000000
0.671229 0.000000 0.000000
0.727474 0.000000 0.000000
0.780423 0.000000 0.000000
0.829129 0.000000 0.000000
0.873564 0.000000 0.000000
0.913390 0.000000 0.000000
0.948821 0.000000 0.000000
0.980285 0.129488 0.000000
1.000000 0.193515 0.000000
1.000000 0.245914 0.000000
1.000000 0.292027 0.000000
1.000000 0.334081 0.000000
1.000000 0.373754 0.000000
0.016541 0.060426 0.017884
0.019257 0.060243 0.017853
0.024659 0.059388 0.018982
0.035035 0.057801 0.022187
0.048341 0.061067 0.020172
0.066316 0.068025 0.011322
0.082277 0.072541 0.003540
0.098848 0.074006 0.002533
0.120546 0.075105 0.001617
0.148470 0.074739 0.000305
0.181308 0.074220 0.000000
0.221439 0.069490 0.000000
0.268772 0.057374 0.000000
0.321355 0.007813 0.000000
0.377661 0.000000 0.000000
0.436103 0.000000 0.000000
0.495399 0.000000 0.000000
0.556329 0.000000 0.000000
0.619501 0.000000 0.000000
0.678340 0.000000 0.000000
0.733761 0.000000 0.000000
0.786099 0.000000 0.000000
0.881254 0.000000 0.000000
0.919341 0.026673 0.000000
0.952300 0.132540 0.000000
0.981048 0.186099 0.000000
1.000000 0.231052 0.000000
1.000000 0.271427 0.000000
1.000000 0.309300 0.000000
1.000000 0.345586 0.000000
1.000000 0.379767 0.000000
1.000000 0.412818 0.000000
0.020966 0.077028 0.025849
0.022553 0.076936 0.024720
0.029267 0.076234 0.025818
0.041169 0.074861 0.029114
0.053254 0.073243 0.034546
0.064576 0.079866 0.026825
0.079683 0.090089 0.015015
0.101717 0.098329 0.001282
0.125795 0.101381 0.000000
0.156497 0.103182 0.000000
0.195438 0.102937 0.000000
0.242100 0.099153 0.000000
0.291447 0.093080 0.000000
0.345403 0.080201 0.000000
0.401526 0.053071 0.000000
0.458656 0.000000 0.000000
0.516136 0.000000 0.000000
0.582391 0.000000 0.000000
0.644495 0.000000 0.000000
0.703090 0.000000 0.000000
0.760189 0.000000 0.000000
0.814755 0.000000 0.000000
0.864927 0.000000 0.000000
0.908873 0.116457 0.000000
0.946227 0.174014 0.000000
0.977325 0.219059 0.000000
1.000000 0.259007 0.000000
1.000000 0.295750 0.000000
1.000000 0.330175 0.000000
1.000000 0.363287 0.000000
1.000000 0.395117 0.000000
1.000000 0.426154 0.000000
0.021973 0.095460 0.034272
0.023926 0.095125 0.032166
0.030671 0.094575 0.033265
0.042725 0.093233 0.036652
0.055573 0.091646 0.042176
0.064057 0.091768 0.045991
0.075227 0.103151 0.032471
0.094453 0.117128 0.016266
0.122866 0.127657 0.000000
0.156130 0.133059 0.000000
0.195651 0.135561 0.000000
0.244053 0.135042 0.000000
0.299107 0.130159 0.000000
0.355749 0.122255 0.000000
0.411780 0.111910 0.000000
0.468482 0.095979 0.000000
0.531701 0.074189 0.000000
0.594141 0.031861 0.000000
0.652338 0.000000 0.000000
0.708186 0.000000 0.000000
0.763119 0.018616 0.000000
0.815793 0.088960 0.000000
0.864591 0.136294 0.000000
0.907591 0.179690 0.000000
0.944366 0.220035 0.000000
0.975280 0.256809 0.000000
1.000000 0.291081 0.000000
1.000000 0.323247 0.000000
1.000000 0.354711 0.000000
1.000000 0.384985 0.000000
1.000000 0.414618 0.000000
1.000000 0.443244 0.000000
0.018708 0.120272 0.043946
0.021057 0.119814 0.040833
0.026429 0.119448 0.041962
0.040009 0.118135 0.045411
0.054627 0.116487 0.050874
0.064912 0.114443 0.057618
0.073396 0.119387 0.054719
0.088258 0.134127 0.037995
0.114717 0.151644 0.013214
0.150912 0.164248 0.000000
0.196994 0.172213 0.000000
0.245731 0.174563 0.000000
0.301366 0.174014 0.000000
0.361700 0.169375 0.000000
0.424903 0.160433 0.000000
0.488350 0.152804 0.000000
0.550652 0.145357 0.000000
0.609339 0.138155 0.000000
0.664057 0.134463 0.000000
0.717494 0.138216 0.000000
0.770169 0.151949 0.000000
0.820798 0.174441 0.000000
0.867735 0.203891 0.000000
0.909178 0.235904 0.000000
0.944915 0.268162 0.000000
0.975128 0.298131 0.000000
1.000000 0.327611 0.000000
1.000000 0.355993 0.000000
1.000000 0.383703 0.000000
1.000000 0.410895 0.000000
1.000000 0.437537 0.000000
1.000000 0.463752 0.000000
0.008331 0.150546 0.051667
0.010285 0.150332 0.050111
0.015229 0.149569 0.049531
0.028595 0.148592 0.052949
0.047456 0.146792 0.058228
0.062989 0.144472 0.062165
0.073335 0.141817 0.067353
0.085786 0.153780 0.060517
0.106844 0.171481 0.039307
0.141512 0.191928 0.003693
0.187747 0.206271 0.000000
0.246342 0.215640 0.000000
0.302464 0.217868 0.000000
0.363134 0.217136 0.000000
0.433661 0.216312 0.000000
0.504173 0.212100 0.000000
0.573022 0.205295 0.000000
0.628992 0.203250 0.000000
0.681086 0.204105 0.000000
0.731838 0.209812 0.000000
0.781033 0.221744 0.000000
0.827970 0.239200 0.000000
0.871336 0.261326 0.000000
0.910124 0.286381 0.000000
0.944152 0.312078 0.000000
0.973663 0.337865 0.000000
0.999542 0.363714 0.000000
1.000000 0.389197 0.000000
1.000000 0.414618 0.000000
1.000000 0.439612 0.000000
1.000000 0.464240 0.000000
1.000000 0.488380 0.000000
0.000000 0.184787 0.059297
0.000000 0.184482 0.057557
0.000000 0.184176 0.056062
0.007416 0.183169 0.059144
0.029450 0.181308 0.062501
0.056703 0.179416 0.067231
0.072084 0.176791 0.072786
0.085573 0.176699 0.076936
0.103334 0.194583 0.065064
0.132601 0.215213 0.035126
0.177676 0.237705 0.000000
0.238285 0.256443 0.000000
0.307988 0.266484 0.000000
0.373602 0.270665 0.000000
0.442115 0.271977 0.000000
0.510307 0.271061 0.000000
0.576532 0.268345 0.000000
0.638666 0.265476 0.000000
0.694545 0.264469 0.000000
0.742885 0.270542 0.000000
0.790005 0.281712 0.000000
0.834958 0.297276 0.000000
0.876738 0.316930 0.000000
0.913939 0.338170 0.000000
0.946593 0.360327 0.000000
0.975036 0.382116 0.000000
0.999908 0.404059 0.000000
1.000000 0.426093 0.000000
1.000000 0.448066 0.000000
1.000000 0.469886 0.000000
1.000000 0.491768 0.000000
1.000000 0.513451 0.000000
0.000000 0.224186 0.065187
0.000000 0.223941 0.063539
0.000000 0.223819 0.062257
0.000000 0.222446 0.064332
0.000000 0.221256 0.068452
0.035523 0.219150 0.073213
0.066987 0.217044 0.079500
0.086152 0.214054 0.087068
0.103426 0.220890 0.086061
0.128664 0.241611 0.069917
0.169009 0.265843 0.029511
0.229679 0.293584 0.000000
0.343999 0.347784 0.000000
0.426612 0.356481 0.000000
0.497658 0.359411 0.000000
0.565759 0.360266 0.000000
0.628870 0.359991 0.000000
0.686091 0.359594 0.000000
0.739132 0.360693 0.000000
0.789731 0.365118 0.000000
0.834257 0.373205 0.000000
0.872007 0.385412 0.000000
0.906279 0.399481 0.000000
0.937224 0.415137 0.000000
0.964782 0.431098 0.000000
0.989197 0.447425 0.000000
1.000000 0.463691 0.000000
1.000000 0.480049 0.000000
1.000000 0.496773 0.000000
1.000000 0.513817 0.000000
1.000000 0.531121 0.000000
1.000000 0.548791 0.000000
0.000000 0.276799 0.075319
0.000000 0.276493 0.073671
0.000000 0.275639 0.071473
0.000000 0.274022 0.072663
0.000000 0.271580 0.076783
0.000000 0.268589 0.082277
0.058076 0.265354 0.089052
0.085084 0.262028 0.096895
0.108766 0.260319 0.106966
0.134493 0.279667 0.098756
0.174777 0.308232 0.078431
0.233555 0.339330 0.021637
0.312139 0.371832 0.000000
0.408423 0.403479 0.000000
0.493721 0.413214 0.000000
0.564263 0.417182 0.000000
0.626612 0.418097 0.000000
0.682734 0.418463 0.000000
0.735042 0.419989 0.000000
0.784695 0.424109 0.000000
0.831388 0.430945 0.000000
0.874205 0.439429 0.000000
0.908873 0.450202 0.000000
0.938445 0.462562 0.000000
0.964935 0.475593 0.000000
0.988495 0.488808 0.000000
1.000000 0.502251 0.000000
1.000000 0.516014 0.000000
1.000000 0.530144 0.000000
1.000000 0.544915 0.000000
1.000000 0.559991 0.000000
1.000000 0.575494 0.000000
0.000000 0.322332 0.085878
0.000000 0.322057 0.084199
0.000000 0.321233 0.081727
0.000000 0.319615 0.081666
0.000000 0.317784 0.086030
0.000000 0.316472 0.092287
0.027100 0.315282 0.099855
0.082338 0.313542 0.108370
0.113436 0.311986 0.118776
0.142092 0.312993 0.128328
0.177432 0.339971 0.112093
0.228794 0.370062 0.087434
0.296757 0.401465 0.016999
0.381018 0.432563 0.000000
0.476295 0.461738 0.000000
0.555413 0.469459 0.000000
0.623346 0.473671 0.000000
0.678614 0.474250 0.000000
0.730495 0.476143 0.000000
0.779721 0.480232 0.000000
0.826261 0.486885 0.000000
0.868986 0.495094 0.000000
0.906950 0.503563 0.000000
0.940551 0.511864 0.000000
0.966583 0.522057 0.000000
0.989288 0.532403 0.000000
1.000000 0.543206 0.000000
1.000000 0.554314 0.000000
1.000000 0.565881 0.000000
1.000000 0.578241 0.000000
1.000000 0.590967 0.000000
1.000000 0.604181 0.000000
0.000000 0.379065 0.100557
0.000000 0.379065 0.099306
0.000000 0.378271 0.096620
0.000000 0.377050 0.094942
0.000000 0.374853 0.099306
0.000000 0.372290 0.105318
0.000000 0.369696 0.112734
0.079347 0.366918 0.121431
0.118227 0.364752 0.131563
0.152468 0.362890 0.143313
0.185733 0.372503 0.145022
0.230564 0.401160 0.126223
0.289799 0.431617 0.097597
0.363500 0.462043 0.016205
0.448432 0.491066 0.000000
0.539452 0.517479 0.000000
0.610803 0.523339 0.000000
0.675929 0.529076 0.000000
0.726986 0.530877 0.000000
0.775753 0.534844 0.000000
0.821714 0.540734 0.000000
0.864073 0.548119 0.000000
0.901854 0.555688 0.000000
0.935454 0.562951 0.000000
0.964935 0.569879 0.000000
0.990509 0.576623 0.000000
1.000000 0.585382 0.000000
1.000000 0.594659 0.000000
1.000000 0.604547 0.000000
1.000000 0.614954 0.000000
1.000000 0.625788 0.000000
1.000000 0.637079 0.000000
0.000000 0.436652 0.117647
0.000000 0.436805 0.116365
0.000000 0.436439 0.114412
0.000000 0.435340 0.110536
0.000000 0.433387 0.114992
0.000000 0.431098 0.121004
0.000000 0.428504 0.128267
0.079133 0.426307 0.137453
0.127474 0.423835 0.147677
0.166781 0.421057 0.158846
0.202792 0.417884 0.171603
0.240879 0.435859 0.163607
0.291020 0.463142 0.141329
0.353857 0.490913 0.108949
0.427436 0.517693 0.030793
0.509087 0.543297 0.000000
0.593896 0.567681 0.000000
0.658473 0.573571 0.000000
0.724147 0.583673 0.000000
0.773312 0.588434 0.000000
0.819608 0.594751 0.000000
0.862119 0.602136 0.000000
0.899992 0.608942 0.000000
0.933532 0.615503 0.000000
0.962921 0.621363 0.000000
0.988708 0.626581 0.000000
1.000000 0.631312 0.000000
1.000000 0.636378 0.000000
1.000000 0.643549 0.000000
1.000000 0.650904 0.000000
1.000000 0.658778 0.000000
1.000000 0.667170 0.000000
0.000000 0.490791 0.136416
0.000000 0.490394 0.134493
0.000000 0.489693 0.131807
0.000000 0.488716 0.127657
0.000000 0.486732 0.131136
0.000000 0.484108 0.136812
0.000000 0.481666 0.144015
0.081453 0.478798 0.152285
0.135256 0.475929 0.162142
0.178378 0.472877 0.173220
0.217472 0.469642 0.185580
0.253880 0.466835 0.198611
0.297246 0.493080 0.180575
0.351720 0.519585 0.156191
0.416388 0.545556 0.122408
0.488777 0.570001 0.057679
0.566186 0.593622 0.000000
0.643977 0.616907 0.000000
0.704005 0.623713 0.000000
0.769314 0.637659 0.000000
0.815152 0.643336 0.000000
0.857389 0.649683 0.000000
0.895232 0.655695 0.000000
0.929015 0.661311 0.000000
0.958679 0.666346 0.000000
0.984680 0.670832 0.000000
1.000000 0.674464 0.000000
1.000000 0.677790 0.000000
1.000000 0.680568 0.000000
1.000000 0.684627 0.000000
1.000000 0.690394 0.000000
1.000000 0.696712 0.000000
0.000000 0.545464 0.156680
0.000000 0.545983 0.155306
0.000000 0.576013 0.166629
0.000000 0.574517 0.161440
0.000000 0.572076 0.162814
0.000000 0.568658 0.167758
0.000000 0.564691 0.174319
0.114382 0.560327 0.182162
0.167941 0.556207 0.191623
0.213504 0.551659 0.202121
0.255009 0.547051 0.213901
0.293828 0.541680 0.226688
0.331487 0.545739 0.229831
0.378210 0.569879 0.209323
0.434455 0.593530 0.182712
0.498024 0.616266 0.146853
0.567346 0.638361 0.089021
0.637781 0.659785 0.000000
0.707942 0.681147 0.000000
0.761776 0.687526 0.000000
0.823331 0.701869 0.000000
0.863249 0.705684 0.000000
0.899260 0.709377 0.000000
0.931151 0.712337 0.000000
0.959075 0.714321 0.000000
0.983642 0.715785 0.000000
1.000000 0.716762 0.000000
1.000000 0.717617 0.000000
1.000000 0.718746 0.000000
1.000000 0.719783 0.000000
1.000000 0.720943 0.000000
1.000000 0.724331 0.000000
0.000000 0.606775 0.182345
0.000000 0.610712 0.183078
0.000000 0.614343 0.183169
0.000000 0.616876 0.180148
0.000000 0.617731 0.180972
0.000000 0.616083 0.186526
0.027527 0.613031 0.192813
0.129213 0.608942 0.200198
0.183047 0.604913 0.209049
0.228855 0.600427 0.218936
0.271275 0.595911 0.230106
0.311498 0.590753 0.242527
0.348699 0.584466 0.255619
0.387457 0.596796 0.248173
0.435462 0.619104 0.226200
0.491279 0.641047 0.198856
0.552880 0.662165 0.162875
0.617670 0.682948 0.109621
0.683589 0.703548 0.000000
0.748928 0.723934 0.000000
0.800290 0.731838 0.000000
0.857023 0.745083 0.000000
0.895140 0.748928 0.000000
0.927337 0.751247 0.000000
0.955535 0.752651 0.000000
0.980377 0.753292 0.000000
1.000000 0.753506 0.000000
1.000000 0.753536 0.000000
1.000000 0.753567 0.000000
1.000000 0.753506 0.000000
1.000000 0.753445 0.000000
1.000000 0.753567 0.062379
0.000000 0.655756 0.204746
0.000000 0.659205 0.205631
0.000000 0.662745 0.205936
0.000000 0.665034 0.203311
0.000000 0.665980 0.202396
0.000000 0.664393 0.207523
0.083101 0.661311 0.213382
0.151003 0.657710 0.220310
0.202335 0.653895 0.228794
0.248234 0.649683 0.238346
0.291051 0.645289 0.248997
0.331884 0.640253 0.261021
0.369909 0.634424 0.273411
0.405158 0.627527 0.286473
0.445960 0.647761 0.268711
0.494514 0.668696 0.245945
0.548821 0.688960 0.217838
0.607263 0.708827 0.182345
0.667781 0.728206 0.134066
0.729335 0.747311 0.005097
0.789578 0.765591 0.000000
0.840055 0.775814 0.000000
0.888487 0.783780 0.000000
0.924468 0.786923 0.000000
0.952728 0.787320 0.000000
0.977478 0.787076 0.000000
0.999359 0.786374 0.000000
1.000000 0.785458 0.000000
1.000000 0.784512 0.000000
1.000000 0.783536 0.000000
1.000000 0.782589 0.000000
1.000000 0.781735 0.104005
0.000000 0.704829 0.230198
0.000000 0.708064 0.230808
0.000000 0.711177 0.230747
0.000000 0.713497 0.228916
0.000000 0.714412 0.226322
0.000000 0.712886 0.231113
0.122133 0.710109 0.236545
0.178286 0.706508 0.243168
0.226474 0.702602 0.250858
0.271244 0.698451 0.259953
0.313695 0.693935 0.270024
0.354284 0.689021 0.281346
0.392676 0.683314 0.293217
0.428534 0.676844 0.305943
0.463325 0.677668 0.310643
0.505791 0.698238 0.291569
0.554772 0.718746 0.269261
0.608301 0.738857 0.242649
0.664912 0.758633 0.211124
0.723232 0.777493 0.170932
0.780941 0.794949 0.111513
0.836637 0.810605 0.000000
0.884581 0.820645 0.000000
0.924712 0.823911 0.000000
0.957488 0.825376 0.000000
0.981445 0.824186 0.000000
1.000000 0.822416 0.000000
1.000000 0.820340 0.000000
1.000000 0.818173 0.000000
1.000000 0.816007 0.000000
1.000000 0.813809 0.109346
1.000000 0.811795 0.172457
0.000000 0.765988 0.267308
0.000000 0.767208 0.266575
0.000000 0.768124 0.266056
0.000000 0.768399 0.262974
0.003113 0.767971 0.258183
0.118257 0.765896 0.262028
0.171817 0.763272 0.267185
0.218936 0.760128 0.273381
0.263798 0.756924 0.281132
0.307317 0.753506 0.289952
0.349432 0.749813 0.300237
0.390295 0.745480 0.311589
0.428443 0.740322 0.323217
0.464393 0.734401 0.335698
0.497536 0.727687 0.348516
0.532311 0.735988 0.343847
0.573693 0.754452 0.324468
0.619867 0.772335 0.302525
0.669612 0.789395 0.277531
0.721157 0.805051 0.248569
0.773129 0.819181 0.213382
0.823941 0.831724 0.168093
0.872618 0.842741 0.099153
0.916411 0.850889 0.000000
0.949218 0.850278 0.000000
0.979156 0.850278 0.000000
1.000000 0.848020 0.000000
1.000000 0.845518 0.000000
1.000000 0.842893 0.000000
1.000000 0.840055 0.074952
1.000000 0.837278 0.146853
1.000000 0.834623 0.200137
0.096345 0.810025 0.298833
0.104128 0.811215 0.298924
0.112856 0.812192 0.298650
0.124880 0.812528 0.295842
0.139925 0.812100 0.291173
0.176486 0.810117 0.292699
0.217288 0.807431 0.297154
0.257816 0.804379 0.303044
0.298497 0.800992 0.309880
0.339361 0.797513 0.318242
0.379736 0.793973 0.327916
0.418921 0.789944 0.338811
0.456428 0.785153 0.350103
0.492134 0.779965 0.362280
0.525109 0.774228 0.374884
0.555688 0.768429 0.388708
0.590845 0.783261 0.375128
0.631128 0.799466 0.357000
0.675105 0.814542 0.336889
0.721309 0.828397 0.314122
0.768643 0.840818 0.288273
0.815793 0.851804 0.258762
0.861479 0.861448 0.222873
0.904936 0.869688 0.176699
0.941314 0.873350 0.082368
0.968902 0.870634 0.000000
0.996948 0.869718 0.000000
1.000000 0.866941 0.000000
1.000000 0.863920 0.000000
1.000000 0.860807 0.117128
1.000000 0.857786 0.173251
1.000000 0.854734 0.222629
0.203922 0.857237 0.344121
0.209079 0.858366 0.344762
0.213870 0.858946 0.344610
0.219760 0.858732 0.341588
0.227512 0.857877 0.336828
0.248600 0.855802 0.335668
0.279301 0.852903 0.339208
0.312657 0.849332 0.343572
0.347509 0.845365 0.349096
0.383276 0.841337 0.355932
0.419257 0.836851 0.363867
0.455055 0.832395 0.373175
0.489754 0.827512 0.383154
0.522545 0.822080 0.393988
0.553094 0.816037 0.404913
0.581323 0.809720 0.416785
0.608881 0.807858 0.423072
0.642420 0.821256 0.406744
0.680171 0.834195 0.389441
0.721279 0.846433 0.371130
0.764187 0.857603 0.350988
0.807248 0.867308 0.328130
0.849363 0.875547 0.301030
0.889738 0.882353 0.268681
0.927855 0.887907 0.228336
0.963836 0.892638 0.175448
0.988373 0.889494 0.121675
1.000000 0.887236 0.000000
1.000000 0.883757 0.102876
1.000000 0.880247 0.156466
1.000000 0.876707 0.202548
1.000000 0.873289 0.248722
0.271733 0.887602 0.382696
0.276219 0.888487 0.383581
0.279637 0.888914 0.382940
0.284581 0.888762 0.380591
0.290929 0.888090 0.376226
0.304906 0.886595 0.373816
0.331640 0.884062 0.377142
0.360601 0.881254 0.381628
0.392126 0.878050 0.387152
0.425513 0.874723 0.394110
0.458930 0.871183 0.402350
0.492805 0.867460 0.411597
0.525689 0.863493 0.421820
0.556939 0.859037 0.432624
0.586267 0.854307 0.443977
0.613886 0.849302 0.456001
0.639948 0.844205 0.468727
0.666987 0.847898 0.467659
0.698878 0.858640 0.452979
0.734005 0.868681 0.437903
0.771084 0.877745 0.421149
0.809018 0.885679 0.402441
0.846616 0.892393 0.381048
0.883238 0.897978 0.356481
0.918517 0.902495 0.326940
0.952026 0.906157 0.291997
0.983948 0.909209 0.249882
1.000000 0.906035 0.214084
1.000000 0.902953 0.177127
1.000000 0.898955 0.203464
1.000000 0.895018 0.243565
1.000000 0.891203 0.286534
0.344030 0.914611 0.428443
0.347326 0.915068 0.429175
0.349706 0.915190 0.428687
0.353002 0.914794 0.426001
0.357336 0.914000 0.421546
0.365789 0.912688 0.417273
0.387243 0.910369 0.420050
0.412055 0.907713 0.423774
0.439612 0.904845 0.429053
0.469062 0.901884 0.435676
0.499458 0.898680 0.443519
0.530327 0.895567 0.453010
0.560723 0.892180 0.463111
0.590021 0.888426 0.473854
0.617517 0.884398 0.485145
0.643549 0.880064 0.496773
0.668238 0.875608 0.509056
0.691768 0.871397 0.522759
0.717891 0.878294 0.514397
0.747402 0.886564 0.501213
0.778988 0.894072 0.487373
0.811795 0.900633 0.471839
0.844968 0.906249 0.454017
0.877775 0.910857 0.434089
0.909819 0.914611 0.410071
0.940826 0.917601 0.382635
0.970703 0.920012 0.350896
0.999512 0.921904 0.312932
1.000000 0.918822 0.283085
1.000000 0.915038 0.257145
1.000000 0.910552 0.271855
1.000000 0.906432 0.312657
0.409857 0.934783 0.474891
0.411963 0.934997 0.475135
0.414130 0.934997 0.474586
0.416876 0.934752 0.472206
0.421363 0.934325 0.468910
0.427924 0.933806 0.465034
0.448981 0.932464 0.470100
0.473030 0.930968 0.476265
0.499794 0.929442 0.484627
0.528313 0.927733 0.494209
0.557458 0.925902 0.505028
0.586908 0.923888 0.516960
0.615564 0.921599 0.529503
0.642786 0.918914 0.541894
0.668605 0.915892 0.554437
0.692470 0.912474 0.566705
0.715023 0.908965 0.579461
0.736416 0.905516 0.593133
0.757259 0.903929 0.604120
0.780026 0.909911 0.593225
0.804715 0.915373 0.581720
0.830900 0.920104 0.568963
0.857603 0.924102 0.554131
0.884733 0.927398 0.537133
0.911681 0.930053 0.517754
0.938384 0.932128 0.495216
0.964660 0.933776 0.469429
0.990600 0.934936 0.439490
1.000000 0.935729 0.405158
1.000000 0.932433 0.378912
1.000000 0.927794 0.360937
1.000000 0.922545 0.369146
0.498665 0.954803 0.544579
0.500053 0.954833 0.544549
0.501030 0.954711 0.543694
0.502922 0.954406 0.541588
0.505699 0.953918 0.538079
0.510094 0.953307 0.534203
0.523766 0.951934 0.536370
0.541680 0.950225 0.541100
0.562005 0.948333 0.547265
0.584314 0.946288 0.554803
0.607538 0.944030 0.563348
0.631434 0.941680 0.573053
0.655268 0.939147 0.583642
