assets/luts/Moody.cube
# Created by Adobe Lightroom plugin Export LUT (1.18.0)
# www.johnrellis.com/lightroom/exportlut.htm
# Preset: Blood-Brothers_Free-LR-Presets.co
# Color profile: /Library/Application Support/Adobe/Color/Profiles/Recommended/AdobeRGB1998.icc
LUT_3D_SIZE 8
DOMAIN_MIN 0.000000 0.000000 0.000000
DOMAIN_MAX 0.903226 0.903226 0.903226
0.000000 0.000000 0.000000
0.054902 0.000000 0.002441
0.115358 0.015137 0.002350
0.261295 0.000000 0.000000
0.491707 0.000000 0.000000
0.741115 0.000000 0.000000
0.925750 0.000000 0.000000
1.000000 0.217716 0.000000
0.011719 0.037507 0.011780
0.051667 0.047120 0.007721
0.118410 0.058747 0.002350
0.261875 0.000000 0.000000
0.488350 0.000000 0.000000
0.727474 0.000000 0.000000
0.913390 0.000000 0.000000
1.000000 0.245914 0.000000
0.018708 0.120272 0.043946
0.054627 0.116487 0.050874
0.114717 0.151644 0.013214
0.301366 0.174014 0.000000
0.550652 0.145357 0.000000
0.770169 0.151949 0.000000
0.944915 0.268162 0.000000
1.000000 0.383703 0.000000
0.000000 0.276799 0.075319
0.000000 0.271580 0.076783
0.108766 0.260319 0.106966
0.312139 0.371832 0.000000
0.626612 0.418097 0.000000
0.831388 0.430945 0.000000
0.964935 0.475593 0.000000
1.000000 0.530144 0.000000
0.000000 0.490791 0.136416
0.000000 0.486732 0.131136
0.135256 0.475929 0.162142
0.297246 0.493080 0.180575
0.566186 0.593622 0.000000
0.815152 0.643336 0.000000
0.958679 0.666346 0.000000
1.000000 0.680568 0.000000
0.000000 0.704829 0.230198
0.000000 0.714412 0.226322
0.226474 0.702602 0.250858
0.392676 0.683314 0.293217
0.554772 0.718746 0.269261
0.780941 0.794949 0.111513
0.957488 0.825376 0.000000
1.000000 0.818173 0.000000
0.271733 0.887602 0.382696
0.290929 0.888090 0.376226
0.392126 0.878050 0.387152
0.525689 0.863493 0.421820
0.639948 0.844205 0.468727
0.771084 0.877745 0.421149
0.918517 0.902495 0.326940
1.000000 0.902953 0.177127
0.561364 0.965789 0.599481
0.567956 0.965026 0.594934
0.615412 0.960479 0.605493
0.697658 0.952514 0.643824
0.759548 0.938537 0.664179
0.832395 0.934630 0.709499
0.906981 0.946197 0.672297
0.987701 0.950317 0.592706
0.004761 0.000000 0.044434
0.051850 0.000000 0.049378
0.111421 0.005249 0.045869
0.246220 0.000000 0.052430
0.468666 0.000000 0.000000
0.705104 0.000000 0.000000
0.898283 0.000000 0.000000
1.000000 0.184360 0.000000
0.008148 0.042512 0.051148
0.053223 0.050752 0.056977
0.114961 0.061463 0.059205
0.255131 0.011597 0.052125
0.475685 0.000000 0.000000
0.704433 0.000000 0.000000
0.890593 0.000000 0.000000
1.000000 0.214755 0.000000
0.014740 0.124605 0.071992
0.057984 0.129305 0.078737
0.116640 0.153262 0.070253
0.295476 0.168185 0.030396
0.526696 0.142214 0.000000
0.739712 0.131258 0.000000
0.914611 0.227329 0.000000
1.000000 0.356634 0.000000
0.000000 0.276097 0.108583
0.000000 0.278813 0.112947
0.116640 0.270512 0.133822
0.291417 0.349371 0.066865
0.575830 0.378912 0.000000
0.788510 0.386847 0.000000
0.936736 0.437995 0.000000
1.000000 0.508171 0.000000
0.000000 0.493538 0.178286
0.000000 0.489876 0.172457
0.141329 0.475654 0.186587
0.289921 0.474617 0.207584
0.539849 0.567803 0.061891
0.793240 0.618524 0.000000
0.946593 0.649012 0.000000
1.000000 0.669734 0.000000
0.000000 0.696803 0.264561
0.000000 0.695521 0.254856
0.214511 0.686000 0.261906
0.383642 0.670588 0.302770
0.545006 0.705318 0.291875
0.774533 0.788663 0.171969
0.951781 0.820127 0.000000
1.000000 0.813535 0.035981
0.272587 0.876341 0.397101
0.281895 0.873320 0.385565
0.368872 0.866300 0.384955
0.512505 0.855070 0.423072
0.633509 0.838804 0.472724
0.762356 0.871153 0.431220
0.910033 0.896849 0.337469
1.000000 0.898589 0.196689
0.556512 0.962829 0.604822
0.565820 0.962463 0.602625
0.606653 0.958984 0.605707
0.691859 0.951232 0.644434
0.771633 0.941222 0.690333
0.836667 0.934997 0.727840
0.905486 0.945281 0.681758
0.985534 0.949187 0.598901
0.000000 0.000000 0.124575
0.035462 0.003571 0.130709
0.116457 0.000000 0.149172
0.291569 0.000000 0.153902
0.483742 0.000000 0.128298
0.707057 0.000000 0.151095
0.900206 0.000000 0.144839
1.000000 0.198825 0.149050
0.000000 0.059113 0.133059
0.029847 0.059998 0.139101
0.118746 0.057038 0.154726
0.283726 0.000000 0.152071
0.474647 0.000000 0.148806
0.706203 0.000000 0.151003
0.896178 0.000000 0.141512
1.000000 0.235264 0.144594
0.000000 0.134585 0.154086
0.000000 0.142641 0.159487
0.123537 0.167422 0.174350
0.296605 0.175784 0.172702
0.532036 0.161807 0.170565
0.741360 0.156130 0.161685
0.912016 0.235386 0.148959
1.000000 0.359991 0.153262
0.000000 0.307622 0.195804
0.000000 0.312963 0.199771
0.143252 0.328069 0.222354
0.323461 0.369360 0.211307
0.601129 0.388678 0.188205
0.795377 0.400000 0.179934
0.937377 0.450965 0.168734
1.000000 0.518975 0.178622
0.000000 0.514000 0.252232
0.000000 0.517632 0.259281
0.184512 0.523796 0.280766
0.343999 0.502922 0.311009
0.570367 0.588342 0.245121
0.804135 0.627832 0.180911
0.948882 0.653193 0.193393
1.000000 0.676875 0.227054
0.000000 0.712734 0.330632
0.000000 0.714473 0.338994
0.265476 0.713222 0.352911
0.417639 0.693751 0.373297
0.560327 0.703609 0.385382
0.773007 0.785702 0.308354
0.946777 0.816953 0.235752
1.000000 0.815335 0.294591
0.280217 0.886107 0.461707
0.324804 0.883787 0.467201
0.416693 0.877287 0.469490
0.531792 0.864073 0.483162
0.648432 0.846281 0.524132
0.766629 0.870512 0.509392
0.911772 0.899260 0.443854
1.000000 0.901152 0.362829
0.556939 0.964172 0.642481
0.576165 0.962066 0.647242
0.623957 0.957702 0.654780
0.699825 0.952026 0.681941
0.776913 0.941894 0.720729
0.842161 0.933104 0.766903
0.906004 0.944640 0.731960
0.982635 0.949432 0.665766
0.000000 0.011810 0.261479
0.000000 0.015351 0.271672
0.099916 0.000000 0.297398
0.297673 0.000000 0.326085
0.581262 0.000000 0.345861
0.748043 0.000000 0.307500
0.891569 0.000000 0.273381
1.000000 0.146426 0.317021
0.000000 0.064607 0.276524
0.000000 0.066041 0.283513
0.103487 0.063813 0.305455
0.305760 0.000000 0.333501
0.580102 0.000000 0.345586
0.741085 0.000000 0.305058
0.883391 0.000000 0.280644
1.000000 0.196963 0.316014
0.000000 0.149355 0.279484
0.000000 0.156527 0.287694
0.098878 0.171878 0.317845
0.322454 0.171847 0.349645
0.573999 0.101747 0.345617
0.740597 0.079774 0.314061
0.900114 0.244175 0.334997
1.000000 0.356878 0.340368
0.000000 0.306615 0.329870
0.000000 0.315038 0.334661
0.087098 0.343084 0.351781
0.354711 0.385901 0.382238
0.577752 0.386450 0.372656
0.763546 0.398901 0.363867
0.916991 0.444495 0.358648
1.000000 0.518608 0.367224
0.000000 0.560784 0.401709
0.000000 0.560662 0.400641
0.123323 0.565515 0.405341
0.415320 0.573693 0.437995
0.599908 0.608087 0.427222
0.811643 0.637629 0.411749
0.944182 0.659602 0.418036
1.000000 0.684993 0.421576
0.000000 0.749752 0.453132
0.000000 0.758450 0.463783
0.269200 0.754757 0.474556
0.483436 0.750912 0.503044
0.611261 0.724392 0.532097
0.785885 0.797513 0.482490
0.942626 0.819394 0.456092
1.000000 0.818082 0.490944
0.228153 0.897917 0.550835
0.288823 0.897429 0.556634
0.432624 0.893462 0.574548
0.578363 0.886076 0.599420
0.685328 0.869352 0.623072
0.781155 0.874266 0.632929
0.910430 0.901091 0.581353
1.000000 0.901366 0.537713
0.544274 0.969390 0.700252
0.568109 0.967773 0.706050
0.635859 0.961852 0.723140
0.719234 0.953735 0.748470
0.786465 0.944518 0.769528
0.849943 0.935088 0.806363
0.906737 0.943236 0.795682
0.977752 0.949248 0.750912
0.000000 0.021363 0.434119
0.000000 0.016968 0.442786
0.000000 0.000000 0.466102
0.331853 0.000000 0.508446
0.570336 0.000000 0.542657
0.800778 0.000000 0.567193
0.934356 0.000000 0.536522
1.000000 0.000000 0.501610
0.000000 0.070680 0.443061
0.000000 0.071382 0.452247
0.000000 0.061616 0.474067
0.334997 0.000000 0.511894
0.573724 0.000000 0.546136
0.802609 0.000000 0.569390
0.932433 0.000000 0.535729
1.000000 0.000000 0.499641
0.000000 0.171969 0.454108
0.000000 0.167086 0.462379
0.000000 0.179141 0.481941
0.342870 0.188846 0.522942
0.580285 0.125887 0.554162
0.800320 0.000000 0.568322
0.920500 0.038788 0.525017
1.000000 0.226169 0.486549
0.000000 0.307530 0.463600
0.000000 0.313634 0.467323
0.015412 0.335790 0.481666
0.350317 0.373358 0.535943
0.597925 0.391119 0.576654
0.787198 0.378943 0.563928
0.904479 0.385290 0.514214
0.996887 0.480751 0.514519
0.000000 0.514549 0.526329
0.000000 0.520989 0.530388
0.000000 0.540124 0.542657
0.376593 0.571160 0.565698
0.609735 0.611688 0.598688
0.774685 0.610559 0.579217
0.908721 0.627558 0.564385
1.000000 0.663478 0.562097
0.000000 0.763272 0.606958
0.000000 0.767086 0.609674
0.043977 0.766964 0.608881
0.424475 0.764248 0.612055
0.632685 0.759884 0.633753
0.780972 0.794491 0.637354
0.928557 0.814359 0.642817
1.000000 0.817044 0.661433
0.000000 0.909941 0.672908
0.157809 0.908049 0.672786
0.359167 0.902647 0.675990
0.544427 0.895018 0.688685
0.698512 0.884825 0.715572
0.787259 0.867247 0.742245
0.902220 0.898955 0.708858
0.997742 0.898497 0.692287
0.480812 0.973388 0.759854
0.505638 0.971649 0.761532
0.581933 0.965850 0.769100
0.697719 0.958099 0.795682
0.790982 0.947875 0.820249
0.853269 0.938109 0.840940
0.905455 0.939788 0.849027
0.971771 0.947662 0.820035
0.000000 0.005005 0.636835
0.000000 0.000000 0.642725
0.000000 0.000000 0.658839
0.358831 0.000000 0.693843
0.615442 0.000000 0.740902
0.786160 0.000000 0.760311
0.939086 0.000000 0.776150
1.000000 0.000000 0.748959
0.000000 0.077272 0.632380
0.000000 0.074495 0.637263
0.000000 0.034394 0.655116
0.355657 0.000000 0.690486
0.611200 0.000000 0.736355
0.782528 0.000000 0.757015
0.936980 0.000000 0.774228
1.000000 0.000000 0.746456
0.000000 0.180484 0.643305
0.000000 0.183230 0.648432
0.000000 0.189792 0.667506
0.365515 0.190463 0.701503
0.621454 0.196445 0.746395
0.786831 0.130343 0.765286
0.936614 0.152956 0.778408
1.000000 0.284092 0.744503
0.000000 0.337896 0.636164
0.000000 0.341955 0.642573
0.034485 0.360571 0.672114
0.372656 0.378515 0.714137
0.629572 0.424872 0.762325
0.798520 0.431281 0.786526
0.937377 0.447303 0.789517
1.000000 0.487312 0.742153
0.000000 0.506584 0.662654
0.000000 0.510735 0.665309
0.000000 0.524407 0.673793
0.355444 0.546593 0.689296
0.596368 0.590448 0.747066
0.789517 0.629786 0.787381
0.917113 0.631434 0.770108
0.991058 0.635340 0.719051
0.000000 0.716365 0.720272
0.000000 0.722255 0.725185
0.095735 0.732631 0.733242
0.402472 0.748379 0.747189
0.606958 0.769650 0.767086
0.792386 0.807462 0.804501
0.900664 0.803708 0.788052
0.981506 0.808591 0.777768
0.000000 0.917357 0.811521
0.000000 0.918425 0.814054
0.289952 0.918242 0.817716
0.498482 0.916442 0.822843
0.678798 0.904723 0.822385
0.817227 0.892821 0.839048
0.901305 0.901518 0.837766
0.983337 0.901549 0.840909
0.413428 0.981292 0.847745
0.442267 0.979553 0.847623
0.530480 0.973846 0.848325
0.651392 0.965118 0.853941
0.768063 0.954162 0.865293
0.860258 0.943816 0.885100
0.910216 0.935698 0.900938
0.968566 0.946654 0.886198
0.000000 0.000000 0.830655
0.000000 0.000000 0.836332
0.138155 0.000000 0.846250
0.422889 0.000000 0.863981
0.641138 0.000000 0.884977
0.805173 0.000000 0.902434
0.919524 0.000000 0.908141
1.000000 0.000000 0.898253
0.000000 0.075013 0.823239
0.000000 0.066072 0.828428
0.115541 0.000000 0.838865
0.410346 0.000000 0.855924
0.630488 0.000000 0.877409
0.796902 0.000000 0.895567
0.912108 0.000000 0.901152
1.000000 0.000000 0.892729
0.000000 0.197513 0.830777
0.000000 0.197604 0.833433
0.099062 0.195041 0.841733
0.408606 0.186679 0.857939
0.628260 0.193454 0.877745
0.798825 0.243107 0.897734
0.913817 0.231052 0.905394
1.000000 0.317967 0.896818
0.000000 0.370642 0.831144
0.000000 0.363928 0.833097
0.000000 0.349828 0.841550
0.393652 0.367529 0.859037
0.622797 0.400427 0.879515
0.803922 0.473060 0.903197
0.914305 0.471046 0.910887
0.999115 0.514702 0.899138
0.000000 0.521447 0.804471
0.000000 0.520531 0.803189
0.000000 0.524773 0.811124
0.360174 0.540337 0.839109
0.580957 0.556756 0.867247
0.783078 0.628199 0.894438
0.903319 0.648676 0.906615
0.989471 0.682918 0.898375
0.000000 0.708309 0.839628
0.000000 0.709285 0.840238
0.074769 0.712337 0.842283
0.365393 0.717525 0.846738
0.554162 0.723873 0.851743
0.765469 0.774777 0.889494
0.902159 0.814481 0.913268
0.976959 0.815427 0.899687
0.000000 0.877256 0.878538
0.000000 0.878355 0.880003
0.278721 0.879210 0.882200
0.462165 0.880949 0.886534
0.630457 0.882231 0.891539
0.785000 0.887999 0.901213
0.905089 0.903288 0.920897
0.966461 0.896147 0.909392
0.339910 0.978119 0.917754
0.372717 0.977264 0.917967
0.479988 0.975036 0.920867
0.605768 0.969848 0.923033
0.734829 0.962768 0.926635
0.845365 0.951751 0.928649
0.922301 0.943053 0.938170
0.968536 0.945922 0.938201
0.000000 0.000000 0.956481
0.161501 0.000000 0.957794
0.330602 0.000000 0.959289
0.508171 0.000000 0.963928
0.672908 0.000000 0.969482
0.814694 0.105623 0.975402
0.916655 0.196139 0.979889
0.995575 0.196567 0.979950
0.000000 0.103792 0.954009
0.142336 0.097719 0.955413
0.322942 0.053742 0.957397
0.501518 0.000000 0.961669
0.668055 0.000000 0.967437
0.811002 0.169833 0.973510
0.913664 0.235294 0.977874
0.993103 0.231754 0.978119
0.000000 0.225376 0.951873
0.065919 0.224613 0.952819
0.297429 0.218112 0.954009
0.493111 0.222019 0.960510
0.661707 0.243717 0.965545
0.804959 0.312200 0.970794
0.909789 0.368109 0.975525
0.989410 0.364874 0.976349
0.000000 0.359319 0.949340
0.000000 0.361883 0.950561
0.243168 0.364935 0.952331
0.464607 0.377752 0.957000
0.647059 0.408118 0.962554
0.796567 0.469337 0.968109
0.905486 0.532341 0.973144
0.984161 0.528191 0.974609
0.000000 0.558343 0.936767
0.000000 0.558923 0.938567
0.245945 0.554192 0.942046
0.376410 0.516320 0.949981
0.602747 0.546502 0.955474
0.774228 0.603906 0.961761
0.898253 0.686854 0.968353
0.975647 0.691371 0.971405
0.000000 0.718746 0.933593
0.000000 0.716426 0.932799
0.173434 0.709773 0.930999
0.350958 0.699275 0.929442
0.560113 0.705074 0.941283
0.745907 0.737270 0.954772
0.894041 0.812406 0.965850
0.970794 0.829740 0.971649
0.179324 0.863981 0.947021
0.219303 0.863005 0.946654
0.321691 0.860075 0.945830
0.451331 0.856748 0.945647
0.590539 0.853269 0.945403
0.728908 0.853300 0.945220
0.883116 0.882719 0.961425
0.967956 0.902525 0.972198
0.412909 0.955444 0.962890
0.431159 0.954742 0.962707
0.494301 0.952636 0.962646
0.593439 0.949310 0.963195
0.705348 0.945068 0.963867
0.811460 0.941466 0.965026
0.901427 0.940673 0.967926
0.971130 0.945739 0.976562
