assets/luts/Portrait.cube
# Created by Adobe Lightroom plugin Export LUT (1.18.0)
# www.johnrellis.com/lightroom/exportlut.htm
# Preset: Portrait Effect 24
# Color profile: /Library/Application Support/Adobe/Color/Profiles/Recommended/AdobeRGB1998.icc
LUT_3D_SIZE 8
DOMAIN_MIN 0.000000 0.000000 0.000000
DOMAIN_MAX 0.903226 0.903226 0.903226
0.129397 0.128420 0.170443
0.233646 0.116579 0.168124
0.471839 0.000000 0.155550
0.694789 0.000000 0.130129
0.860868 0.000000 0.117861
0.986938 0.000000 0.175845
1.000000 0.000000 0.224765
1.000000 0.000000 0.266819
0.128695 0.183383 0.166354
0.235569 0.194217 0.162112
0.464088 0.178164 0.147829
0.682582 0.108980 0.121431
0.850919 0.000000 0.127413
0.974456 0.000000 0.177523
1.000000 0.000000 0.223453
1.000000 0.000000 0.265721
0.129397 0.373419 0.133577
0.251865 0.369818 0.129580
0.466865 0.365728 0.118105
0.687037 0.351049 0.132387
0.857450 0.312902 0.164126
0.975494 0.269505 0.207034
1.000000 0.235630 0.253513
1.000000 0.209720 0.291600
0.184573 0.561608 0.168978
0.280766 0.557641 0.169619
0.470344 0.550408 0.173800
0.704402 0.565148 0.185214
0.874296 0.525414 0.220432
0.980438 0.467720 0.253422
1.000000 0.419013 0.286534
1.000000 0.377722 0.316930
0.242588 0.735042 0.224796
0.315343 0.732784 0.225406
0.482826 0.728054 0.228977
0.677546 0.723323 0.237827
0.853605 0.693812 0.252384
0.965454 0.630793 0.286229
1.000000 0.572839 0.316411
1.000000 0.521813 0.346624
0.292699 0.860807 0.283299
0.348852 0.864897 0.288243
0.484565 0.859220 0.290257
0.651484 0.850278 0.294621
0.825559 0.836332 0.300572
0.960266 0.787930 0.321386
1.000000 0.720333 0.357794
1.000000 0.658381 0.387579
0.341466 0.962341 0.344335
0.380255 0.962066 0.346075
0.486488 0.956146 0.345892
0.628382 0.947906 0.348669
0.781979 0.935515 0.351934
0.940642 0.921813 0.360082
1.000000 0.857023 0.386816
1.000000 0.781888 0.419806
0.389166 1.000000 0.405402
0.415930 1.000000 0.405371
0.498512 1.000000 0.406989
0.617273 1.000000 0.412909
0.744656 1.000000 0.404303
0.885740 0.998993 0.414282
1.000000 0.984405 0.428229
1.000000 0.899351 0.457435
0.094057 0.142000 0.248234
0.213046 0.099458 0.255955
0.449378 0.000000 0.243595
0.670314 0.000000 0.254185
0.843046 0.000000 0.261509
0.964843 0.000000 0.280461
1.000000 0.000000 0.302281
1.000000 0.000000 0.325963
0.064820 0.205112 0.254063
0.221347 0.204379 0.254551
0.447211 0.183963 0.255222
0.667231 0.140322 0.256352
0.840360 0.065492 0.263890
0.959197 0.000000 0.280644
1.000000 0.000000 0.299779
1.000000 0.000000 0.322454
0.066072 0.379644 0.256565
0.241581 0.378454 0.263371
0.455177 0.371313 0.263340
0.669734 0.356115 0.268681
0.839445 0.322606 0.276341
0.958007 0.285740 0.293767
1.000000 0.255100 0.315435
1.000000 0.234226 0.340032
0.154513 0.559075 0.270298
0.269505 0.557488 0.278325
0.463600 0.554192 0.280339
0.678920 0.552148 0.282719
0.842985 0.514092 0.299290
0.955566 0.464485 0.314824
1.000000 0.422065 0.334539
1.000000 0.386755 0.356939
0.231327 0.734859 0.306004
0.305699 0.731411 0.305333
0.473335 0.724086 0.305913
0.662470 0.713771 0.308476
0.835111 0.683925 0.314580
0.950835 0.627558 0.339849
1.000000 0.575219 0.361822
1.000000 0.528222 0.384375
0.286748 0.855039 0.339300
0.339361 0.853819 0.340032
0.474434 0.848814 0.341192
0.641260 0.842008 0.345495
0.815854 0.831083 0.351476
0.953460 0.787350 0.369390
1.000000 0.722774 0.399451
1.000000 0.662959 0.420905
0.337224 0.954559 0.381811
0.373419 0.952148 0.380499
0.479713 0.947570 0.381109
0.622187 0.941711 0.385657
0.776120 0.931609 0.390295
0.933135 0.917937 0.396002
1.000000 0.854917 0.415747
1.000000 0.782467 0.442390
0.390875 1.000000 0.434394
0.418158 1.000000 0.435462
0.499641 1.000000 0.437507
0.617212 1.000000 0.443671
0.748653 1.000000 0.448066
0.885405 0.999878 0.452216
1.000000 0.983978 0.458625
1.000000 0.900847 0.481147
0.000000 0.202426 0.462074
0.015045 0.160250 0.465400
0.421881 0.144930 0.466865
0.656184 0.084840 0.461036
0.837369 0.066316 0.454902
0.955718 0.174655 0.467597
1.000000 0.207584 0.475013
1.000000 0.233890 0.482429
0.000000 0.266361 0.462959
0.142672 0.256291 0.463691
0.422126 0.238346 0.463508
0.651026 0.204471 0.457527
0.830808 0.194980 0.455085
0.950347 0.225925 0.464637
1.000000 0.239445 0.471015
1.000000 0.256596 0.479774
0.000000 0.411231 0.466651
0.184115 0.410559 0.466987
0.429725 0.399878 0.463020
0.656275 0.387976 0.463661
0.832334 0.372992 0.466926
0.949462 0.358343 0.470405
1.000000 0.347448 0.476326
1.000000 0.342535 0.484657
0.000000 0.584436 0.468544
0.212131 0.585809 0.466163
0.447639 0.585077 0.464271
0.672023 0.575830 0.465095
0.834165 0.543328 0.476661
0.947753 0.507225 0.480812
1.000000 0.478553 0.487800
1.000000 0.455390 0.496193
0.163699 0.745998 0.465309
0.264012 0.745418 0.464179
0.461250 0.740261 0.470588
0.656458 0.731899 0.472816
0.830198 0.702968 0.474800
0.941558 0.652796 0.490730
1.000000 0.609705 0.499214
1.000000 0.572869 0.509728
0.266941 0.860838 0.470192
0.332708 0.859556 0.475776
0.474922 0.853880 0.483070
0.634882 0.845579 0.483986
0.803738 0.834287 0.486030
0.940032 0.795377 0.496040
1.000000 0.741848 0.518547
1.000000 0.694392 0.534386
0.364416 0.957153 0.504692
0.398993 0.955230 0.505486
0.494667 0.949676 0.505058
0.625666 0.942382 0.505425
0.771511 0.932189 0.506706
0.923278 0.920500 0.511498
1.000000 0.866972 0.527581
1.000000 0.804685 0.550561
0.435828 1.000000 0.541283
0.452522 1.000000 0.537499
0.522545 1.000000 0.537346
0.632471 1.000000 0.545098
0.753567 1.000000 0.546990
0.882750 0.999725 0.550286
1.000000 0.985412 0.555200
1.000000 0.911528 0.571466
0.000000 0.280583 0.632563
0.000000 0.263066 0.636286
0.361028 0.243473 0.636988
0.627253 0.221592 0.636255
0.815427 0.221378 0.615290
0.936095 0.273503 0.599756
1.000000 0.354253 0.609186
1.000000 0.435523 0.633845
0.000000 0.342473 0.637171
0.000000 0.330663 0.638361
0.371191 0.305241 0.638025
0.630945 0.285313 0.636957
0.813993 0.285374 0.616022
0.932311 0.323888 0.603388
1.000000 0.389044 0.614557
1.000000 0.442298 0.631037
0.000000 0.461158 0.635340
0.049836 0.457984 0.635584
0.383886 0.442512 0.634913
0.635309 0.433814 0.634760
0.810849 0.440436 0.625086
0.929839 0.469795 0.630518
1.000000 0.496345 0.641505
1.000000 0.497749 0.639368
0.000000 0.621942 0.641047
0.126619 0.621607 0.640864
0.408118 0.617823 0.639002
0.643519 0.606317 0.637598
0.806058 0.593805 0.637629
0.923400 0.582147 0.637781
1.000000 0.572717 0.639521
1.000000 0.565576 0.642054
0.063050 0.767910 0.626612
0.221775 0.765011 0.625025
0.441840 0.757778 0.626337
0.648920 0.750179 0.638178
0.813901 0.731411 0.638209
0.924132 0.702174 0.646998
1.000000 0.676387 0.648463
1.000000 0.652583 0.649683
0.249454 0.874388 0.609064
0.326574 0.876310 0.615106
0.492042 0.867185 0.629114
0.650324 0.858244 0.641627
0.798703 0.849058 0.642023
0.926513 0.819760 0.643946
1.000000 0.782467 0.657527
1.000000 0.747921 0.662501
0.359228 0.961242 0.610834
0.409064 0.959655 0.618067
0.538445 0.953185 0.642634
0.653590 0.947356 0.648341
0.779019 0.938994 0.648188
0.912932 0.928283 0.648554
1.000000 0.886076 0.654047
1.000000 0.837430 0.668177
0.466804 1.000000 0.638331
0.501396 1.000000 0.647059
0.596246 1.000000 0.673426
0.663935 1.000000 0.663447
0.766903 1.000000 0.663294
0.880797 0.999542 0.664271
0.999817 0.987335 0.666926
1.000000 0.927916 0.677089
0.000000 0.365515 0.765194
0.000000 0.356390 0.766690
0.274449 0.335424 0.766812
0.567956 0.332067 0.768612
0.791653 0.331792 0.761349
0.917845 0.371466 0.725277
1.000000 0.434852 0.713436
1.000000 0.508537 0.720668
0.000000 0.409064 0.765743
0.000000 0.402411 0.767758
0.295628 0.381262 0.767849
0.572992 0.375891 0.768582
0.790341 0.375708 0.759792
0.916197 0.411261 0.727565
1.000000 0.465553 0.717983
1.000000 0.529747 0.725460
0.000000 0.509636 0.765377
0.000000 0.508629 0.766781
0.345190 0.498543 0.766934
0.586633 0.494057 0.765133
0.785214 0.493904 0.754879
0.907286 0.512993 0.732448
0.998566 0.548058 0.730404
1.000000 0.587854 0.737942
0.000000 0.637232 0.765377
0.012848 0.635798 0.764858
0.383612 0.634302 0.764218
0.613611 0.638300 0.761837
0.783627 0.636378 0.755245
0.901518 0.642206 0.749081
0.991516 0.655848 0.753201
1.000000 0.667384 0.757687
0.000000 0.783047 0.762966
0.169589 0.782040 0.762661
0.417914 0.775448 0.760128
0.628992 0.764187 0.757778
0.783810 0.751858 0.756527
0.898741 0.740322 0.755734
0.989502 0.729854 0.755306
1.000000 0.720119 0.754726
0.208347 0.878141 0.729183
0.288151 0.876219 0.729854
0.460487 0.867735 0.733150
0.636652 0.856870 0.743679
0.774807 0.848783 0.748257
0.903532 0.836637 0.752316
0.989593 0.818235 0.762844
1.000000 0.796780 0.763821
0.342779 0.964691 0.715023
0.390448 0.962249 0.717800
0.517601 0.955169 0.729335
0.663050 0.945830 0.749844
0.774685 0.939208 0.753628
0.894224 0.931273 0.753719
0.990723 0.902770 0.754971
1.000000 0.867521 0.763424
0.440681 1.000000 0.713130
0.474220 1.000000 0.717861
0.570092 1.000000 0.734188
0.695583 1.000000 0.764675
0.775662 1.000000 0.761776
0.875059 0.998749 0.761349
0.981231 0.988464 0.762051
1.000000 0.943908 0.766995
0.000000 0.437751 0.868956
0.000000 0.435340 0.870085
0.224979 0.433783 0.870359
0.514641 0.441810 0.869566
0.727626 0.449531 0.866667
0.898070 0.468238 0.850492
0.991882 0.522148 0.819333
1.000000 0.587488 0.810117
0.000000 0.466987 0.865965
0.000000 0.464057 0.866178
0.251926 0.461891 0.866056
0.520226 0.469154 0.864836
0.727138 0.475868 0.862730
0.894743 0.492988 0.847868
0.989410 0.541772 0.819852
1.000000 0.601068 0.811826
0.000000 0.551965 0.868437
0.000000 0.549981 0.867704
0.321508 0.550622 0.866239
0.557397 0.566217 0.863828
0.738796 0.567864 0.861082
0.892149 0.577905 0.847257
0.985321 0.610315 0.826658
1.000000 0.651667 0.821317
0.000000 0.654597 0.866636
0.045930 0.654170 0.865507
0.378241 0.659480 0.864012
0.599725 0.679683 0.863951
0.760311 0.686397 0.862608
0.892943 0.688106 0.851560
0.981872 0.702754 0.839994
1.000000 0.723629 0.837278
0.000000 0.770596 0.860166
0.175601 0.770687 0.860014
0.408576 0.771969 0.859068
0.608881 0.775998 0.857572
0.764340 0.778347 0.854856
0.884916 0.775265 0.848722
0.973816 0.779477 0.846769
1.000000 0.789883 0.849882
0.170596 0.895842 0.854704
0.267735 0.895598 0.855406
0.449012 0.889158 0.853574
0.624994 0.878813 0.851316
0.767056 0.867582 0.849638
0.884886 0.860075 0.851743
0.973205 0.852811 0.853758
1.000000 0.845121 0.854215
0.335119 0.973693 0.824552
0.385657 0.972442 0.826444
0.511345 0.965881 0.830869
0.651911 0.956634 0.838529
0.778500 0.946685 0.848295
0.880888 0.939300 0.851286
0.975128 0.923949 0.851225
1.000000 0.903716 0.857084
0.422492 1.000000 0.801785
0.455818 1.000000 0.804257
0.551415 1.000000 0.813107
0.671931 1.000000 0.828702
0.788663 1.000000 0.848569
0.872587 0.998566 0.851865
0.963622 0.990723 0.852873
1.000000 0.961913 0.855161
0.000000 0.495888 0.947539
0.000000 0.498390 0.948211
0.228122 0.513725 0.946899
0.507927 0.548363 0.944549
0.683650 0.559655 0.942229
0.843961 0.572473 0.939300
0.971313 0.593256 0.920867
1.000000 0.650690 0.892607
0.000000 0.515221 0.944274
0.000000 0.517266 0.944793
0.245792 0.530816 0.943725
0.515373 0.565606 0.940703
0.684627 0.574426 0.938415
0.841215 0.583886 0.935424
0.967224 0.601221 0.917266
1.000000 0.653620 0.890501
0.000000 0.578271 0.945006
0.000000 0.579797 0.944671
0.301946 0.592096 0.942779
0.555932 0.633661 0.938811
0.703944 0.639124 0.936248
0.846830 0.643793 0.933989
0.966003 0.657191 0.918517
1.000000 0.699916 0.897093
0.000000 0.663355 0.944701
0.000000 0.664149 0.943755
0.338811 0.672999 0.941588
0.571740 0.702510 0.938445
0.731289 0.724819 0.934905
0.856199 0.725795 0.933837
0.964538 0.732479 0.921233
1.000000 0.758785 0.905089
0.000000 0.760494 0.939300
0.095033 0.760769 0.938445
0.364202 0.764767 0.936461
0.563745 0.775204 0.934447
0.735317 0.793698 0.931334
0.857389 0.798398 0.929625
0.958709 0.800046 0.920104
1.000000 0.818845 0.912718
0.108644 0.869841 0.935149
0.223636 0.869932 0.934905
0.409644 0.870298 0.934020
0.586175 0.871672 0.933043
0.736355 0.872801 0.931762
0.864683 0.877287 0.930785
0.957794 0.876829 0.926085
1.000000 0.884245 0.925322
0.266514 0.983368 0.933043
0.325475 0.982483 0.933318
0.464485 0.978058 0.932952
0.615320 0.969268 0.931151
0.752255 0.957885 0.928801
0.868223 0.947417 0.928374
0.956970 0.940642 0.930541
1.000000 0.933715 0.931426
0.379034 1.000000 0.891936
0.415839 1.000000 0.892973
0.522789 1.000000 0.897887
0.647791 1.000000 0.904509
0.770108 1.000000 0.913664
0.876616 1.000000 0.926238
0.951629 0.993072 0.932097
1.000000 0.979126 0.933104
0.000000 0.549432 1.000000
0.000000 0.556451 1.000000
0.301183 0.588403 1.000000
0.572656 0.660975 0.999176
0.695491 0.674159 0.997436
0.814084 0.684871 0.995605
0.929808 0.697719 0.994049
1.000000 0.717220 0.975463
0.000000 0.561730 1.000000
0.000000 0.568231 1.000000
0.305486 0.598535 1.000000
0.570886 0.666316 0.998108
0.698970 0.684382 0.996063
0.814969 0.693690 0.994354
0.928985 0.704463 0.992798
1.000000 0.723110 0.974731
0.000000 0.600092 1.000000
0.000000 0.605432 1.000000
0.307836 0.630457 1.000000
0.572564 0.691676 0.997436
0.717006 0.724331 0.993988
0.822324 0.728817 0.992309
0.929992 0.736355 0.991180
1.000000 0.752102 0.974670
0.000000 0.653468 1.000000
0.000000 0.657527 1.000000
0.267704 0.676722 1.000000
0.554650 0.725002 0.996887
0.741543 0.780423 0.991638
0.834623 0.782315 0.990631
0.932555 0.786099 0.989990
1.000000 0.797787 0.975769
0.000000 0.738003 1.000000
0.000000 0.739284 1.000000
0.208194 0.744259 0.999481
0.471839 0.758175 0.997345
0.713100 0.808621 0.991485
0.843137 0.836637 0.988251
0.933806 0.839689 0.988373
1.000000 0.849546 0.977020
0.000000 0.836301 0.997162
0.000000 0.836484 0.996643
0.266056 0.838560 0.995270
0.491157 0.844602 0.993347
0.672541 0.856168 0.991180
0.841459 0.886656 0.988373
0.939422 0.901793 0.988617
1.000000 0.904601 0.979400
0.000000 0.941405 0.994232
0.116823 0.941131 0.993927
0.346960 0.940368 0.992981
0.536370 0.940368 0.991791
0.701534 0.941680 0.990478
0.837461 0.944884 0.989166
0.941619 0.952544 0.987121
0.999359 0.953948 0.982208
0.226017 1.000000 0.990600
0.283970 1.000000 0.990356
0.423743 1.000000 0.989776
0.581537 1.000000 0.989166
0.727871 1.000000 0.988128
0.851499 1.000000 0.985565
0.945556 0.996765 0.985138
0.996857 0.991669 0.987823
