assets/luts/Portrait.cube
# Created by Adobe Lightroom plugin Export LUT (1.18.0)
# www.johnrellis.com/lightroom/exportlut.htm
# Preset: Portrait Effect 24
# Color profile: /Library/Application Support/Adobe/Color/Profiles/Recommended/AdobeRGB1998.icc
LUT_3D_SIZE 5
DOMAIN_MIN 0.000000 0.000000 0.000000
DOMAIN_MAX 0.903226 0.903226 0.903226
0.129397 0.128420 0.170443
0.415930 0.052430 0.159579
0.787106 0.000000 0.112978
1.000000 0.000000 0.189364
1.000000 0.000000 0.266819
0.127749 0.328985 0.144625
0.413001 0.323644 0.128786
0.777584 0.277592 0.134005
1.000000 0.203372 0.212558
1.000000 0.158602 0.288640
0.213382 0.650629 0.194980
0.430579 0.646448 0.198856
0.791287 0.639612 0.219944
0.994995 0.536706 0.277348
1.000000 0.450874 0.330114
0.307500 0.892271 0.301457
0.448768 0.888701 0.304784
0.731136 0.873014 0.313085
0.982574 0.807919 0.338689
1.000000 0.690089 0.396124
0.389166 1.000000 0.405402
0.473457 1.000000 0.406043
0.676051 1.000000 0.401221
0.921324 0.995758 0.417914
1.000000 0.899351 0.457435
0.000000 0.184787 0.410407
0.369970 0.120241 0.417517
0.754208 0.000000 0.404700
0.979553 0.098695 0.419226
1.000000 0.158816 0.436591
0.000000 0.361730 0.419043
0.378058 0.351202 0.415869
0.754818 0.320867 0.414893
0.976684 0.291020 0.423957
1.000000 0.281651 0.443824
0.128237 0.665003 0.420478
0.405554 0.660365 0.418769
0.758816 0.635981 0.420661
0.970703 0.557305 0.444190
1.000000 0.498421 0.469429
0.306371 0.893828 0.451972
0.451637 0.890074 0.460914
0.723140 0.874876 0.463691
0.970092 0.815824 0.474220
1.000000 0.714717 0.510430
0.426429 1.000000 0.515892
0.499031 1.000000 0.515740
0.689601 1.000000 0.520134
0.917906 0.997284 0.527245
1.000000 0.909819 0.552911
0.000000 0.325780 0.705257
0.221653 0.291325 0.707424
0.719905 0.271672 0.706203
0.952514 0.338964 0.660700
1.000000 0.471931 0.677150
0.000000 0.457679 0.706538
0.283391 0.438819 0.706630
0.720668 0.422919 0.703059
0.944457 0.462989 0.674708
1.000000 0.549737 0.698726
0.000000 0.710170 0.707332
0.341070 0.705287 0.704768
0.720485 0.685603 0.701808
0.934813 0.666926 0.702266
1.000000 0.651575 0.703853
0.268437 0.901579 0.668238
0.446601 0.892699 0.676631
0.719875 0.878599 0.702083
0.940154 0.848325 0.704311
1.000000 0.790433 0.713405
0.450233 1.000000 0.672236
0.556176 1.000000 0.695308
0.721401 1.000000 0.713558
0.904814 0.996002 0.712245
1.000000 0.934844 0.719631
0.000000 0.451026 0.887572
0.000000 0.449317 0.888670
0.610986 0.469306 0.886992
0.917418 0.497627 0.868162
1.000000 0.600641 0.829709
0.000000 0.533043 0.885710
0.211246 0.532677 0.885222
0.631861 0.556207 0.882109
0.911864 0.571832 0.864805
1.000000 0.643091 0.834928
0.000000 0.705928 0.879942
0.315679 0.708278 0.878569
0.673945 0.728878 0.873686
0.901427 0.727657 0.861082
1.000000 0.756954 0.855222
0.213993 0.922454 0.877836
0.410376 0.915282 0.875029
0.695766 0.897795 0.871305
0.905028 0.882078 0.872404
1.000000 0.867155 0.872679
0.414740 1.000000 0.824247
0.519280 1.000000 0.832029
0.729244 1.000000 0.856443
0.896025 0.997375 0.874907
1.000000 0.966064 0.874968
0.000000 0.549432 1.000000
0.205905 0.576318 1.000000
0.636194 0.669276 0.998291
0.843565 0.688136 0.995209
1.000000 0.717220 0.975463
0.000000 0.589349 1.000000
0.227298 0.612268 1.000000
0.659632 0.710170 0.995483
0.847990 0.720607 0.992706
1.000000 0.744442 0.974975
0.000000 0.693080 1.000000
0.000000 0.697444 1.000000
0.638483 0.767086 0.993561
0.859953 0.806729 0.988464
1.000000 0.823392 0.976440
0.000000 0.863310 0.997131
0.228428 0.864530 0.995819
0.597589 0.873716 0.992523
0.870176 0.905211 0.988067
1.000000 0.917052 0.979828
0.226017 1.000000 0.990600
0.385077 1.000000 0.989929
0.657160 1.000000 0.988800
0.878019 1.000000 0.985229
0.996857 0.991669 0.987823
