assets/luts/Portrait.cube
# Created by Adobe Lightroom plugin Export LUT (1.18.0)
# www.johnrellis.com/lightroom/exportlut.htm
# Preset: Portrait Effect 24
# Color profile: /Library/Application Support/Adobe/Color/Profiles/Recommended/AdobeRGB1998.icc
LUT_3D_SIZE 32
DOMAIN_MIN 0.0 0.0 0.0
DOMAIN_MAX 1.0 1.0 1.0
0.129397 0.128420 0.170443
0.129397 0.128420 0.170443
0.129397 0.128420 0.170443
0.157534 0.126040 0.169955
0.233646 0.116579 0.168124
0.299809 0.103182 0.165743
0.359411 0.084565 0.162936
0.415930 0.052430 0.159579
0.471839 0.000000 0.155550
0.528008 0.000000 0.150668
0.585595 0.000000 0.144778
0.642023 0.000000 0.137850
0.694789 0.000000 0.130129
0.743587 0.000000 0.121798
0.787106 0.000000 0.112978
0.826139 0.000000 0.106325
0.860868 0.000000 0.117861
0.896117 0.000000 0.131228
0.930358 0.000000 0.146456
0.960235 0.000000 0.161563
0.986938 0.000000 0.175845
1.000000 0.000000 0.189364
1.000000 0.000000 0.201968
1.000000 0.000000 0.213931
1.000000 0.000000 0.224765
1.000000 0.000000 0.235264
1.000000 0.000000 0.245640
1.000000 0.000000 0.255985
1.000000 0.000000 0.266819
1.000000 0.000000 0.278172
1.000000 0.000000 0.289830
1.000000 0.000000 0.302190
0.129397 0.128420 0.170443
0.129397 0.128420 0.170443
0.129397 0.128420 0.170443
0.159182 0.129824 0.169711
0.233768 0.126772 0.167544
0.299046 0.117433 0.165072
0.358129 0.103029 0.162234
0.414038 0.082795 0.158907
0.469459 0.037140 0.154910
0.525383 0.000000 0.150057
0.582422 0.000000 0.144198
0.638575 0.000000 0.137301
0.691188 0.000000 0.129671
0.739956 0.000000 0.121340
0.783627 0.000000 0.112551
0.822690 0.000000 0.107729
0.857511 0.000000 0.118563
0.892882 0.000000 0.131380
0.926390 0.000000 0.146212
0.956085 0.000000 0.160220
0.982788 0.000000 0.173983
1.000000 0.000000 0.187259
1.000000 0.000000 0.199710
1.000000 0.000000 0.211551
1.000000 0.000000 0.222293
1.000000 0.000000 0.232883
1.000000 0.000000 0.242985
1.000000 0.000000 0.253880
1.000000 0.000000 0.264408
1.000000 0.000000 0.275700
1.000000 0.000000 0.287205
1.000000 0.000000 0.299351
0.129397 0.128420 0.170443
0.129397 0.128420 0.170443
0.129397 0.128420 0.170443
0.161471 0.135378 0.169314
0.234073 0.139071 0.166781
0.298650 0.133516 0.164126
0.356939 0.122774 0.161257
0.412421 0.107362 0.157961
0.467475 0.085969 0.153933
0.523095 0.037995 0.149111
0.579980 0.000000 0.143191
0.636194 0.000000 0.136263
0.688808 0.000000 0.128603
0.737697 0.000000 0.120241
0.781399 0.000000 0.111421
0.820584 0.000000 0.108522
0.855467 0.000000 0.119875
0.891081 0.000000 0.132235
0.924163 0.000000 0.146670
0.953674 0.000000 0.160494
0.980499 0.000000 0.174136
1.000000 0.000000 0.186740
1.000000 0.000000 0.199344
1.000000 0.000000 0.210849
1.000000 0.000000 0.221744
1.000000 0.000000 0.231937
1.000000 0.000000 0.242222
1.000000 0.000000 0.253025
1.000000 0.000000 0.263523
1.000000 0.000000 0.274846
1.000000 0.000000 0.286320
1.000000 0.000000 0.298436
0.129427 0.131502 0.170260
0.131075 0.133700 0.170077
0.135378 0.136141 0.169863
0.167453 0.150240 0.168154
0.237003 0.163790 0.164828
0.299718 0.163088 0.161929
0.357061 0.156039 0.158938
0.412085 0.145480 0.155581
0.466560 0.131655 0.151553
0.521813 0.113008 0.146670
0.578149 0.087068 0.140658
0.634028 0.017334 0.133639
0.686397 0.000000 0.125826
0.735134 0.000000 0.117311
0.778927 0.000000 0.108370
0.817960 0.000000 0.112093
0.852995 0.000000 0.122866
0.889067 0.000000 0.135256
0.921172 0.000000 0.148318
0.950042 0.000000 0.161807
0.976593 0.000000 0.174655
1.000000 0.000000 0.187228
1.000000 0.000000 0.199161
1.000000 0.000000 0.210819
1.000000 0.000000 0.221744
1.000000 0.000000 0.232578
1.000000 0.000000 0.243076
1.000000 0.000000 0.254063
1.000000 0.000000 0.264744
1.000000 0.000000 0.275700
1.000000 0.000000 0.286900
1.000000 0.000000 0.298405
0.128695 0.183383 0.166354
0.139712 0.183780 0.166079
0.154116 0.184146 0.165713
0.182071 0.184451 0.164950
0.235569 0.194217 0.162112
0.299840 0.199680 0.158450
0.356054 0.195285 0.155367
0.410132 0.187930 0.151919
0.464088 0.178164 0.147829
0.518761 0.166506 0.142824
0.574640 0.152102 0.136721
0.630213 0.133608 0.129458
0.682582 0.108980 0.121431
0.731502 0.071656 0.112612
0.775631 0.000000 0.107485
0.815091 0.000000 0.116487
0.850919 0.000000 0.127413
0.887877 0.000000 0.139742
0.919585 0.000000 0.152773
0.948180 0.000000 0.165255
0.974456 0.000000 0.177523
0.998627 0.000000 0.189456
1.000000 0.000000 0.201266
1.000000 0.000000 0.212558
1.000000 0.000000 0.223453
1.000000 0.000000 0.234073
1.000000 0.000000 0.244511
1.000000 0.000000 0.255009
1.000000 0.000000 0.265721
1.000000 0.000000 0.276432
1.000000 0.000000 0.287327
1.000000 0.000000 0.298833
0.127840 0.232731 0.160983
0.142977 0.232670 0.160678
0.161105 0.232303 0.160250
0.194186 0.231540 0.159396
0.236667 0.230045 0.157961
0.296544 0.237125 0.154055
0.357519 0.238285 0.149874
0.410742 0.232273 0.146395
0.464057 0.224613 0.142184
0.518303 0.215915 0.137026
0.573785 0.206332 0.130526
0.629114 0.194217 0.122866
0.681147 0.179110 0.114443
0.730007 0.161044 0.106416
0.773831 0.145296 0.113954
0.813413 0.127474 0.123568
0.851499 0.108003 0.134340
0.887480 0.085573 0.146242
0.918822 0.054505 0.158633
0.947448 0.000000 0.170565
0.973816 0.000000 0.182773
0.998230 0.000000 0.194553
1.000000 0.000000 0.223789
1.000000 0.000000 0.235416
1.000000 0.000000 0.246128
1.000000 0.000000 0.256229
1.000000 0.000000 0.266178
1.000000 0.000000 0.276188
1.000000 0.000000 0.285985
1.000000 0.000000 0.296239
1.000000 0.000000 0.306523
1.000000 0.000000 0.316960
0.127565 0.284855 0.153231
0.145174 0.284428 0.152895
0.165713 0.283909 0.152438
0.202365 0.282872 0.151400
0.247868 0.281041 0.149813
0.297246 0.278416 0.147585
0.359808 0.283421 0.142306
0.420386 0.282963 0.136965
0.473884 0.275975 0.132448
0.528801 0.268925 0.126589
0.585077 0.261387 0.119112
0.640009 0.251835 0.110445
0.691096 0.241672 0.110414
0.738338 0.230869 0.116579
0.780728 0.218570 0.124361
0.818784 0.205478 0.133394
0.859342 0.193729 0.144869
0.894377 0.180911 0.156649
0.925383 0.168185 0.169039
0.954314 0.155367 0.181552
0.981659 0.143954 0.194278
1.000000 0.132876 0.207675
1.000000 0.123445 0.220951
1.000000 0.114931 0.233829
1.000000 0.107637 0.246036
1.000000 0.100587 0.256992
1.000000 0.095583 0.267399
1.000000 0.091981 0.277256
1.000000 0.091188 0.287022
1.000000 0.094453 0.296910
1.000000 0.100435 0.306676
1.000000 0.110079 0.316930
0.127749 0.328985 0.144625
0.145693 0.328649 0.144289
0.166842 0.328038 0.143801
0.204135 0.326787 0.142733
0.250095 0.324956 0.141024
0.299321 0.322484 0.138705
0.350591 0.319402 0.135622
0.413001 0.323644 0.128786
0.473579 0.323125 0.121706
0.527764 0.317021 0.115389
0.583490 0.311467 0.112154
0.637507 0.305303 0.115724
0.688228 0.297612 0.120516
0.735256 0.288304 0.126589
0.777584 0.277592 0.134005
0.819516 0.267185 0.143099
0.858000 0.256535 0.153750
0.891814 0.244968 0.164706
0.922210 0.233707 0.175723
0.950805 0.222721 0.187716
0.977966 0.212711 0.200076
1.000000 0.203372 0.212558
1.000000 0.194888 0.225010
1.000000 0.186954 0.237369
1.000000 0.179782 0.248875
1.000000 0.173373 0.259709
1.000000 0.167269 0.269596
1.000000 0.161807 0.279057
1.000000 0.158602 0.288640
1.000000 0.156893 0.298192
1.000000 0.157778 0.308080
1.000000 0.160525 0.317998
0.129397 0.373419 0.133577
0.147524 0.373053 0.133181
0.168551 0.372595 0.132631
0.205753 0.371435 0.131472
0.251865 0.369818 0.129580
0.301030 0.367376 0.127047
0.352209 0.364721 0.123629
0.404303 0.361517 0.119661
0.466865 0.365728 0.118105
0.528008 0.367132 0.119814
0.583001 0.363165 0.123659
0.636561 0.357855 0.127749
0.687037 0.351049 0.132387
0.733852 0.342260 0.138003
0.778775 0.333440 0.145846
0.820554 0.323827 0.154543
0.857450 0.312902 0.164126
0.890349 0.301579 0.173831
0.920195 0.290135 0.184604
0.948547 0.279454 0.195773
0.975494 0.269505 0.207034
1.000000 0.259953 0.218692
1.000000 0.251347 0.230594
1.000000 0.243290 0.242344
1.000000 0.235630 0.253513
1.000000 0.227970 0.263859
1.000000 0.221134 0.273320
1.000000 0.214878 0.282536
1.000000 0.209720 0.291600
1.000000 0.205814 0.300938
1.000000 0.203769 0.310430
1.000000 0.203128 0.319921
0.135653 0.418006 0.126650
0.152987 0.417578 0.127199
0.173220 0.417029 0.127230
0.210056 0.415930 0.127474
0.255253 0.414282 0.128481
0.303929 0.412116 0.129397
0.354040 0.409613 0.131197
0.405127 0.406775 0.132937
0.457496 0.404730 0.134859
0.519860 0.409735 0.133120
0.582025 0.412482 0.134524
0.634913 0.407904 0.139193
0.685054 0.401526 0.144869
0.734951 0.395178 0.150637
0.780850 0.387121 0.157992
0.821561 0.377142 0.166262
0.858000 0.366033 0.174838
0.890623 0.354376 0.184695
0.920195 0.342931 0.195010
0.947997 0.331701 0.205356
0.974243 0.321141 0.215824
0.998871 0.311070 0.226444
1.000000 0.301396 0.236851
1.000000 0.292302 0.247440
1.000000 0.283543 0.257603
1.000000 0.275303 0.267308
1.000000 0.267308 0.276463
1.000000 0.260319 0.285679
1.000000 0.254246 0.295048
1.000000 0.249271 0.304356
1.000000 0.245670 0.313970
1.000000 0.243412 0.323735
0.150942 0.461158 0.140719
0.166079 0.460883 0.140841
0.184726 0.460517 0.140810
0.218601 0.459693 0.141512
0.261479 0.458381 0.142397
0.308385 0.456886 0.143099
0.357580 0.455055 0.144900
0.407660 0.452979 0.146334
0.458747 0.450690 0.148287
0.512383 0.450080 0.149783
0.574823 0.455604 0.147890
0.635676 0.457954 0.149325
0.688533 0.454078 0.156374
0.737423 0.447456 0.163180
0.781430 0.438483 0.169924
0.820920 0.427832 0.178103
0.856565 0.416052 0.186069
0.888609 0.403967 0.195010
0.917876 0.391699 0.204623
0.945495 0.379950 0.214023
0.971649 0.368933 0.223972
0.996307 0.358282 0.233951
1.000000 0.348241 0.244236
1.000000 0.338506 0.254215
1.000000 0.329168 0.263951
1.000000 0.319951 0.273045
1.000000 0.311223 0.281804
1.000000 0.303166 0.290410
1.000000 0.295811 0.299199
1.000000 0.289403 0.308171
1.000000 0.284215 0.317418
1.000000 0.280430 0.327031
0.167056 0.506432 0.154330
0.180240 0.506279 0.154543
0.197391 0.505943 0.154818
0.228428 0.505211 0.155459
0.269322 0.504326 0.155886
0.314580 0.503044 0.156802
0.362615 0.501732 0.157900
0.412024 0.500175 0.159518
0.462684 0.498482 0.161196
0.513970 0.496620 0.162722
0.570642 0.498970 0.164126
0.634424 0.505760 0.163455
0.718532 0.526390 0.174319
0.765805 0.517601 0.183658
0.807736 0.506249 0.193057
0.845151 0.493172 0.201846
0.878538 0.479194 0.210117
0.908293 0.464790 0.218692
0.935302 0.450599 0.227481
0.960815 0.437140 0.236576
0.984863 0.424292 0.245487
1.000000 0.412299 0.254856
1.000000 0.400549 0.263645
1.000000 0.389502 0.272557
1.000000 0.378790 0.281163
1.000000 0.368627 0.289555
1.000000 0.358831 0.297459
1.000000 0.349584 0.305211
1.000000 0.341100 0.313054
1.000000 0.333471 0.321202
1.000000 0.327031 0.329808
1.000000 0.321508 0.338506
0.184573 0.561608 0.168978
0.196567 0.561395 0.169192
0.212192 0.560632 0.169192
0.241764 0.559411 0.169558
0.280766 0.557641 0.169619
0.324437 0.555627 0.170199
0.371283 0.553735 0.171023
0.419959 0.551904 0.172244
0.470344 0.550408 0.173800
0.525261 0.553216 0.176333
0.582086 0.556146 0.180056
0.642817 0.561059 0.182528
0.704402 0.565148 0.185214
0.760159 0.563409 0.191379
0.803250 0.552758 0.201297
0.840970 0.539879 0.211276
0.874296 0.525414 0.220432
0.903929 0.510307 0.228153
0.930968 0.495399 0.236606
0.956420 0.481147 0.244877
0.980438 0.467720 0.253422
1.000000 0.454749 0.261723
1.000000 0.442420 0.270329
1.000000 0.430549 0.278569
1.000000 0.419013 0.286534
1.000000 0.407965 0.294224
1.000000 0.397375 0.301854
1.000000 0.387304 0.309331
1.000000 0.377722 0.316930
1.000000 0.369207 0.324926
1.000000 0.361517 0.333135
1.000000 0.354925 0.342016
0.198306 0.605219 0.181643
0.209934 0.605005 0.181491
0.223850 0.604364 0.181613
0.251225 0.603265 0.181857
0.287938 0.601526 0.181979
0.330114 0.599695 0.182528
0.376379 0.599207 0.183688
0.425391 0.599756 0.185275
0.476417 0.600458 0.187289
0.529198 0.601678 0.189578
0.583673 0.603235 0.192691
0.639612 0.604974 0.196109
0.697078 0.607050 0.198856
0.751156 0.605097 0.202365
0.799313 0.598505 0.209598
0.837003 0.585046 0.219028
0.869902 0.569909 0.228489
0.899321 0.554314 0.237613
0.926482 0.538750 0.245518
0.952056 0.523857 0.253300
0.976257 0.509758 0.261509
0.998932 0.496376 0.269657
1.000000 0.483284 0.277684
1.000000 0.470741 0.285466
1.000000 0.458595 0.293156
1.000000 0.446784 0.300572
1.000000 0.435309 0.307713
1.000000 0.424445 0.314855
1.000000 0.414160 0.322210
1.000000 0.404700 0.330114
1.000000 0.396155 0.338445
1.000000 0.388464 0.347082
0.213382 0.650629 0.194980
0.223575 0.650752 0.195377
0.236454 0.650385 0.195315
0.262608 0.649928 0.195438
0.297887 0.649073 0.196048
0.338842 0.648005 0.196445
0.383368 0.647150 0.197665
0.430579 0.646448 0.198856
0.479744 0.646235 0.200565
0.530877 0.646540 0.202731
0.583307 0.647242 0.205264
0.637079 0.648066 0.208499
0.691402 0.648493 0.211795
0.743923 0.646479 0.215152
0.791287 0.639612 0.219944
0.833036 0.629145 0.226902
0.866392 0.613733 0.236454
0.895567 0.597314 0.245365
0.922545 0.581201 0.254154
0.948089 0.565698 0.262211
0.972259 0.550866 0.269749
0.994995 0.536706 0.277348
1.000000 0.523003 0.284733
1.000000 0.509789 0.292485
1.000000 0.496986 0.299962
1.000000 0.484657 0.307164
1.000000 0.472755 0.314549
1.000000 0.461555 0.322240
1.000000 0.450874 0.330114
1.000000 0.440986 0.338445
1.000000 0.431922 0.347326
1.000000 0.423713 0.356695
0.228641 0.696529 0.210178
0.238254 0.696681 0.210544
0.249973 0.696437 0.210544
0.274266 0.695888 0.210910
0.307683 0.694972 0.211246
0.347173 0.693965 0.211704
0.390021 0.693050 0.212497
0.435828 0.692287 0.213840
0.483742 0.691615 0.215518
0.532891 0.691035 0.217441
0.583307 0.690333 0.219608
0.634394 0.689509 0.222232
0.685603 0.688136 0.224979
0.736904 0.686000 0.227665
0.783017 0.678981 0.231357
0.824216 0.668147 0.235935
0.861143 0.655177 0.243076
0.891539 0.639063 0.252323
0.918914 0.622553 0.261723
0.944884 0.606867 0.270756
0.969421 0.591852 0.279118
0.992493 0.577264 0.286839
1.000000 0.563043 0.294347
1.000000 0.549248 0.301640
1.000000 0.535882 0.309026
1.000000 0.522972 0.316533
1.000000 0.510430 0.323644
1.000000 0.498543 0.331212
1.000000 0.487221 0.339178
1.000000 0.476356 0.347021
1.000000 0.466224 0.355505
1.000000 0.456794 0.364233
0.242588 0.735042 0.224796
0.250858 0.734859 0.224613
0.261814 0.734463 0.225162
0.284154 0.733791 0.225101
0.315343 0.732784 0.225406
0.352270 0.731563 0.226017
0.393194 0.730404 0.226719
0.436988 0.729152 0.227787
0.482826 0.728054 0.228977
0.530144 0.727016 0.230808
0.578698 0.725978 0.232914
0.627955 0.724819 0.235264
0.677546 0.723323 0.237827
0.727138 0.721065 0.240391
0.776303 0.717861 0.242863
0.816953 0.707088 0.247135
0.853605 0.693812 0.252384
0.886778 0.679225 0.259281
0.915099 0.662806 0.268376
0.940948 0.646448 0.277501
0.965454 0.630793 0.286229
0.988525 0.615686 0.294377
1.000000 0.600977 0.301854
1.000000 0.586725 0.309239
1.000000 0.572839 0.316411
1.000000 0.559380 0.323766
1.000000 0.546349 0.331121
1.000000 0.533867 0.338781
1.000000 0.521813 0.346624
1.000000 0.510430 0.354833
1.000000 0.499519 0.363226
1.000000 0.489387 0.372259
0.255924 0.770321 0.239963
0.264134 0.770565 0.240238
0.281804 0.787015 0.249454
0.302525 0.786221 0.249454
0.331731 0.784970 0.249729
0.366552 0.783291 0.249973
0.405707 0.781338 0.250431
0.447639 0.779294 0.250858
0.491951 0.777340 0.252018
0.537774 0.775448 0.253452
0.584649 0.773465 0.255039
0.632166 0.771267 0.256931
0.679957 0.768460 0.258946
0.727840 0.765164 0.260899
0.775265 0.761196 0.262760
0.821683 0.755978 0.264408
0.857053 0.741115 0.269413
0.889036 0.724971 0.274693
0.918120 0.708156 0.281254
0.943755 0.690761 0.290043
0.967315 0.673671 0.298436
0.989654 0.657374 0.306737
1.000000 0.641718 0.314580
1.000000 0.626490 0.321752
1.000000 0.611383 0.328191
1.000000 0.596765 0.334417
1.000000 0.582544 0.340734
1.000000 0.568933 0.347265
1.000000 0.555993 0.354345
1.000000 0.543694 0.362371
1.000000 0.532006 0.370764
1.000000 0.520958 0.379553
0.271122 0.806607 0.257237
0.278904 0.808560 0.258488
0.289372 0.810422 0.259861
0.309117 0.811673 0.261295
0.336675 0.812009 0.262272
0.369848 0.811215 0.263188
0.406806 0.809689 0.263493
0.446662 0.807767 0.264073
0.488960 0.805875 0.265049
0.532586 0.803891 0.266239
0.577691 0.801877 0.267552
0.623438 0.799649 0.269261
0.669551 0.796841 0.271092
0.715663 0.793545 0.272557
0.761624 0.789670 0.274083
0.807279 0.785122 0.275547
0.850523 0.778225 0.277470
0.882536 0.761959 0.282506
0.911894 0.745022 0.288334
0.938781 0.727871 0.295232
0.962982 0.710658 0.304082
0.985595 0.694057 0.312871
1.000000 0.678004 0.321019
1.000000 0.662409 0.328923
1.000000 0.647028 0.336095
1.000000 0.631952 0.342321
1.000000 0.617243 0.348547
1.000000 0.603113 0.355352
1.000000 0.589563 0.362554
1.000000 0.576562 0.370428
1.000000 0.564080 0.378729
1.000000 0.552209 0.387518
0.282109 0.834409 0.270207
0.289616 0.836088 0.271824
0.298924 0.837736 0.273075
0.316960 0.838773 0.274235
0.342687 0.839048 0.275273
0.373571 0.838315 0.275975
0.408484 0.836851 0.276555
0.446265 0.835080 0.276951
0.486458 0.833249 0.277684
0.528435 0.831327 0.278660
0.571710 0.829343 0.280186
0.615839 0.827176 0.281682
0.660334 0.824399 0.283116
0.705013 0.821256 0.284642
0.749660 0.817472 0.285954
0.794003 0.813199 0.287175
0.838193 0.808438 0.288121
0.878325 0.799893 0.290654
0.907652 0.782589 0.296239
0.934691 0.765042 0.302373
0.959380 0.747524 0.309789
0.982116 0.730404 0.319005
1.000000 0.713985 0.327764
1.000000 0.697902 0.335973
1.000000 0.682063 0.343450
1.000000 0.666529 0.350469
1.000000 0.651270 0.356634
1.000000 0.636500 0.363134
1.000000 0.622278 0.370275
1.000000 0.608576 0.377935
1.000000 0.595300 0.386053
1.000000 0.582635 0.394629
0.292699 0.860807 0.283299
0.299443 0.862333 0.284611
0.308263 0.863767 0.285924
0.325017 0.864714 0.287114
0.348852 0.864897 0.288243
0.377691 0.864164 0.288762
0.410437 0.862760 0.289097
0.446174 0.861082 0.289555
0.484565 0.859220 0.290257
0.524681 0.857206 0.291112
0.566094 0.855192 0.292058
0.608545 0.852934 0.293370
0.651484 0.850278 0.294621
0.694789 0.847257 0.296025
0.738308 0.843870 0.297551
0.781857 0.840177 0.298863
0.825559 0.836332 0.300572
0.869383 0.832395 0.302434
0.907256 0.822965 0.306401
0.934936 0.805509 0.313725
0.960266 0.787930 0.321386
0.983276 0.770291 0.330083
1.000000 0.753017 0.340185
1.000000 0.736568 0.349340
1.000000 0.720333 0.357794
1.000000 0.704372 0.365637
1.000000 0.688655 0.373205
1.000000 0.673304 0.380377
1.000000 0.658381 0.387579
1.000000 0.643915 0.395331
1.000000 0.629969 0.403723
1.000000 0.616724 0.412451
0.307500 0.892271 0.301457
0.313268 0.892851 0.302098
0.320470 0.893217 0.302708
0.335393 0.893156 0.303197
0.357122 0.892638 0.303593
0.383978 0.891569 0.304021
0.414771 0.890227 0.304204
0.448768 0.888701 0.304784
0.485389 0.887144 0.305486
0.524071 0.885527 0.306493
0.564141 0.883787 0.307866
0.605371 0.881743 0.309239
0.646998 0.879240 0.310491
0.688960 0.876341 0.311803
0.731136 0.873014 0.313085
0.773587 0.869413 0.314366
0.816037 0.865568 0.315801
0.858671 0.861601 0.317235
0.901366 0.857511 0.319219
0.935485 0.845640 0.323796
0.960143 0.826780 0.331182
0.982574 0.807919 0.338689
1.000000 0.789120 0.346929
1.000000 0.770932 0.356420
1.000000 0.754025 0.364874
1.000000 0.737484 0.372839
1.000000 0.721279 0.380560
1.000000 0.705501 0.388312
1.000000 0.690089 0.396124
1.000000 0.674952 0.403723
1.000000 0.660517 0.411841
1.000000 0.646845 0.420417
0.317754 0.915709 0.314305
0.323125 0.916228 0.315038
0.329839 0.916655 0.315587
0.343786 0.916625 0.316197
0.363806 0.916106 0.316716
0.388800 0.915038 0.316838
0.417609 0.913664 0.316899
0.449561 0.912047 0.317144
0.484474 0.910399 0.317876
0.521324 0.908721 0.318639
0.559747 0.906950 0.319799
0.599237 0.904936 0.321080
0.639399 0.902586 0.322210
0.680201 0.899901 0.323674
0.721218 0.896880 0.324804
0.762600 0.893614 0.326116
0.804105 0.890166 0.327611
0.845792 0.886564 0.329381
0.887602 0.882902 0.331518
0.929534 0.879118 0.333928
0.960143 0.865232 0.339879
0.982574 0.845762 0.347845
1.000000 0.826413 0.356115
1.000000 0.807156 0.364569
1.000000 0.786130 0.369726
1.000000 0.769070 0.377783
1.000000 0.752438 0.385840
1.000000 0.736141 0.393622
1.000000 0.720241 0.401587
1.000000 0.704860 0.409918
1.000000 0.690089 0.418006
1.000000 0.676204 0.426795
0.332097 0.942473 0.332433
0.337041 0.943053 0.333349
0.343328 0.943267 0.333867
0.355810 0.942962 0.334112
0.374029 0.942168 0.334051
0.396918 0.940887 0.333898
0.423621 0.939300 0.333715
0.453590 0.937407 0.333440
0.486397 0.935302 0.333349
0.521141 0.933165 0.333501
0.557488 0.930816 0.333898
0.594995 0.928435 0.334569
0.633478 0.925780 0.335210
0.672511 0.922820 0.335882
0.711818 0.919402 0.336431
0.751461 0.915740 0.337011
0.791318 0.911925 0.337713
0.831510 0.908141 0.338933
0.872160 0.904540 0.340612
0.913115 0.901061 0.342931
0.954223 0.897581 0.345892
0.981048 0.881559 0.352911
1.000000 0.861357 0.361212
1.000000 0.841123 0.369146
1.000000 0.821073 0.376898
1.000000 0.801572 0.385748
1.000000 0.784207 0.393591
1.000000 0.767208 0.401160
1.000000 0.750698 0.408881
1.000000 0.734768 0.416876
1.000000 0.719753 0.425422
1.000000 0.705531 0.434485
0.341466 0.962341 0.344335
0.346014 0.962860 0.345281
0.351843 0.963073 0.345708
0.363317 0.962799 0.346075
0.380255 0.962066 0.346075
0.401678 0.960937 0.346014
0.426947 0.959564 0.345922
0.455360 0.957916 0.345830
0.486488 0.956146 0.345892
0.519860 0.954284 0.346349
0.554681 0.952300 0.346838
0.591119 0.950225 0.347753
0.628382 0.947906 0.348669
0.666194 0.945281 0.349462
0.704433 0.942290 0.350317
0.743038 0.938994 0.350927
0.781979 0.935515 0.351934
0.821195 0.932006 0.353155
0.860746 0.928588 0.354925
0.900633 0.925231 0.357244
0.940642 0.921813 0.360082
0.980621 0.918212 0.363043
1.000000 0.899260 0.370733
1.000000 0.878050 0.378820
1.000000 0.857023 0.386816
1.000000 0.836362 0.394537
1.000000 0.816403 0.403662
1.000000 0.798886 0.411719
1.000000 0.781888 0.419806
1.000000 0.765469 0.428077
1.000000 0.750027 0.436896
1.000000 0.735409 0.446357
0.352300 0.982544 0.358434
0.356634 0.982818 0.359106
0.361639 0.982818 0.359319
0.372137 0.982361 0.359442
0.387457 0.981506 0.359136
0.407172 0.980346 0.358770
0.430671 0.978912 0.358373
0.457404 0.977295 0.358160
0.487068 0.975586 0.358221
0.518639 0.973877 0.358556
0.552148 0.971984 0.359075
0.587091 0.970123 0.360082
0.623041 0.967987 0.360998
0.659693 0.965576 0.362036
0.696651 0.962768 0.362737
0.734066 0.959655 0.363439
0.771817 0.956329 0.364202
0.809873 0.952941 0.365393
0.848356 0.949615 0.366979
0.887053 0.946288 0.369116
0.925963 0.942962 0.371679
0.964874 0.939483 0.374640
1.000000 0.935698 0.377539
1.000000 0.913909 0.385901
1.000000 0.891875 0.394018
1.000000 0.870207 0.401923
1.000000 0.849058 0.409766
1.000000 0.828855 0.418860
1.000000 0.811124 0.427070
1.000000 0.794247 0.435462
1.000000 0.778286 0.444007
1.000000 0.763180 0.453407
0.361730 1.000000 0.370581
0.365423 1.000000 0.371069
0.370245 1.000000 0.371313
0.379736 0.999878 0.371313
0.394354 0.999268 0.371374
0.413214 0.998535 0.371679
0.435920 0.997833 0.372290
0.461982 0.997040 0.373449
0.490852 0.996277 0.374975
0.521843 0.995422 0.376837
0.554620 0.994446 0.379034
0.588678 0.993256 0.381170
0.623651 0.991760 0.383368
0.659297 0.989868 0.385229
0.695369 0.987549 0.386877
0.731563 0.984741 0.387854
0.768154 0.981628 0.388922
0.804959 0.978393 0.390082
0.842191 0.975097 0.391974
0.879667 0.971771 0.394049
0.917205 0.968353 0.396674
0.954833 0.964782 0.399512
0.992248 0.960906 0.402228
1.000000 0.955108 0.405493
1.000000 0.931426 0.414038
1.000000 0.908171 0.422156
1.000000 0.885527 0.430060
1.000000 0.863798 0.437842
1.000000 0.843412 0.447089
1.000000 0.825498 0.455726
1.000000 0.808957 0.464576
1.000000 0.792905 0.474037
0.379187 1.000000 0.392432
0.382483 1.000000 0.392737
0.386603 1.000000 0.392920
0.395087 1.000000 0.392554
0.408118 1.000000 0.392370
0.425055 1.000000 0.392157
0.445716 1.000000 0.392218
0.469337 1.000000 0.392432
0.495857 1.000000 0.393042
0.524681 1.000000 0.394079
0.555077 1.000000 0.395117
0.587030 1.000000 0.396338
0.620050 1.000000 0.397681
0.653895 1.000000 0.398962
