assets/luts/Purple.cube
# Created by Adobe Lightroom plugin Export LUT (1.18.0)
# www.johnrellis.com/lightroom/exportlut.htm
# Preset: Orange/Yellows/Blues
# Color profile: /Library/Application Support/Adobe/Color/Profiles/Recommended/AdobeRGB1998.icc
LUT_3D_SIZE 8
DOMAIN_MIN 0.000000 0.000000 0.000000
DOMAIN_MAX 0.903226 0.903226 0.903226
0.121706 0.121706 0.121706
0.143557 0.118502 0.121309
0.204318 0.116182 0.119020
0.287999 0.109895 0.118807
0.401251 0.102174 0.125521
0.541314 0.068421 0.126925
0.725216 0.000000 0.117983
0.901579 0.000000 0.102571
0.117678 0.146426 0.120089
0.147433 0.147097 0.118532
0.211582 0.140841 0.116396
0.300847 0.141024 0.122164
0.418830 0.137026 0.126833
0.565240 0.120394 0.126497
0.744717 0.075593 0.116640
0.911498 0.000000 0.102022
0.112306 0.206973 0.124178
0.139132 0.207889 0.121614
0.216098 0.215061 0.122103
0.303410 0.214633 0.127474
0.421729 0.221134 0.129610
0.564416 0.224186 0.126223
0.728817 0.222232 0.112825
0.900481 0.218204 0.092592
0.108156 0.295720 0.142489
0.127535 0.299626 0.130190
0.214908 0.302312 0.131197
0.320500 0.318730 0.122866
0.435096 0.325414 0.123476
0.555230 0.328405 0.123812
0.733700 0.349981 0.102724
0.906249 0.361578 0.075624
0.057649 0.424628 0.158236
0.071931 0.427893 0.129641
0.208347 0.429603 0.128664
0.328740 0.435431 0.125216
0.485267 0.482277 0.095766
0.652155 0.510857 0.068330
0.771878 0.498665 0.072419
0.914885 0.501732 0.022309
0.000000 0.583734 0.165133
0.000000 0.577295 0.128847
0.174807 0.581445 0.103731
0.334051 0.585565 0.099153
0.491432 0.619806 0.070100
0.680476 0.676204 0.000000
0.847868 0.692500 0.000000
0.943786 0.657404 0.000000
0.000000 0.759579 0.148379
0.000000 0.759487 0.091524
0.068666 0.765072 0.000000
0.328893 0.768582 0.000000
0.499641 0.774014 0.000000
0.670405 0.810300 0.000000
0.847562 0.842344 0.000000
0.985962 0.833890 0.000000
0.000000 0.917357 0.088594
0.000000 0.918883 0.000000
0.000000 0.919371 0.000000
0.301915 0.916991 0.000000
0.492348 0.925292 0.000000
0.652155 0.926268 0.000000
0.803159 0.937926 0.000000
0.952117 0.946593 0.007752
0.110872 0.124300 0.162814
0.149874 0.114382 0.162325
0.214542 0.119753 0.162814
0.305394 0.110689 0.169406
0.426612 0.061707 0.167453
0.577691 0.000000 0.167636
0.755825 0.000000 0.162234
0.920256 0.000000 0.155550
0.108309 0.153994 0.164370
0.146120 0.148440 0.163912
0.215763 0.145876 0.165805
0.310643 0.135164 0.166690
0.433997 0.116609 0.168673
0.588556 0.066316 0.168338
0.769162 0.000000 0.163119
0.929595 0.000000 0.157534
0.117647 0.213169 0.170230
0.145998 0.212741 0.171389
0.217868 0.216800 0.163638
0.312016 0.216159 0.168124
0.440253 0.218723 0.169711
0.591455 0.215213 0.167178
0.764157 0.207858 0.159030
0.922545 0.200992 0.150942
0.108766 0.309087 0.188785
0.136202 0.310124 0.184512
0.213870 0.312200 0.168917
0.335271 0.333227 0.160678
0.460029 0.338323 0.164920
0.595941 0.342412 0.163912
0.770291 0.355749 0.153017
0.926909 0.360204 0.144594
0.059541 0.430976 0.207279
0.101747 0.434516 0.197848
0.197452 0.440284 0.166842
0.333104 0.447211 0.165652
0.503471 0.500145 0.145144
0.668025 0.519005 0.137911
0.783871 0.501152 0.140871
0.927367 0.503624 0.132479
0.000000 0.596063 0.223758
0.000000 0.597253 0.210147
0.146944 0.602472 0.150484
0.332891 0.603174 0.148165
0.495308 0.629023 0.136721
0.686000 0.681544 0.095247
0.852018 0.693446 0.087526
0.948699 0.658656 0.121736
0.000000 0.774807 0.227787
0.000000 0.778347 0.208377
0.000000 0.783383 0.110658
0.321324 0.782406 0.106569
0.499519 0.783505 0.101747
0.674250 0.817075 0.092836
0.855406 0.850095 0.094484
0.991302 0.838529 0.154421
0.000000 0.923339 0.208713
0.000000 0.923827 0.172610
0.000000 0.925261 0.009888
0.291752 0.922057 0.000000
0.482948 0.920623 0.000000
0.648157 0.923919 0.028870
0.803677 0.939086 0.108888
0.954223 0.948699 0.165530
0.051423 0.120455 0.264347
0.120089 0.113497 0.261601
0.221958 0.114717 0.256046
0.304753 0.111879 0.257572
0.423804 0.071046 0.274876
0.574853 0.000000 0.290959
0.752193 0.000000 0.283848
0.917967 0.000000 0.266270
0.092378 0.168978 0.265385
0.113985 0.148257 0.264927
0.221988 0.144015 0.259525
0.311192 0.138582 0.264012
0.434180 0.109071 0.279911
0.586145 0.000000 0.290166
0.762875 0.000000 0.279271
0.922972 0.000000 0.268894
0.092317 0.237980 0.266636
0.126406 0.235111 0.266239
0.203281 0.212222 0.264439
0.312566 0.209049 0.265934
0.437171 0.193576 0.272068
0.591394 0.148409 0.269780
0.766629 0.096712 0.268345
0.924895 0.095613 0.268650
0.094575 0.308568 0.275792
0.127901 0.307866 0.276066
0.207645 0.310613 0.275395
0.321111 0.318791 0.260990
0.439338 0.312810 0.266606
0.594354 0.314519 0.267765
0.767758 0.317815 0.265690
0.925139 0.325658 0.266361
0.000000 0.435096 0.305943
0.083009 0.435889 0.304479
0.192721 0.439002 0.295109
0.311101 0.441108 0.268009
0.482429 0.478920 0.262455
0.637659 0.483772 0.268223
0.776699 0.479744 0.265263
0.928130 0.487709 0.265537
0.000000 0.598657 0.338659
0.000000 0.599420 0.334722
0.147768 0.604791 0.315801
0.298009 0.611810 0.266819
0.480262 0.623224 0.266667
0.684932 0.680201 0.259831
0.844297 0.679835 0.267796
0.939818 0.644923 0.268650
0.000000 0.773007 0.356146
0.000000 0.775296 0.350134
0.000000 0.781582 0.323186
0.273350 0.787808 0.257267
0.482124 0.789334 0.258061
0.665003 0.812924 0.265721
0.850370 0.845060 0.280186
0.981292 0.828977 0.311620
0.000000 0.923949 0.349981
0.000000 0.925353 0.342168
0.000000 0.926665 0.321172
0.250004 0.925078 0.242161
0.466926 0.923644 0.244480
0.640589 0.921355 0.248142
0.800809 0.936919 0.282719
0.952148 0.946807 0.324804
0.000000 0.121462 0.432898
0.000000 0.119020 0.424506
0.214267 0.105898 0.413306
0.336339 0.080964 0.399634
0.437995 0.020233 0.399908
0.593256 0.000000 0.432715
0.769192 0.000000 0.453071
0.927184 0.000000 0.441444
0.000000 0.174777 0.422736
0.000000 0.150729 0.420233
0.202853 0.138216 0.412726
0.333318 0.118959 0.399298
0.440253 0.096559 0.402899
0.598413 0.000000 0.435737
0.774502 0.000000 0.453468
0.929839 0.000000 0.438392
0.000000 0.294713 0.436530
0.000000 0.280156 0.433082
0.146334 0.215793 0.426276
0.328923 0.204349 0.409796
0.443061 0.195224 0.408240
0.594507 0.154849 0.429847
0.762814 0.000000 0.434699
0.924376 0.000000 0.422126
0.000000 0.374395 0.429572
0.000000 0.373297 0.430823
0.158999 0.366247 0.432471
0.296300 0.315618 0.422004
0.447944 0.310613 0.415869
0.607507 0.294743 0.427527
0.778286 0.274113 0.423835
0.927520 0.292546 0.421942
0.000000 0.443763 0.417426
0.000000 0.446143 0.420233
0.176272 0.449592 0.425360
0.306249 0.444434 0.423835
0.453651 0.449653 0.413062
0.608789 0.447395 0.416144
0.778988 0.457191 0.418128
0.927703 0.473823 0.423713
0.000000 0.595666 0.471656
0.000000 0.590600 0.465949
0.107912 0.598047 0.464179
0.287297 0.604456 0.449805
0.445624 0.610468 0.416083
0.662593 0.657679 0.426307
0.812741 0.646845 0.433295
0.925322 0.628779 0.422675
0.000000 0.775875 0.505455
0.000000 0.775845 0.501518
0.000000 0.777615 0.487495
0.268070 0.780606 0.458412
0.447028 0.785397 0.418158
0.643488 0.795071 0.427436
0.843046 0.837980 0.465614
0.966461 0.821836 0.494606
0.000000 0.921843 0.502617
0.000000 0.921813 0.497108
0.000000 0.923369 0.477607
0.282567 0.923491 0.454444
0.453559 0.925017 0.419837
0.634241 0.921904 0.424323
0.799741 0.932433 0.459327
0.949248 0.944518 0.509758
0.000000 0.129000 0.635126
0.000000 0.122255 0.629114
0.144686 0.093812 0.620203
0.346715 0.000000 0.600366
0.484596 0.000000 0.582300
0.605432 0.000000 0.583062
0.776364 0.000000 0.614496
0.927184 0.000000 0.610925
0.000000 0.179080 0.632258
0.000000 0.154849 0.624720
0.108888 0.133181 0.616663
0.339544 0.084474 0.603326
0.484077 0.000000 0.584771
0.606744 0.000000 0.585077
0.777249 0.000000 0.614160
0.928069 0.000000 0.609064
0.000000 0.322423 0.634882
0.000000 0.300999 0.632166
0.000000 0.222110 0.630091
0.311742 0.199588 0.616205
0.482643 0.169650 0.593133
0.617273 0.140536 0.597559
0.785031 0.000000 0.616297
0.933623 0.000000 0.603998
0.000000 0.473518 0.655451
0.000000 0.469520 0.656367
0.000000 0.427192 0.646052
0.233036 0.327428 0.630335
0.466804 0.308843 0.604028
0.619654 0.295995 0.601984
0.788266 0.269993 0.607843
0.934630 0.258549 0.584710
0.000000 0.556237 0.642420
0.000000 0.554131 0.642145
0.000000 0.548180 0.642847
0.262638 0.535241 0.642084
0.433051 0.462684 0.624201
0.626825 0.452369 0.604791
0.793179 0.457954 0.600458
0.929839 0.495460 0.600763
0.000000 0.642267 0.628840
0.000000 0.642634 0.629664
0.000000 0.645472 0.633814
0.286809 0.644678 0.633936
0.463722 0.637354 0.622461
0.639948 0.635065 0.609766
0.787472 0.631952 0.602747
0.923644 0.648310 0.606744
0.000000 0.785763 0.672023
0.000000 0.786923 0.672419
0.000000 0.790494 0.667659
0.248325 0.792935 0.651698
0.454932 0.793668 0.622461
0.639826 0.792721 0.608331
0.837034 0.832822 0.648554
0.946563 0.818753 0.659144
0.000000 0.930327 0.671992
0.000000 0.930907 0.669368
0.000000 0.932158 0.658686
0.252354 0.928313 0.630243
0.480110 0.926116 0.611505
0.649989 0.923278 0.610437
0.804837 0.926635 0.629572
0.948363 0.944671 0.687251
0.000000 0.135470 0.793637
0.000000 0.128389 0.791806
0.000000 0.097932 0.790768
0.296666 0.000000 0.782467
0.483162 0.000000 0.769314
0.629938 0.000000 0.757168
0.779751 0.000000 0.775326
0.923766 0.000000 0.772580
0.000000 0.174655 0.804562
0.000000 0.161563 0.803830
0.000000 0.138735 0.800107
0.286992 0.080995 0.791012
0.482002 0.000000 0.776181
0.631952 0.000000 0.761563
0.782864 0.000000 0.778592
0.925719 0.000000 0.773129
0.000000 0.324315 0.802823
0.000000 0.303685 0.803647
0.000000 0.230961 0.802609
0.236881 0.206760 0.793881
0.465248 0.167910 0.780270
0.627680 0.106111 0.762814
0.784115 0.000000 0.780026
0.927031 0.000000 0.769345
0.000000 0.486213 0.811337
0.000000 0.478004 0.811368
0.000000 0.438941 0.807614
0.081605 0.336217 0.798062
0.431128 0.314153 0.781308
0.615747 0.286046 0.758877
0.782071 0.259617 0.775601
0.926543 0.252415 0.757595
0.000000 0.620325 0.821958
0.000000 0.618769 0.822080
0.000000 0.613825 0.822629
0.260410 0.576623 0.813993
0.401678 0.482887 0.801938
0.618189 0.461616 0.777768
0.794217 0.450446 0.778195
0.931029 0.464393 0.749294
0.000000 0.709377 0.813809
0.000000 0.707271 0.812406
0.000000 0.705013 0.812497
0.274510 0.702937 0.812589
0.480385 0.705074 0.812619
0.626184 0.650019 0.792050
0.793362 0.633448 0.765042
0.922667 0.659266 0.751095
0.000000 0.804654 0.805417
0.000000 0.803799 0.804501
0.000000 0.804715 0.804929
0.275486 0.805478 0.802945
0.474861 0.804593 0.795041
0.643519 0.801144 0.780575
0.809781 0.806394 0.777829
0.917998 0.805356 0.771328
0.000000 0.936492 0.829160
0.000000 0.936675 0.828702
0.000000 0.936156 0.825742
0.264958 0.932250 0.815915
0.479225 0.929839 0.791226
0.663386 0.924437 0.767636
0.809842 0.918822 0.771420
0.945251 0.942687 0.818753
0.000000 0.148623 0.924681
0.000000 0.143252 0.924376
0.000000 0.121218 0.922332
0.185183 0.055756 0.917876
0.431128 0.000000 0.912078
0.606134 0.000000 0.903105
0.751431 0.000000 0.896147
0.909758 0.000000 0.919860
0.000000 0.177615 0.924437
0.000000 0.173281 0.924132
0.000000 0.156435 0.922148
0.165896 0.119051 0.918181
0.425452 0.000000 0.911803
0.602716 0.000000 0.902220
0.749538 0.000000 0.894652
0.908629 0.000000 0.918242
0.000000 0.321813 0.925841
0.000000 0.302617 0.925750
0.000000 0.247135 0.924681
0.070100 0.229801 0.920562
0.408942 0.201389 0.913787
0.595636 0.155001 0.904112
0.749020 0.082551 0.895567
0.911437 0.000000 0.918944
0.000000 0.494636 0.926116
0.000000 0.483711 0.926238
0.000000 0.440162 0.925719
0.000000 0.362737 0.924437
0.388861 0.348516 0.917510
0.588403 0.327611 0.907744
0.750454 0.301366 0.896666
0.916167 0.282872 0.917967
0.000000 0.634974 0.929198
0.000000 0.631342 0.928527
0.041108 0.619562 0.926421
0.334295 0.599145 0.922515
0.389044 0.509514 0.920562
0.590784 0.495216 0.909941
0.755856 0.471962 0.894713
0.921599 0.474464 0.912749
0.000000 0.733364 0.926390
0.000000 0.733791 0.926421
0.129397 0.736324 0.926482
0.370306 0.744167 0.926513
0.543359 0.737819 0.922057
0.630671 0.679164 0.914641
0.773953 0.657038 0.897826
0.923278 0.653925 0.899046
0.000000 0.815518 0.919677
0.000000 0.816068 0.919799
0.197360 0.818112 0.919615
0.392309 0.823239 0.919158
0.558465 0.832090 0.917998
0.709316 0.845335 0.916625
0.807095 0.820157 0.904845
0.920317 0.809079 0.883970
0.000000 0.915862 0.924895
0.000000 0.916289 0.924773
0.235386 0.918334 0.924681
0.404944 0.921294 0.923217
0.557946 0.924407 0.919249
0.696010 0.925505 0.910185
0.810819 0.920897 0.893889
0.935454 0.933715 0.903105
0.000000 0.162509 0.998199
0.000000 0.158877 0.998077
0.000000 0.145022 0.997131
0.000000 0.115572 0.995758
0.345739 0.023316 0.993469
0.536217 0.000000 0.990204
0.700710 0.000000 0.985779
0.842435 0.000000 0.983246
0.000000 0.188266 0.998108
0.000000 0.185458 0.997955
0.000000 0.174563 0.997101
0.000000 0.153048 0.995575
0.341131 0.114382 0.993286
0.534173 0.000000 0.989960
0.699641 0.000000 0.985412
0.842374 0.000000 0.982757
0.000000 0.310582 0.997406
0.000000 0.294560 0.997620
0.000000 0.256779 0.997345
0.000000 0.246708 0.996094
0.329137 0.230381 0.993591
0.529473 0.206027 0.989960
0.697963 0.165866 0.985290
0.843931 0.128328 0.982300
0.000000 0.472786 0.995392
0.000000 0.463539 0.995605
0.000000 0.427558 0.996033
0.000000 0.370062 0.996429
0.323705 0.362982 0.993866
0.529076 0.352270 0.990173
0.699397 0.334386 0.985321
0.849149 0.321721 0.981659
0.000000 0.634302 0.992126
0.131777 0.634058 0.991913
0.286290 0.633631 0.990784
0.282383 0.579431 0.992370
0.360571 0.516411 0.992889
0.549859 0.511528 0.988952
0.712642 0.502586 0.983917
0.860990 0.497261 0.979461
0.147127 0.751705 0.991333
0.203342 0.751614 0.991058
0.325505 0.750820 0.989990
0.460090 0.750301 0.988159
0.595087 0.752010 0.985107
0.616602 0.685145 0.986633
0.750332 0.678981 0.981933
0.880522 0.665309 0.975769
0.234684 0.821622 0.988251
0.270939 0.823056 0.988067
0.368566 0.828214 0.987457
0.494087 0.838560 0.986481
0.628840 0.855344 0.985138
0.750088 0.866575 0.982879
0.804471 0.830808 0.980133
0.902190 0.809751 0.971191
0.297551 0.893584 0.984619
0.324498 0.894408 0.984436
0.404913 0.897642 0.983825
0.517113 0.903960 0.982818
0.640101 0.913573 0.981353
0.755673 0.925658 0.979675
0.858854 0.939361 0.978302
0.929076 0.932219 0.972381
