assets/luts/Purple.cube
# Created by Adobe Lightroom plugin Export LUT (1.18.0)
# www.johnrellis.com/lightroom/exportlut.htm
# Preset: Orange/Yellows/Blues
# Color profile: /Library/Application Support/Adobe/Color/Profiles/Recommended/AdobeRGB1998.icc
LUT_3D_SIZE 5
DOMAIN_MIN 0.000000 0.000000 0.000000
DOMAIN_MAX 0.903226 0.903226 0.903226
0.121706 0.121706 0.121706
0.187594 0.117556 0.119692
0.340673 0.108217 0.122927
0.583856 0.034821 0.125582
0.901579 0.000000 0.102571
0.109865 0.189181 0.118563
0.194369 0.193545 0.119112
0.354620 0.195010 0.128145
0.599023 0.195163 0.124361
0.896574 0.178683 0.094697
0.093172 0.357244 0.150820
0.188205 0.364752 0.131289
0.394995 0.392645 0.115023
0.627222 0.408331 0.109560
0.911803 0.432227 0.062043
0.000000 0.621729 0.162905
0.091249 0.624353 0.090211
0.409155 0.630793 0.078584
0.726894 0.722286 0.000000
0.955962 0.701534 0.000000
0.000000 0.917357 0.088594
0.000000 0.919646 0.000000
0.405127 0.926421 0.000000
0.690150 0.929564 0.000000
0.952117 0.946593 0.007752
0.078035 0.120790 0.238041
0.201694 0.115236 0.230076
0.364294 0.099519 0.243442
0.627985 0.000000 0.256229
0.923369 0.000000 0.237797
0.103853 0.212558 0.235721
0.186435 0.193301 0.234440
0.372229 0.180575 0.241184
0.635676 0.105806 0.239597
0.923583 0.000000 0.236088
0.076814 0.368902 0.265934
0.180575 0.374578 0.260044
0.405310 0.402472 0.233097
0.645106 0.400122 0.237308
0.923125 0.413581 0.229038
0.000000 0.628199 0.307042
0.073274 0.630732 0.281315
0.389014 0.640131 0.224369
0.726833 0.722011 0.214237
0.952483 0.693080 0.236271
0.000000 0.918425 0.310277
0.000000 0.920714 0.275700
0.374121 0.921782 0.197055
0.681178 0.924712 0.210086
0.950225 0.944854 0.271916
0.000000 0.125551 0.533227
0.139101 0.106538 0.520165
0.407843 0.000000 0.488197
0.642206 0.000000 0.515312
0.927398 0.000000 0.527123
0.000000 0.276402 0.530571
0.000000 0.198459 0.525597
0.404211 0.162631 0.494240
0.650294 0.063569 0.520165
0.928588 0.000000 0.515251
0.000000 0.468696 0.540490
0.000000 0.462898 0.542351
0.359625 0.385351 0.524865
0.661219 0.368597 0.515618
0.928496 0.398749 0.513939
0.000000 0.647761 0.559136
0.000000 0.653223 0.562036
0.361456 0.659266 0.536614
0.705409 0.700557 0.527001
0.927947 0.677394 0.523796
0.000000 0.928099 0.588098
0.000000 0.927642 0.573144
0.383276 0.925750 0.531975
0.681727 0.922850 0.522759
0.950042 0.945830 0.606683
0.000000 0.139132 0.840879
0.000000 0.113313 0.835782
0.384588 0.000000 0.820401
0.665949 0.000000 0.799435
0.926024 0.000000 0.815457
0.000000 0.286625 0.844724
0.000000 0.214694 0.842954
0.360143 0.161746 0.828214
0.666102 0.000000 0.804715
0.930541 0.000000 0.816068
0.000000 0.570459 0.857786
0.000000 0.547509 0.854368
0.275761 0.420508 0.843961
0.659876 0.379034 0.810025
0.931914 0.374975 0.801114
0.000000 0.737301 0.843137
0.000000 0.737942 0.845121
0.403113 0.739864 0.845029
0.677577 0.698482 0.826078
0.923888 0.705318 0.791470
0.000000 0.941711 0.862058
0.000000 0.940429 0.858793
0.387976 0.932280 0.842496
0.701289 0.922179 0.800565
0.944579 0.942260 0.845182
0.000000 0.162509 0.998199
0.000000 0.149660 0.997406
0.213626 0.089723 0.994751
0.578302 0.000000 0.989227
0.842435 0.000000 0.983246
0.000000 0.273228 0.997864
0.000000 0.235050 0.997772
0.185275 0.211215 0.994934
0.573785 0.159213 0.989014
0.843534 0.000000 0.982635
0.000000 0.570123 0.992859
0.000000 0.537316 0.993713
0.176364 0.438422 0.994842
0.576959 0.424537 0.988342
0.853910 0.408972 0.980652
0.176211 0.769162 0.990784
0.308385 0.775387 0.990112
0.539117 0.781033 0.987091
0.670283 0.725734 0.984924
0.885771 0.703120 0.974426
0.297551 0.893584 0.984619
0.380774 0.896544 0.984039
0.578424 0.908385 0.982147
0.782284 0.928923 0.979309
0.929076 0.932219 0.972381
