assets/luts/Purple.cube
# Created by Adobe Lightroom plugin Export LUT (1.18.0)
# www.johnrellis.com/lightroom/exportlut.htm
# Preset: Orange/Yellows/Blues
# Color profile: /Library/Application Support/Adobe/Color/Profiles/Recommended/AdobeRGB1998.icc
LUT_3D_SIZE 32
0.121706 0.121706 0.121706
0.121706 0.121706 0.121706
0.121706 0.121706 0.121706
0.127779 0.120638 0.121614
0.143557 0.118502 0.121309
0.157809 0.118166 0.120851
0.172213 0.118074 0.120302
0.187594 0.117556 0.119692
0.204318 0.116182 0.119020
0.222568 0.114321 0.118196
0.242863 0.111879 0.117189
0.264714 0.110048 0.117098
0.287999 0.109895 0.118807
0.313298 0.109743 0.121126
0.340673 0.108217 0.122927
0.370062 0.105928 0.124331
0.401251 0.102174 0.125521
0.433692 0.097444 0.126467
0.467140 0.090761 0.127077
0.502770 0.081544 0.127291
0.541314 0.068421 0.126925
0.583856 0.034821 0.125582
0.629755 0.000000 0.123659
0.677119 0.000000 0.121126
0.725216 0.000000 0.117983
0.772885 0.000000 0.114382
0.818753 0.000000 0.110536
0.861936 0.000000 0.106538
0.901579 0.000000 0.102571
0.937896 0.000000 0.099123
0.971130 0.000000 0.095979
1.000000 0.000000 0.093019
0.121706 0.121706 0.121706
0.121706 0.121706 0.121706
0.121706 0.121706 0.121706
0.128756 0.121523 0.121523
0.144198 0.121340 0.121065
0.158572 0.120974 0.120607
0.173190 0.120821 0.120058
0.188937 0.119966 0.119448
0.205905 0.118502 0.118746
0.224674 0.116884 0.117861
0.245396 0.114229 0.116854
0.267643 0.113069 0.117250
0.291447 0.113191 0.119478
0.317327 0.112978 0.121523
0.345190 0.111635 0.123232
0.375189 0.108888 0.124758
0.406928 0.105440 0.125795
0.439918 0.100679 0.126650
0.473854 0.094240 0.127321
0.510063 0.085451 0.127352
0.549096 0.073091 0.126650
0.592035 0.047669 0.125338
0.637720 0.000000 0.123476
0.684901 0.000000 0.120851
0.732540 0.000000 0.117617
0.779660 0.000000 0.114137
0.824826 0.000000 0.110353
0.867247 0.000000 0.106661
0.906096 0.000000 0.102998
0.941833 0.000000 0.099702
0.974548 0.000000 0.096651
1.000000 0.000000 0.094057
0.121706 0.121706 0.121706
0.121706 0.121706 0.121706
0.121706 0.121706 0.121706
0.129976 0.124208 0.121248
0.144930 0.125093 0.120729
0.159365 0.124910 0.120241
0.174258 0.124483 0.119692
0.190188 0.123384 0.119112
0.207431 0.121828 0.118410
0.226383 0.120180 0.117494
0.247410 0.117830 0.116426
0.269718 0.117647 0.117739
0.293797 0.117739 0.119936
0.319890 0.117281 0.121950
0.348058 0.116152 0.123568
0.378454 0.113771 0.125002
0.410498 0.110719 0.125978
0.443763 0.106172 0.126772
0.478035 0.100282 0.127321
0.514336 0.092164 0.127321
0.553491 0.081270 0.126711
0.596460 0.064271 0.125277
0.642084 0.018952 0.123171
0.689052 0.000000 0.120668
0.736446 0.000000 0.117556
0.783291 0.000000 0.114046
0.828122 0.000000 0.110262
0.870085 0.000000 0.106813
0.908568 0.000000 0.103243
0.943908 0.000000 0.100038
0.976349 0.000000 0.097047
1.000000 0.000000 0.094759
0.120272 0.130892 0.121340
0.120760 0.131411 0.120882
0.124483 0.131594 0.120760
0.132509 0.132601 0.120455
0.145968 0.133822 0.119905
0.160006 0.133150 0.119478
0.174929 0.131991 0.119020
0.191196 0.130831 0.118410
0.208713 0.129274 0.117678
0.228000 0.127596 0.116762
0.249210 0.126467 0.116762
0.271977 0.126802 0.118807
0.296483 0.126986 0.120882
0.322972 0.126833 0.122805
0.351659 0.125734 0.124178
0.382361 0.123995 0.125490
0.414832 0.121309 0.126406
0.448707 0.117739 0.127016
0.483650 0.113161 0.127413
0.520806 0.106477 0.127382
0.560967 0.097902 0.126680
0.604273 0.085817 0.125032
0.649348 0.069093 0.122866
0.695094 0.030884 0.120363
0.740902 0.000000 0.117037
0.786191 0.000000 0.113558
0.829770 0.000000 0.109712
0.871000 0.000000 0.106203
0.909178 0.000000 0.102602
0.944579 0.000000 0.099336
0.977234 0.000000 0.096712
1.000000 0.000000 0.094545
0.117678 0.146426 0.120089
0.120211 0.146456 0.119448
0.124910 0.146334 0.119326
0.134066 0.146548 0.119051
0.147433 0.147097 0.118532
0.162661 0.146426 0.118074
0.177279 0.144198 0.117708
0.193545 0.142428 0.117159
0.211582 0.140841 0.116396
0.231205 0.139986 0.116609
0.252598 0.140322 0.118441
0.275853 0.140688 0.120363
0.300847 0.141024 0.122164
0.327672 0.140719 0.123812
0.356329 0.140078 0.125093
0.386694 0.139010 0.125978
0.418830 0.137026 0.126833
0.452216 0.134432 0.127443
0.487129 0.131075 0.127718
0.524620 0.126558 0.127352
0.565240 0.120394 0.126497
0.608942 0.112581 0.124819
0.653956 0.102754 0.122621
0.699428 0.090791 0.119814
0.744717 0.075593 0.116640
0.789517 0.052857 0.113069
0.832700 0.002747 0.109377
0.873594 0.000000 0.105409
0.911498 0.000000 0.102022
0.946654 0.000000 0.098939
0.979095 0.000000 0.096651
1.000000 0.000000 0.094484
0.114839 0.160952 0.118746
0.117494 0.160983 0.117891
0.122316 0.160861 0.117769
0.131930 0.160861 0.117494
0.145754 0.161196 0.117006
0.162478 0.162020 0.116304
0.180392 0.161227 0.115663
0.196231 0.158206 0.115267
0.212741 0.156435 0.116854
0.232578 0.156313 0.118776
0.254429 0.156741 0.120516
0.277928 0.157229 0.122164
0.303197 0.157504 0.123690
0.330358 0.157656 0.125063
0.359075 0.157565 0.125887
0.389471 0.156985 0.126894
0.421363 0.156008 0.127626
0.454566 0.154421 0.127810
0.489265 0.152255 0.128023
0.526390 0.149477 0.127596
0.566674 0.145602 0.126467
0.609796 0.140658 0.124758
0.608392 0.134127 0.123537
0.655299 0.127932 0.120638
0.703334 0.120638 0.116823
0.751369 0.111757 0.112459
0.798703 0.102327 0.107729
0.844114 0.091096 0.102815
0.886473 0.080629 0.097566
0.925536 0.070527 0.092805
0.961486 0.062287 0.088594
0.994781 0.055787 0.085084
0.112154 0.172671 0.117952
0.113954 0.172793 0.116518
0.118471 0.172732 0.116396
0.127779 0.172702 0.116152
0.141176 0.172549 0.115724
0.156741 0.173434 0.115053
0.175418 0.174716 0.114961
0.194614 0.174807 0.115694
0.210819 0.172488 0.118013
0.227970 0.171115 0.120394
0.247471 0.170871 0.122377
0.270054 0.171481 0.123690
0.294652 0.172366 0.125063
0.321386 0.173068 0.126070
0.350286 0.173953 0.126833
0.381140 0.174533 0.127718
0.413336 0.174594 0.128054
0.446784 0.174258 0.128359
0.480690 0.173190 0.128298
0.515892 0.171786 0.127932
0.552728 0.169711 0.126802
0.591516 0.166812 0.124788
0.631373 0.163546 0.122408
0.672694 0.159304 0.119203
0.715572 0.155062 0.115450
0.760372 0.150149 0.111208
0.805783 0.145022 0.106416
0.850065 0.139803 0.101228
0.891508 0.134859 0.096468
0.930083 0.130892 0.091798
0.965545 0.127779 0.087892
0.998352 0.126406 0.084718
0.109865 0.189181 0.118563
0.110536 0.189395 0.116304
0.115633 0.189456 0.116365
0.125521 0.189456 0.116701
0.139559 0.189395 0.117494
0.155947 0.189731 0.118105
0.173892 0.191470 0.118929
0.194369 0.193545 0.119112
0.216831 0.195499 0.119265
0.234867 0.193454 0.121492
0.253727 0.192020 0.123598
0.273442 0.191196 0.125429
0.298253 0.192294 0.126497
0.325383 0.193637 0.127352
0.354620 0.195010 0.128145
0.385870 0.196414 0.128450
0.418433 0.197299 0.128786
0.452186 0.197818 0.128847
0.486488 0.197818 0.128573
0.522271 0.197330 0.127962
0.559747 0.196445 0.126528
0.599023 0.195163 0.124361
0.639155 0.193454 0.121462
0.680568 0.191318 0.118288
0.723323 0.188907 0.114260
0.767697 0.186343 0.109773
0.812467 0.183749 0.104707
0.855985 0.181155 0.099580
0.896574 0.178683 0.094697
0.934417 0.176181 0.090364
0.969238 0.174868 0.086732
1.000000 0.173922 0.084321
0.112306 0.206973 0.124178
0.112947 0.207309 0.122042
0.115877 0.207614 0.120760
0.125521 0.207675 0.121065
0.139132 0.207889 0.121614
0.155581 0.208042 0.122194
0.173526 0.209415 0.122652
0.193393 0.212131 0.122530
0.216098 0.215061 0.122103
0.242069 0.219028 0.120974
0.261631 0.216892 0.123354
0.282048 0.215366 0.125399
0.303410 0.214633 0.127474
0.327886 0.215030 0.128786
0.357336 0.217136 0.129213
0.388830 0.219333 0.129519
0.421729 0.221134 0.129610
0.455818 0.222477 0.129274
0.490272 0.223270 0.128817
0.526452 0.223758 0.127962
0.564416 0.224186 0.126223
0.604089 0.224186 0.123507
0.644556 0.223758 0.120516
0.686091 0.223148 0.116976
0.728817 0.222232 0.112825
0.772976 0.221439 0.107942
0.817380 0.220462 0.102571
0.860319 0.219455 0.097383
0.900481 0.218204 0.092592
0.937896 0.217105 0.088319
0.972351 0.216159 0.084962
1.000000 0.215671 0.082795
0.113252 0.227390 0.129397
0.113832 0.227787 0.127352
0.114656 0.228275 0.124086
0.124361 0.228611 0.124178
0.138277 0.228977 0.124666
0.155093 0.229496 0.125154
0.173861 0.229923 0.125704
0.194064 0.232609 0.125521
0.216373 0.236301 0.124941
0.241245 0.240146 0.123842
0.270634 0.245731 0.121523
0.293156 0.244358 0.123781
0.315099 0.242832 0.126314
0.337774 0.241825 0.128298
0.361303 0.241062 0.129976
0.391089 0.242954 0.130251
0.423346 0.245212 0.130068
0.456672 0.247074 0.129732
0.491127 0.248631 0.128908
0.527611 0.250217 0.127626
0.566857 0.252018 0.125551
0.608148 0.253605 0.122774
0.650324 0.254856 0.119234
0.693233 0.255772 0.115145
0.736690 0.256352 0.110719
0.780728 0.256809 0.105562
0.824216 0.257023 0.100160
0.865904 0.256748 0.094697
0.904845 0.256168 0.089998
0.941070 0.255344 0.085725
0.974609 0.254734 0.082551
1.000000 0.254276 0.080110
0.112551 0.251835 0.134554
0.113222 0.252079 0.132448
0.114046 0.252537 0.129183
0.121675 0.252995 0.126925
0.136446 0.253208 0.127047
0.154055 0.253605 0.127504
0.173770 0.253941 0.127840
0.194675 0.254490 0.128328
0.216831 0.258427 0.127474
0.241581 0.262882 0.126406
0.269200 0.267796 0.124453
0.301732 0.274937 0.120974
0.327886 0.275242 0.122621
0.351476 0.273564 0.125429
0.375586 0.272343 0.127657
0.400000 0.271305 0.129610
0.426612 0.270939 0.130434
0.460121 0.273564 0.129854
0.494942 0.275883 0.128939
0.532006 0.278386 0.127291
0.571649 0.281285 0.124819
0.613001 0.283940 0.121462
0.655055 0.286198 0.117708
0.697810 0.288090 0.113283
0.741207 0.289708 0.108370
0.785183 0.291295 0.102937
0.828519 0.292424 0.097230
0.870024 0.293126 0.091798
0.908629 0.293126 0.086763
0.944457 0.292790 0.082551
0.977569 0.292302 0.079713
1.000000 0.291875 0.077974
0.110414 0.277470 0.139345
0.111116 0.277775 0.137118
0.112001 0.278080 0.134005
0.116915 0.278721 0.129030
0.132937 0.278935 0.129122
0.151827 0.279179 0.129427
0.172488 0.279454 0.129732
0.194430 0.279637 0.130068
0.217288 0.281346 0.129915
0.241794 0.286076 0.128542
0.268894 0.291234 0.126680
0.298924 0.297276 0.123781
0.313298 0.287236 0.120760
0.341527 0.289860 0.121401
0.365362 0.288884 0.124361
0.389868 0.288243 0.126741
0.414893 0.287816 0.128420
0.440040 0.287144 0.129732
0.471290 0.289311 0.129305
0.507927 0.293248 0.127657
0.547448 0.297734 0.125124
0.590112 0.302647 0.121523
0.634577 0.307286 0.117006
0.679744 0.311589 0.112032
0.725460 0.315343 0.106386
0.771237 0.318730 0.099916
0.816495 0.321660 0.093233
0.860044 0.323705 0.086397
0.900603 0.325078 0.080323
0.938079 0.325566 0.074922
0.972595 0.325719 0.071107
1.000000 0.325536 0.068788
0.108156 0.295720 0.142489
0.108705 0.296178 0.140627
0.109438 0.296971 0.137331
0.111482 0.298375 0.130495
0.127535 0.299626 0.130190
0.147280 0.300816 0.130434
0.168856 0.301762 0.130556
0.191470 0.302342 0.130983
0.214908 0.302312 0.131197
0.238590 0.305211 0.130404
0.263890 0.309422 0.128481
0.291142 0.313756 0.126009
0.320500 0.318730 0.122866
0.354711 0.326116 0.117617
0.385931 0.329534 0.117037
0.410010 0.327092 0.120760
0.435096 0.325414 0.123476
0.460639 0.324071 0.125216
0.486580 0.322911 0.126802
0.514916 0.322789 0.126802
0.555230 0.328405 0.123812
0.598352 0.334356 0.119722
0.642939 0.340093 0.114687
0.688167 0.345220 0.109194
0.733700 0.349981 0.102724
0.779202 0.354070 0.095949
0.823972 0.357549 0.088533
0.866606 0.360113 0.081941
0.906249 0.361578 0.075624
0.942809 0.362158 0.070832
0.976471 0.362249 0.067506
1.000000 0.361822 0.065705
0.102144 0.325963 0.147036
0.102968 0.326268 0.144625
0.103761 0.327001 0.141451
0.105867 0.328527 0.134432
0.120302 0.329839 0.131044
0.142306 0.331212 0.131167
0.166049 0.332280 0.131380
0.190585 0.332921 0.131533
0.215549 0.332952 0.131655
0.240604 0.332372 0.131930
0.266300 0.337163 0.129946
0.293889 0.342138 0.127535
0.323613 0.347662 0.124086
0.356329 0.354253 0.119844
0.393469 0.363073 0.113527
0.431983 0.371221 0.109987
0.457710 0.368475 0.114595
0.483925 0.366339 0.117922
0.510552 0.364385 0.119997
0.538903 0.363561 0.120790
0.568933 0.363500 0.120180
0.605707 0.366766 0.117372
0.650141 0.373236 0.111879
0.695064 0.379095 0.105440
0.740230 0.384405 0.098665
0.785275 0.389105 0.091341
0.829465 0.393103 0.083619
0.871366 0.395850 0.076173
0.910307 0.397589 0.069886
0.946136 0.398199 0.064881
0.979156 0.398077 0.062531
1.000000 0.397467 0.061036
0.093172 0.357244 0.150820
0.094148 0.357397 0.148531
0.095308 0.358129 0.145235
0.097505 0.359564 0.137789
0.110018 0.361395 0.131106
0.135348 0.362951 0.131106
0.161440 0.364050 0.131258
0.188205 0.364752 0.131289
0.214786 0.364813 0.131350
0.241398 0.364202 0.131563
0.267887 0.364996 0.130861
0.295842 0.370459 0.128328
0.325902 0.376562 0.125124
0.358709 0.383917 0.120821
0.394995 0.392645 0.115023
0.435554 0.403296 0.107118
0.481697 0.416571 0.099153
0.508659 0.413336 0.104677
0.536339 0.410742 0.108522
0.565728 0.409491 0.110262
0.596094 0.408667 0.110597
0.627222 0.408331 0.109560
0.659388 0.408362 0.107515
0.702113 0.413733 0.101350
0.746731 0.419471 0.093782
0.790951 0.424445 0.085695
0.833799 0.428382 0.077150
0.874235 0.430976 0.069032
0.911803 0.432227 0.062043
0.946532 0.432593 0.053803
0.978668 0.432105 0.047089
1.000000 0.431067 0.042420
0.080354 0.389685 0.154513
0.081300 0.389746 0.152163
0.082673 0.390112 0.148775
0.085359 0.391180 0.140932
0.095247 0.392554 0.130434
0.125216 0.393469 0.130404
0.154452 0.394049 0.130465
0.183108 0.394446 0.130373
0.211490 0.394324 0.130434
0.239536 0.394049 0.130526
0.267491 0.393408 0.130495
0.296056 0.397620 0.128725
0.327092 0.405280 0.125490
0.360998 0.414130 0.121126
0.397986 0.424323 0.115389
0.438819 0.436133 0.107424
0.483406 0.449073 0.096559
0.536553 0.466987 0.079957
0.564508 0.462715 0.088289
0.593194 0.459510 0.093050
0.622431 0.456825 0.095186
0.652369 0.454749 0.095888
0.683192 0.453285 0.095033
0.714748 0.452216 0.092744
0.749264 0.452796 0.088197
0.792905 0.458106 0.079011
0.835142 0.462196 0.069001
0.875029 0.465003 0.059419
0.912352 0.466529 0.046479
0.947051 0.466957 0.032410
0.979309 0.466529 0.025360
1.000000 0.465522 0.023590
0.057649 0.424628 0.158236
0.059419 0.424872 0.155489
0.061524 0.425422 0.152255
0.065614 0.426459 0.143862
0.071931 0.427893 0.129641
0.110658 0.428748 0.128847
0.145388 0.429297 0.128664
0.177493 0.429572 0.128542
0.208347 0.429603 0.128664
0.238651 0.429267 0.128481
0.268284 0.428687 0.128573
0.297459 0.427893 0.128511
0.328740 0.435431 0.125216
0.362615 0.444800 0.120729
0.399847 0.455634 0.114931
0.440528 0.468177 0.106996
0.485267 0.482277 0.095766
0.533959 0.497597 0.079377
0.594873 0.520958 0.028229
0.623346 0.515526 0.059358
0.652155 0.510857 0.068330
0.681239 0.506889 0.073091
0.710872 0.503593 0.075257
0.741115 0.500877 0.075013
0.771878 0.498665 0.072419
0.803037 0.496773 0.068177
0.839384 0.497902 0.059266
0.878386 0.500481 0.040040
0.914885 0.501732 0.022309
0.948882 0.501884 0.009918
0.980499 0.501122 0.002594
1.000000 0.499794 0.002777
0.000000 0.459419 0.161196
0.000000 0.459113 0.158511
0.034668 0.440894 0.153384
0.044709 0.441901 0.145388
0.058473 0.443488 0.131991
0.095613 0.444984 0.127169
0.133028 0.446235 0.127138
0.166873 0.447395 0.126894
0.198856 0.448249 0.126741
0.229831 0.448707 0.126711
0.260227 0.449073 0.126467
0.290196 0.449378 0.126192
0.320836 0.452216 0.125002
0.354467 0.462684 0.120760
0.391180 0.474586 0.115053
0.431220 0.488075 0.107271
0.475319 0.503380 0.096559
0.523308 0.520043 0.081056
0.574792 0.537316 0.052705
0.637842 0.562036 0.000000
0.670253 0.559167 0.000000
0.699428 0.554101 0.004120
0.729000 0.549828 0.020996
0.759182 0.546380 0.030549
0.790005 0.543633 0.034363
0.821042 0.541283 0.031342
0.851804 0.538872 0.023621
0.881895 0.536370 0.013092
0.917205 0.537041 0.000000
0.950866 0.537072 0.000000
0.982086 0.536065 0.000000
1.000000 0.534417 0.000000
0.000000 0.491951 0.163119
0.000000 0.489570 0.160281
0.000000 0.487251 0.156039
0.000000 0.485817 0.147768
0.000000 0.485512 0.132906
0.061616 0.486122 0.123323
0.116457 0.487037 0.122896
0.157046 0.488106 0.122774
0.193515 0.489113 0.122225
0.227634 0.489754 0.121950
0.260746 0.490242 0.121462
0.293065 0.490730 0.121096
0.325231 0.491707 0.120577
0.359228 0.498970 0.117311
0.396826 0.511986 0.110780
0.437842 0.526665 0.102174
0.482277 0.542718 0.090181
0.529808 0.559503 0.073304
0.580285 0.576562 0.033753
0.633021 0.593408 0.000000
0.694270 0.615320 0.000000
0.729122 0.613306 0.000000
0.756985 0.606043 0.000000
0.785183 0.599908 0.000000
0.813779 0.594629 0.000000
0.842374 0.589776 0.000000
0.870512 0.585138 0.000000
0.898100 0.580560 0.000000
0.925170 0.576043 0.000000
0.952605 0.572137 0.000000
0.983459 0.570794 0.000000
1.000000 0.568902 0.000000
0.000000 0.536095 0.164797
0.000000 0.533745 0.161624
0.000000 0.531456 0.157382
0.000000 0.530022 0.148013
0.000000 0.529656 0.131991
0.000000 0.530449 0.116243
0.090120 0.531304 0.116060
0.143282 0.532433 0.115511
0.185641 0.533501 0.114900
0.224094 0.534295 0.114351
0.260288 0.534997 0.113710
0.295293 0.535760 0.112947
0.329931 0.536889 0.112001
0.364385 0.538506 0.110811
0.402472 0.551049 0.103944
0.443641 0.565911 0.094545
0.487800 0.581842 0.081331
0.534630 0.598291 0.062928
0.583917 0.614893 0.009216
0.635157 0.631128 0.000000
0.688075 0.646784 0.000000
0.746090 0.665003 0.000000
0.783413 0.664149 0.000000
0.809628 0.654994 0.000000
0.836179 0.646876 0.000000
0.862486 0.639460 0.000000
0.888396 0.632502 0.000000
0.913909 0.625910 0.000000
0.938903 0.619501 0.000000
0.963531 0.613458 0.000000
0.987976 0.607813 0.000000
1.000000 0.603754 0.000000
0.000000 0.583734 0.165133
0.000000 0.581353 0.161807
0.000000 0.579095 0.156893
0.000000 0.577661 0.146670
0.000000 0.577295 0.128847
0.000000 0.578241 0.105684
0.006134 0.579095 0.105135
0.122560 0.580346 0.104463
0.174807 0.581445 0.103731
0.218570 0.582513 0.102663
0.258671 0.583429 0.101778
0.296818 0.584344 0.100465
0.334051 0.585565 0.099153
0.370581 0.586999 0.097719
0.407721 0.591455 0.094423
0.448493 0.605463 0.083711
0.491432 0.619806 0.070100
0.536370 0.634333 0.040070
0.583001 0.648737 0.000000
0.631037 0.662684 0.000000
0.680476 0.676204 0.000000
0.731289 0.689204 0.000000
0.785245 0.703548 0.000000
0.823606 0.703487 0.000000
0.847868 0.692500 0.000000
0.872221 0.682673 0.000000
0.896330 0.673640 0.000000
0.920195 0.665278 0.000000
0.943786 0.657404 0.000000
0.967193 0.650141 0.000000
0.990509 0.643427 0.000000
1.000000 0.637385 0.000000
0.000000 0.621729 0.162905
0.000000 0.620813 0.159426
0.000000 0.620142 0.154726
0.000000 0.620172 0.143648
0.000000 0.620966 0.123934
0.000000 0.622522 0.091829
0.000000 0.623468 0.090913
0.091249 0.624353 0.090211
0.159060 0.625116 0.089143
0.209323 0.625574 0.087800
0.252995 0.626032 0.086885
0.293858 0.626612 0.085023
0.333043 0.627649 0.083284
0.371221 0.629084 0.081178
0.409155 0.630793 0.078584
0.448737 0.639368 0.070314
0.491066 0.653315 0.050050
0.535363 0.667536 0.002594
0.581140 0.681727 0.000000
0.628412 0.695613 0.000000
0.677150 0.709224 0.000000
0.726894 0.722286 0.000000
0.777737 0.734859 0.000000
0.829068 0.746548 0.000000
0.867948 0.746822 0.000000
0.890349 0.734066 0.000000
0.912383 0.722255 0.000000
0.934234 0.711482 0.000000
0.955962 0.701534 0.000000
0.977600 0.692409 0.000000
0.999268 0.684016 0.000000
1.000000 0.676326 0.000000
0.000000 0.670527 0.160189
0.000000 0.669612 0.156374
0.000000 0.668879 0.151034
0.000000 0.668757 0.138857
0.000000 0.669490 0.116548
0.000000 0.671138 0.072969
0.000000 0.672267 0.069947
0.000000 0.673335 0.067964
0.139406 0.674281 0.066651
0.198672 0.674922 0.065064
0.247715 0.675441 0.063111
0.291905 0.675990 0.060731
0.333715 0.676905 0.057130
0.374273 0.677974 0.051148
0.413764 0.679255 0.043549
0.452827 0.680690 0.033631
0.494453 0.692470 0.000000
0.537682 0.705470 0.000000
0.582330 0.718349 0.000000
0.628138 0.730983 0.000000
0.674861 0.743099 0.000000
0.722286 0.754604 0.000000
0.770321 0.765469 0.000000
0.818906 0.775631 0.000000
0.871153 0.788235 0.000000
0.908690 0.787381 0.000000
0.928710 0.772671 0.000000
0.948760 0.759365 0.000000
0.968688 0.747189 0.000000
0.988525 0.735927 0.000000
1.000000 0.725643 0.000000
1.000000 0.715908 0.000000
0.000000 0.710445 0.154726
0.000000 0.709285 0.150607
0.000000 0.708766 0.144900
0.000000 0.709163 0.131563
0.000000 0.710506 0.106233
0.000000 0.712490 0.043122
0.000000 0.714168 0.016541
0.000000 0.715908 0.012116
0.111971 0.717617 0.006928
0.184390 0.719173 0.002594
0.239231 0.720760 0.000000
0.287236 0.722072 0.000000
0.332158 0.723476 0.000000
0.374914 0.725185 0.000000
0.416724 0.727291 0.000000
0.457832 0.729519 0.000000
0.499001 0.734310 0.000000
0.542229 0.746914 0.000000
0.586236 0.758785 0.000000
0.630671 0.769863 0.000000
0.675502 0.780209 0.000000
0.720912 0.790005 0.000000
0.767025 0.799527 0.000000
0.813748 0.808621 0.000000
0.860868 0.817319 0.000000
0.905180 0.822751 0.000000
0.941283 0.821103 0.000000
0.960204 0.805692 0.000000
0.978882 0.791562 0.000000
0.997345 0.778531 0.000000
1.000000 0.766293 0.009430
1.000000 0.754849 0.027070
0.000000 0.759579 0.148379
0.000000 0.758511 0.143862
0.000000 0.758022 0.137331
0.000000 0.758389 0.122072
0.000000 0.759487 0.091524
0.000000 0.761288 0.000000
0.000000 0.762570 0.000000
0.000000 0.763851 0.000000
0.068666 0.765072 0.000000
0.168215 0.766049 0.000000
0.229862 0.767056 0.000000
0.281743 0.767788 0.000000
0.328893 0.768582 0.000000
0.373388 0.769619 0.000000
0.416419 0.771023 0.000000
0.458381 0.772549 0.000000
0.499641 0.774014 0.000000
0.541314 0.781094 0.000000
0.584070 0.791531 0.000000
0.627070 0.801266 0.000000
0.670405 0.810300 0.000000
0.714076 0.818845 0.000000
0.758236 0.827085 0.000000
0.802731 0.834897 0.000000
0.847562 0.842344 0.000000
0.892485 0.849271 0.000000
0.934142 0.852720 0.000000
0.968170 0.849790 0.000000
0.985962 0.833890 0.000000
1.000000 0.818967 0.000000
1.000000 0.804807 0.029023
1.000000 0.791836 0.052155
0.000000 0.803952 0.139345
0.000000 0.803342 0.134218
0.000000 0.803281 0.126802
0.000000 0.803922 0.109468
0.000000 0.805295 0.070588
0.000000 0.807187 0.000000
0.000000 0.808530 0.000000
0.000000 0.809751 0.000000
0.000000 0.810758 0.000000
0.148989 0.811521 0.000000
0.219303 0.812131 0.000000
0.275059 0.812497 0.000000
0.324743 0.812863 0.000000
0.371160 0.813474 0.000000
0.415351 0.814420 0.000000
0.458442 0.815488 0.000000
0.500450 0.816556 0.000000
0.541619 0.817350 0.000000
0.583276 0.825895 0.000000
0.625055 0.834165 0.000000
0.667048 0.841886 0.000000
0.709224 0.849119 0.000000
0.751644 0.855985 0.000000
0.794247 0.862547 0.000000
0.837034 0.868711 0.000000
0.879850 0.874479 0.000000
0.922423 0.879667 0.000000
0.962524 0.882261 0.000000
0.992126 0.876097 0.000000
1.000000 0.860685 0.020325
1.000000 0.844755 0.069673
1.000000 0.830228 0.082399
0.000000 0.847959 0.128756
0.000000 0.847623 0.122713
0.000000 0.847623 0.114351
0.000000 0.848081 0.093050
0.000000 0.848905 0.014435
0.000000 0.849882 0.000000
0.000000 0.849699 0.000000
0.000000 0.849271 0.000000
0.000000 0.848447 0.000000
0.124605 0.847440 0.000000
0.204685 0.846189 0.000000
0.263645 0.845060 0.000000
0.314794 0.844114 0.000000
0.361944 0.843565 0.000000
0.406531 0.843503 0.000000
0.449805 0.843992 0.000000
0.491981 0.844663 0.000000
0.533104 0.845182 0.000000
0.573571 0.847654 0.000000
0.614160 0.855070 0.000000
0.654841 0.861967 0.000000
0.695674 0.868498 0.000000
0.736751 0.874723 0.000000
0.777951 0.880644 0.000000
0.819242 0.886229 0.000000
0.860441 0.891417 0.000000
0.901488 0.896086 0.000000
0.942229 0.900175 0.000000
0.981231 0.902525 0.000000
1.000000 0.894011 0.000000
1.000000 0.879637 0.020630
1.000000 0.863951 0.064668
0.000000 0.879301 0.108888
0.000000 0.879210 0.101900
0.000000 0.879423 0.091707
0.000000 0.880125 0.060914
0.000000 0.881163 0.000000
0.000000 0.882414 0.000000
0.000000 0.882811 0.000000
0.000000 0.883024 0.000000
0.000000 0.883055 0.000000
0.094972 0.882902 0.000000
0.191012 0.882689 0.000000
0.254856 0.882414 0.000000
0.308568 0.882200 0.000000
0.357580 0.882109 0.000000
0.403540 0.882231 0.000000
