assets/luts/Reds.cube
# Created by Adobe Lightroom plugin Export LUT (1.18.0)
# www.johnrellis.com/lightroom/exportlut.htm
# Preset: Reds
# Color profile: /Library/Application Support/Adobe/Color/Profiles/Recommended/AdobeRGB1998.icc
LUT_3D_SIZE 32
0.086702 0.104189 0.084962
0.087068 0.104158 0.084962
0.089174 0.104128 0.084932
0.096468 0.103059 0.085115
0.109133 0.103029 0.084688
0.129305 0.103914 0.084108
0.152316 0.104738 0.083162
0.177981 0.106416 0.081758
0.206271 0.107698 0.080476
0.237339 0.109041 0.078462
0.271366 0.110201 0.075959
0.308690 0.111269 0.072511
0.348425 0.111177 0.067750
0.390478 0.111238 0.061738
0.433509 0.111055 0.050446
0.476417 0.109468 0.032380
0.518730 0.108492 0.012024
0.559808 0.107149 0.000000
0.598932 0.105928 0.000000
0.650904 0.103578 0.000000
0.704494 0.099855 0.000000
0.755367 0.096376 0.000000
0.800656 0.092836 0.000000
0.840543 0.091249 0.000000
0.875547 0.090822 0.000000
0.907073 0.091646 0.000000
0.936034 0.095186 0.000000
0.962768 0.101534 0.000000
0.987366 0.110475 0.000000
1.000000 0.121950 0.000000
1.000000 0.136934 0.031647
1.000000 0.154879 0.085237
0.087007 0.104402 0.084932
0.086976 0.104646 0.084932
0.089387 0.104829 0.084840
0.096437 0.105318 0.084871
0.108980 0.106050 0.084688
0.128908 0.107454 0.083711
0.151766 0.108766 0.082734
0.176852 0.110811 0.081636
0.204990 0.112398 0.080018
0.235782 0.114076 0.078309
0.269413 0.115236 0.075868
0.306065 0.116304 0.072206
0.345251 0.116762 0.067872
0.386816 0.117433 0.061524
0.429511 0.117678 0.050324
0.472236 0.116518 0.033661
0.514336 0.116030 0.012573
0.555322 0.115297 0.000000
0.594476 0.114321 0.000000
0.645380 0.112337 0.000000
0.697230 0.110079 0.000000
0.747585 0.106905 0.000000
0.792996 0.103822 0.000000
0.833402 0.101228 0.000000
0.869139 0.100771 0.000000
0.901457 0.102174 0.000000
0.931243 0.103670 0.000000
0.958709 0.108888 0.000000
0.984009 0.116640 0.000000
1.000000 0.126864 0.000000
1.000000 0.140414 0.015656
1.000000 0.157229 0.078340
0.086397 0.106935 0.085573
0.086366 0.107424 0.085237
0.089204 0.107576 0.084840
0.096193 0.108522 0.084840
0.108949 0.110140 0.084230
0.128756 0.112428 0.083467
0.151034 0.114290 0.082460
0.176120 0.116243 0.081025
0.203922 0.118074 0.079683
0.234562 0.119570 0.078035
0.267979 0.121706 0.075135
0.304234 0.123384 0.071778
0.343328 0.124453 0.067384
0.384924 0.125185 0.061433
0.427161 0.125887 0.049470
0.469795 0.125490 0.031373
0.511742 0.125368 0.012604
0.552697 0.125002 0.000000
0.592096 0.123445 0.000000
0.642573 0.122866 0.000000
0.693690 0.120851 0.000000
0.743709 0.118990 0.000000
0.789120 0.116274 0.000000
0.829709 0.114534 0.000000
0.865782 0.114107 0.000000
0.898436 0.113558 0.000000
0.928618 0.115908 0.000000
0.956481 0.119478 0.000000
0.982177 0.125612 0.000000
1.000000 0.134951 0.000000
1.000000 0.146914 0.007904
1.000000 0.162234 0.075349
0.084962 0.114778 0.086458
0.084993 0.115236 0.085847
0.085084 0.115938 0.084596
0.095155 0.116243 0.084260
0.109377 0.117739 0.083894
0.129030 0.122377 0.082521
0.151369 0.124880 0.081392
0.176120 0.127291 0.080507
0.203616 0.129824 0.079042
0.233829 0.132265 0.076905
0.267094 0.134585 0.074220
0.303014 0.136660 0.070497
0.341741 0.138766 0.065858
0.382727 0.140566 0.059663
0.424933 0.141695 0.046906
0.467201 0.142458 0.028870
0.508995 0.142672 0.009155
0.549706 0.142367 0.000000
0.590570 0.142214 0.000000
0.638605 0.142061 0.000000
0.687770 0.142245 0.000000
0.736812 0.139986 0.000000
0.782650 0.138735 0.000000
0.824430 0.137087 0.000000
0.862089 0.136568 0.000000
0.896269 0.136385 0.000000
0.927428 0.137331 0.000000
0.955840 0.140597 0.000000
0.981720 0.145480 0.000000
1.000000 0.152651 0.000000
1.000000 0.162814 0.002625
1.000000 0.175509 0.073610
0.081971 0.128389 0.088624
0.082063 0.128969 0.087404
0.082246 0.129793 0.085542
0.087190 0.130892 0.082856
0.107515 0.131960 0.082673
0.128176 0.133883 0.082185
0.150546 0.138674 0.080690
0.175296 0.142397 0.079164
0.202426 0.145754 0.077516
0.232303 0.148684 0.075654
0.264988 0.151949 0.072358
0.300633 0.155062 0.068635
0.339055 0.157870 0.063752
0.379736 0.160311 0.057099
0.422034 0.162783 0.041535
0.464668 0.164401 0.022797
0.506889 0.165499 0.003449
0.548028 0.166079 0.000000
0.591241 0.166598 0.000000
0.637842 0.168032 0.000000
0.685695 0.167819 0.000000
0.733761 0.167788 0.000000
0.779202 0.166873 0.000000
0.821134 0.166079 0.000000
0.859190 0.164950 0.000000
0.893797 0.164706 0.000000
0.925292 0.165896 0.000000
0.953948 0.167453 0.000000
0.979980 0.170748 0.000000
1.000000 0.176303 0.000000
1.000000 0.183658 0.000000
1.000000 0.194339 0.071778
0.076112 0.149264 0.091920
0.076295 0.149752 0.090486
0.076936 0.150210 0.088746
0.077974 0.151369 0.084199
0.094820 0.152560 0.081086
0.124086 0.153902 0.080690
0.150484 0.154055 0.080323
0.175174 0.159182 0.078462
0.202701 0.164706 0.075929
0.232639 0.168765 0.073243
0.264988 0.172763 0.070039
0.300542 0.176669 0.065827
0.338598 0.180392 0.060731
0.379248 0.184054 0.050568
0.421424 0.187320 0.033112
0.464057 0.189975 0.014527
0.506371 0.191714 0.000000
0.547601 0.193149 0.000000
0.593286 0.195132 0.000000
0.639246 0.196384 0.000000
0.686885 0.197208 0.000000
0.735073 0.197971 0.000000
0.826200 0.206882 0.000000
0.863554 0.206424 0.000000
0.896330 0.206332 0.000000
0.925597 0.206149 0.000000
0.951934 0.206851 0.000000
0.975891 0.208042 0.000000
0.997803 0.210727 0.000000
1.000000 0.215305 0.020233
1.000000 0.221805 0.075288
1.000000 0.230900 0.105837
0.066621 0.176181 0.097261
0.066987 0.176455 0.095674
0.067964 0.176699 0.093538
0.069398 0.177523 0.088746
0.071382 0.178836 0.080110
0.109041 0.180453 0.077913
0.146883 0.182284 0.077028
0.179873 0.181247 0.076478
0.208347 0.187289 0.073701
0.239536 0.193729 0.069917
0.273625 0.200626 0.065034
0.310185 0.205325 0.060334
0.348760 0.209873 0.050446
0.389715 0.213779 0.036133
0.431220 0.217472 0.017334
0.472938 0.220462 0.000000
0.514305 0.222660 0.000000
0.559564 0.225223 0.000000
0.605646 0.227878 0.000000
0.653895 0.230198 0.000000
0.705135 0.232822 0.000000
0.757137 0.234989 0.000000
0.805875 0.236790 0.000000
0.849454 0.237278 0.000000
0.887175 0.237858 0.000000
0.919341 0.237522 0.000000
0.947265 0.237675 0.000000
0.972076 0.238224 0.000000
0.994568 0.239719 0.000000
1.000000 0.242557 0.008759
1.000000 0.247196 0.070222
1.000000 0.253910 0.102724
0.050263 0.201480 0.103212
0.051118 0.201602 0.101747
0.052186 0.201938 0.099519
0.055940 0.202396 0.094331
0.059785 0.203311 0.085847
0.077089 0.204562 0.075044
0.125856 0.206882 0.073915
0.169100 0.209506 0.072663
0.207309 0.207614 0.072908
0.238407 0.214572 0.068727
0.272526 0.221958 0.063691
0.309178 0.229862 0.055695
0.347997 0.236576 0.041749
0.388403 0.241367 0.025177
0.429755 0.245548 0.007691
0.471138 0.249180 0.000000
0.514672 0.252659 0.000000
0.561089 0.256596 0.000000
0.604913 0.259068 0.000000
0.651453 0.261875 0.000000
0.701198 0.264958 0.000000
0.752224 0.267460 0.000000
0.800381 0.269657 0.000000
0.843809 0.270603 0.000000
0.881712 0.270970 0.000000
0.914336 0.270512 0.000000
0.942779 0.269993 0.000000
0.968139 0.269505 0.000000
0.991180 0.270146 0.000000
1.000000 0.271397 0.000000
1.000000 0.274632 0.067628
1.000000 0.279515 0.100557
0.009308 0.229099 0.110353
0.010620 0.229191 0.108797
0.013581 0.229374 0.106752
0.017823 0.229679 0.101534
0.025299 0.230259 0.093080
0.036408 0.230747 0.080507
0.091981 0.232792 0.070222
0.146273 0.235843 0.068635
0.194278 0.239292 0.067445
0.237675 0.239536 0.067475
0.272526 0.245304 0.062501
0.309209 0.253574 0.053315
0.348272 0.261997 0.037781
0.389166 0.270298 0.016052
0.430213 0.275669 0.000000
0.473304 0.280461 0.000000
0.519493 0.285618 0.000000
0.563653 0.289158 0.000000
0.605921 0.291539 0.000000
0.651331 0.294408 0.000000
0.700069 0.297856 0.000000
0.750088 0.301274 0.000000
0.797543 0.303716 0.000000
0.840452 0.305058 0.000000
0.878264 0.305241 0.000000
0.910918 0.304295 0.000000
0.939666 0.303105 0.000000
0.965270 0.302312 0.000000
0.988525 0.301793 0.000000
1.000000 0.302068 0.000000
1.000000 0.303716 0.065309
1.000000 0.306950 0.099855
0.000000 0.258152 0.118593
0.000000 0.258244 0.117159
0.000000 0.258244 0.114900
0.000000 0.258213 0.109804
0.000000 0.258488 0.101717
0.000000 0.258701 0.089265
0.003906 0.259129 0.071626
0.111971 0.262425 0.064454
0.169711 0.266484 0.062379
0.221561 0.271031 0.060456
0.270237 0.273198 0.060945
0.308537 0.277684 0.055024
0.347662 0.286625 0.037263
0.388586 0.295506 0.015900
0.433509 0.305760 0.000000
0.480171 0.315160 0.000000
0.525139 0.320195 0.000000
0.568200 0.323613 0.000000
0.609918 0.325994 0.000000
0.654444 0.328801 0.000000
0.701564 0.332341 0.000000
0.749050 0.335729 0.000000
0.794308 0.337621 0.000000
0.835660 0.338659 0.000000
0.872740 0.338506 0.000000
0.905577 0.337407 0.000000
0.934966 0.336034 0.000000
0.961456 0.334722 0.000000
0.985504 0.333654 0.000000
1.000000 0.333440 0.000000
1.000000 0.334112 0.066926
1.000000 0.336370 0.102358
0.000000 0.287602 0.127932
0.000000 0.287602 0.126284
0.000000 0.287663 0.124208
0.000000 0.287663 0.119387
0.000000 0.287816 0.111727
0.000000 0.288029 0.100282
0.000000 0.288396 0.083650
0.019684 0.289952 0.057771
0.135531 0.294499 0.054047
0.196475 0.299718 0.051179
0.252201 0.305303 0.048829
0.305669 0.309514 0.047120
0.349248 0.313481 0.038911
0.393500 0.325139 0.011078
0.438666 0.335729 0.000000
0.483436 0.344854 0.000000
0.527550 0.352514 0.000000
0.569421 0.357397 0.000000
0.610254 0.359472 0.000000
0.654047 0.362432 0.000000
0.700435 0.366308 0.000000
0.747463 0.369757 0.000000
0.792264 0.372381 0.000000
0.833371 0.373266 0.000000
0.870237 0.373205 0.000000
0.902953 0.371771 0.000000
0.932219 0.369696 0.000000
0.958679 0.367742 0.000000
0.982757 0.366155 0.000000
1.000000 0.364843 0.000000
1.000000 0.364721 0.066896
1.000000 0.365942 0.103059
0.000000 0.319310 0.138827
0.000000 0.319402 0.137484
0.000000 0.319371 0.135470
0.000000 0.319249 0.130465
0.000000 0.319371 0.123262
0.000000 0.319432 0.112367
0.000000 0.319493 0.096590
0.000000 0.319860 0.073518
0.075410 0.323095 0.040955
0.162448 0.328954 0.036988
0.226719 0.335790 0.031495
0.289342 0.345678 0.022370
0.374517 0.374762 0.000000
0.427741 0.378454 0.000000
0.474800 0.388952 0.000000
0.520043 0.396887 0.000000
0.562799 0.402960 0.000000
0.603815 0.407477 0.000000
0.645777 0.412360 0.000000
0.689418 0.415381 0.000000
0.733791 0.417731 0.000000
0.776547 0.419226 0.000000
0.816220 0.419348 0.000000
0.852750 0.418433 0.000000
0.885801 0.416297 0.000000
0.915496 0.413550 0.000000
0.942199 0.410407 0.000000
0.966400 0.407141 0.000000
0.988464 0.404150 0.000000
1.000000 0.401801 0.050294
1.000000 0.400519 0.090364
1.000000 0.400366 0.121157
0.000000 0.359777 0.154147
0.000000 0.359716 0.152712
0.000000 0.359197 0.150149
0.000000 0.358495 0.145388
0.000000 0.357794 0.137514
0.000000 0.356725 0.126925
0.000000 0.356085 0.112306
0.000000 0.355535 0.090883
0.000000 0.355779 0.056031
0.109987 0.365240 0.012024
0.197665 0.376776 0.001709
0.271122 0.389654 0.000000
0.343297 0.403204 0.000000
0.416815 0.416419 0.000000
0.472633 0.417426 0.000000
0.518303 0.426307 0.000000
0.560784 0.432166 0.000000
0.600885 0.436316 0.000000
0.642145 0.440925 0.000000
0.685237 0.446326 0.000000
0.729274 0.451667 0.000000
0.771542 0.453101 0.000000
0.810971 0.453223 0.000000
0.847318 0.452155 0.000000
0.880430 0.450050 0.000000
0.910277 0.447059 0.000000
0.937346 0.443488 0.000000
0.961975 0.439734 0.000000
0.984497 0.436133 0.000000
1.000000 0.433265 0.048096
1.000000 0.431128 0.090211
1.000000 0.430121 0.122194
0.000000 0.393286 0.167117
0.000000 0.393133 0.165682
0.000000 0.392767 0.163760
0.000000 0.392035 0.158968
0.000000 0.391028 0.151553
0.000000 0.391028 0.141482
0.000000 0.391638 0.127779
0.000000 0.392432 0.108919
0.000000 0.393683 0.080781
0.000000 0.397375 0.000000
0.145327 0.408301 0.000000
0.233616 0.420722 0.000000
0.310216 0.433692 0.000000
0.384924 0.446387 0.000000
0.459236 0.458137 0.000000
0.515770 0.455055 0.000000
0.557671 0.460792 0.000000
0.597345 0.464698 0.000000
0.638148 0.469154 0.000000
0.680751 0.474617 0.000000
0.724666 0.480507 0.000000
0.767239 0.485573 0.000000
0.806821 0.487587 0.000000
0.843320 0.486488 0.000000
0.876463 0.484291 0.000000
0.906584 0.480934 0.000000
0.933837 0.477028 0.000000
0.958709 0.472969 0.000000
0.981506 0.469062 0.000000
1.000000 0.465492 0.056184
1.000000 0.462776 0.095064
1.000000 0.461036 0.127535
0.000000 0.433814 0.184024
0.000000 0.433814 0.182467
0.000000 0.433539 0.180392
0.000000 0.433021 0.175967
0.000000 0.432227 0.168765
0.000000 0.431342 0.158846
0.000000 0.430701 0.145418
0.000000 0.430304 0.127321
0.000000 0.430579 0.102358
0.000000 0.431464 0.061036
0.000000 0.438331 0.000000
0.181460 0.450324 0.000000
0.269780 0.462806 0.000000
0.348516 0.475257 0.000000
0.424201 0.486641 0.000000
0.498238 0.496468 0.000000
0.555200 0.489815 0.000000
0.594598 0.493721 0.000000
0.635248 0.498085 0.000000
0.677363 0.503410 0.000000
0.720638 0.509270 0.000000
0.762783 0.514244 0.000000
0.802365 0.517754 0.000000
0.839139 0.519951 0.000000
0.872618 0.518181 0.000000
0.903166 0.514946 0.000000
0.931182 0.511131 0.000000
0.956847 0.507103 0.000000
0.980316 0.503075 0.000000
1.000000 0.499428 0.072663
1.000000 0.496407 0.109010
1.000000 0.494270 0.141787
0.000000 0.474250 0.201328
0.000000 0.474403 0.200015
0.000000 0.474250 0.198123
0.000000 0.473793 0.193851
0.000000 0.472999 0.186679
0.000000 0.472114 0.176761
0.000000 0.471473 0.164004
0.000000 0.471107 0.147127
0.000000 0.470832 0.124697
0.000000 0.470863 0.091218
0.000000 0.470924 0.000000
0.092287 0.480537 0.000000
0.218021 0.491341 0.000000
0.305791 0.502068 0.000000
0.383978 0.512413 0.000000
0.458686 0.521721 0.000000
0.531853 0.530083 0.000000
0.589197 0.524315 0.000000
0.632349 0.527062 0.000000
0.675441 0.533227 0.000000
0.719326 0.539696 0.000000
0.761746 0.545006 0.000000
0.801541 0.548760 0.000000
0.838376 0.550927 0.000000
0.872129 0.551659 0.000000
0.902922 0.550866 0.000000
0.930907 0.546685 0.000000
0.956451 0.542260 0.000000
0.979706 0.537652 0.039185
1.000000 0.533257 0.088197
1.000000 0.529320 0.120699
1.000000 0.526268 0.152071
0.000000 0.510765 0.217594
0.000000 0.510613 0.216281
0.000000 0.510185 0.214328
0.000000 0.509545 0.209720
0.000000 0.508659 0.203159
0.000000 0.507744 0.193912
0.000000 0.506737 0.181521
0.000000 0.505882 0.165743
0.000000 0.505241 0.145205
0.000000 0.504753 0.117342
0.000000 0.504387 0.072602
0.000000 0.506523 0.000000
0.141787 0.517205 0.000000
0.253330 0.527642 0.000000
0.339483 0.537591 0.000000
0.417090 0.546410 0.000000
0.491127 0.554467 0.000000
0.564080 0.562585 0.000000
0.624994 0.559930 0.000000
0.671565 0.561669 0.000000
0.715267 0.568353 0.000000
0.757626 0.573754 0.000000
0.797421 0.577539 0.000000
0.834379 0.579919 0.000000
0.868437 0.580713 0.000000
0.899657 0.580377 0.000000
0.928161 0.579187 0.000000
0.954070 0.576074 0.000000
0.977600 0.571160 0.062104
0.998779 0.566339 0.100343
1.000000 0.561944 0.131777
1.000000 0.558251 0.163516
0.000000 0.546502 0.234104
0.000000 0.546929 0.232944
0.000000 0.567163 0.240879
0.000000 0.566308 0.236423
0.000000 0.565026 0.229435
0.000000 0.563378 0.219821
0.000000 0.561517 0.207706
0.000000 0.559594 0.191470
0.000000 0.557855 0.171542
0.000000 0.556268 0.145510
0.000000 0.554833 0.109041
0.000000 0.553063 0.014466
0.000000 0.557305 0.000000
0.190158 0.566583 0.000000
0.295689 0.575250 0.000000
0.381933 0.583825 0.000000
0.460945 0.592279 0.000000
0.536858 0.600488 0.000000
0.611475 0.608850 0.000000
0.676081 0.608240 0.000000
0.724025 0.606714 0.000000
0.764858 0.610986 0.000000
0.803372 0.613581 0.000000
0.838590 0.614557 0.000000
0.870695 0.613886 0.000000
0.900175 0.612207 0.000000
0.927245 0.609705 0.000000
0.952331 0.606928 0.040284
0.975525 0.604120 0.079408
0.996582 0.599207 0.112795
1.000000 0.594202 0.143526
1.000000 0.589807 0.174624
0.000000 0.585901 0.252659
0.000000 0.588525 0.252964
0.000000 0.591028 0.252567
0.000000 0.592767 0.249577
0.000000 0.593652 0.244266
0.000000 0.593072 0.235569
0.000000 0.591638 0.223758
0.000000 0.589960 0.209476
0.000000 0.588220 0.191043
0.000000 0.586572 0.168215
0.000000 0.584985 0.137209
0.000000 0.583154 0.090883
0.000000 0.580804 0.000000
0.000641 0.588373 0.000000
0.228672 0.597345 0.000000
0.328374 0.606104 0.000000
0.413306 0.614893 0.000000
0.492287 0.623621 0.000000
0.568811 0.632654 0.000000
0.644312 0.641993 0.000000
0.711055 0.643458 0.000000
0.760220 0.639460 0.000000
0.799161 0.642573 0.000000
0.835080 0.643824 0.000000
0.867613 0.643275 0.000000
0.897429 0.641596 0.000000
0.924804 0.639033 0.050568
0.950011 0.636072 0.081209
0.973266 0.633021 0.105867
0.994446 0.629908 0.130404
1.000000 0.626459 0.156069
1.000000 0.621454 0.187472
0.000000 0.618097 0.268223
0.000000 0.620539 0.268315
0.000000 0.623072 0.267826
0.000000 0.624903 0.265537
0.000000 0.625666 0.260075
0.000000 0.625086 0.252049
0.000000 0.623682 0.241032
0.000000 0.621912 0.227298
0.000000 0.620294 0.210422
0.000000 0.618616 0.189425
0.000000 0.616999 0.162325
0.000000 0.615167 0.125917
0.000000 0.612604 0.060182
0.000000 0.612268 0.000000
0.125368 0.621515 0.000000
0.266026 0.630671 0.000000
0.362646 0.639765 0.000000
0.446998 0.648890 0.000000
0.526513 0.658228 0.000000
0.603723 0.667903 0.000000
0.679652 0.677302 0.000000
0.747372 0.679957 0.000000
0.795895 0.672175 0.005127
0.831998 0.673518 0.007935
0.864836 0.672969 0.021942
0.894713 0.670985 0.060151
0.922057 0.668177 0.082979
0.947265 0.664881 0.104555
0.970550 0.661433 0.126925
0.991699 0.657984 0.149660
1.000000 0.654597 0.174594
1.000000 0.651392 0.201602
0.000000 0.652216 0.284459
0.000000 0.654749 0.284794
0.000000 0.657221 0.284459
0.000000 0.659052 0.282109
0.000000 0.659846 0.277073
0.000000 0.659266 0.269291
0.000000 0.657923 0.259098
0.000000 0.656184 0.246342
0.000000 0.654292 0.229923
0.000000 0.652430 0.210239
0.000000 0.650660 0.186282
0.000000 0.648615 0.154421
0.000000 0.646082 0.108675
0.000000 0.643122 0.000000
0.000000 0.646937 0.000000
0.179507 0.657008 0.000000
0.304204 0.667506 0.000000
0.399908 0.678309 0.000000
0.485725 0.689296 0.000000
0.567315 0.700160 0.000000
0.646204 0.710719 0.000000
0.723232 0.720546 0.000000
0.791958 0.723751 0.000000
0.838346 0.710811 0.090211
0.871092 0.710048 0.098939
0.900725 0.707546 0.110292
0.927520 0.704005 0.126101
0.951904 0.700038 0.145541
0.974212 0.695827 0.166659
0.994293 0.691585 0.188998
1.000000 0.687434 0.213382
1.000000 0.683650 0.240238
0.000000 0.699611 0.307866
0.000000 0.700771 0.307439
0.000000 0.701503 0.306218
0.000000 0.701808 0.303166
0.000000 0.701472 0.297826
0.000000 0.700404 0.290227
0.000000 0.698970 0.280064
0.000000 0.697444 0.267796
0.000000 0.696040 0.252598
0.000000 0.694728 0.234226
0.000000 0.693477 0.211521
0.000000 0.691768 0.182650
0.000000 0.689540 0.144656
0.000000 0.686732 0.083162
0.000000 0.683253 0.000000
0.000000 0.691646 0.000000
0.229618 0.701808 0.000000
0.346136 0.711940 0.000000
0.440772 0.721828 0.000000
0.526329 0.731441 0.000000
0.606836 0.740414 0.000000
0.683925 0.748623 0.000000
0.758053 0.755764 0.000000
0.824796 0.757870 0.000000
0.868009 0.739406 0.125490
0.897551 0.736873 0.136080
0.924559 0.733181 0.149325
0.949248 0.728847 0.164492
0.971527 0.724331 0.185977
0.991485 0.719692 0.208835
1.000000 0.715084 0.233494
1.000000 0.710842 0.261173
0.000000 0.736385 0.325597
0.000000 0.737575 0.325475
0.000000 0.738552 0.324315
0.000000 0.738888 0.321477
0.000000 0.738582 0.316442
0.000000 0.737484 0.308782
0.000000 0.735988 0.299199
0.000000 0.734432 0.287449
0.000000 0.732906 0.272984
0.000000 0.731533 0.255680
0.000000 0.730282 0.234501
0.000000 0.728786 0.208347
0.000000 0.726802 0.175204
0.000000 0.724453 0.128267
0.000000 0.721767 0.000000
0.000000 0.721340 0.000000
0.078950 0.731411 0.000000
0.274632 0.741299 0.000000
0.385565 0.750912 0.000000
0.478676 0.760159 0.000000
0.563317 0.768795 0.000000
0.642969 0.776638 0.000000
0.718532 0.783597 0.000000
0.790829 0.789425 0.000000
0.851743 0.786862 0.066224
0.891295 0.766842 0.148531
0.919768 0.760464 0.169009
0.944701 0.756039 0.183871
0.967346 0.751156 0.201297
0.987579 0.746212 0.224125
1.000000 0.741390 0.249699
1.000000 0.736995 0.278813
0.000000 0.781430 0.348638
0.000000 0.782681 0.348363
0.000000 0.783352 0.347448
0.000000 0.783200 0.344152
0.000000 0.782406 0.338842
0.000000 0.781033 0.331579
0.000000 0.779171 0.322087
0.000000 0.777005 0.310369
0.000000 0.774746 0.295933
0.000000 0.772671 0.279026
0.000000 0.770413 0.258671
0.000000 0.768368 0.234318
0.000000 0.766018 0.203738
0.000000 0.763272 0.164523
0.000000 0.759915 0.104402
0.000000 0.756252 0.000000
0.000000 0.758846 0.000000
0.164034 0.767269 0.000000
0.315862 0.775967 0.000000
0.421607 0.784665 0.000000
0.512718 0.792966 0.000000
0.595758 0.800320 0.000000
0.673243 0.806455 0.000000
0.746090 0.811246 0.000000
0.814817 0.814725 0.026734
0.880186 0.817319 0.109804
0.915404 0.795010 0.180545
0.941833 0.784482 0.207889
0.964202 0.779019 0.224277
0.984344 0.773465 0.244450
1.000000 0.768124 0.268772
1.000000 0.763241 0.298314
0.000000 0.814420 0.365240
0.000000 0.815579 0.365026
0.000000 0.816220 0.364080
0.000000 0.816220 0.361456
0.000000 0.815549 0.356115
0.000000 0.814450 0.349279
0.000000 0.813107 0.340520
0.000000 0.811521 0.329473
0.000000 0.810025 0.316167
0.000000 0.808591 0.300481
0.000000 0.807187 0.281590
0.000000 0.805936 0.259129
0.000000 0.804501 0.231876
0.000000 0.802701 0.197482
0.000000 0.800473 0.150607
0.000000 0.797940 0.063539
0.000000 0.795285 0.000000
0.000000 0.801602 0.000000
0.224765 0.809232 0.000000
0.359777 0.816709 0.000000
0.461616 0.823728 0.000000
0.550500 0.829892 0.000000
0.631281 0.835050 0.000000
0.706172 0.838987 0.000000
0.776516 0.841703 0.008331
0.842435 0.843381 0.108858
0.904601 0.844297 0.156191
0.938659 0.822782 0.219547
0.963073 0.808652 0.254765
0.982849 0.802640 0.274388
1.000000 0.796689 0.298528
1.000000 0.791043 0.326818
0.000000 0.848875 0.383673
0.000000 0.849607 0.383124
0.000000 0.849821 0.381903
0.000000 0.849485 0.378973
0.000000 0.848600 0.373999
0.000000 0.847471 0.367498
0.000000 0.846098 0.358923
0.000000 0.844663 0.348333
0.000000 0.843351 0.335943
0.000000 0.842313 0.321172
0.000000 0.841337 0.303624
0.000000 0.840635 0.283024
0.000000 0.839872 0.258091
0.000000 0.838712 0.227451
0.000000 0.837156 0.188174
0.000000 0.835325 0.130983
0.000000 0.833371 0.000000
0.000000 0.833280 0.000000
0.000000 0.839872 0.000000
0.277592 0.846159 0.000000
0.400610 0.851957 0.000000
0.498695 0.857053 0.000000
0.584436 0.861204 0.000000
0.662409 0.864286 0.000000
0.734615 0.866300 0.000000
0.801938 0.867308 0.102998
0.865110 0.867552 0.152956
0.924407 0.867094 0.195529
0.957336 0.846647 0.255497
0.979522 0.829252 0.297978
0.996796 0.822812 0.321630
1.000000 0.816587 0.349340
0.000000 0.879088 0.400000
0.000000 0.879515 0.399237
0.000000 0.879728 0.398291
0.000000 0.879606 0.395605
0.000000 0.879240 0.391089
0.000000 0.879057 0.385443
0.000000 0.879149 0.378088
0.000000 0.879576 0.369268
0.000000 0.880308 0.358465
0.000000 0.881376 0.345830
0.000000 0.882506 0.330510
0.000000 0.883665 0.312352
0.000000 0.884611 0.290135
0.000000 0.885130 0.262913
0.000000 0.885130 0.229313
0.000000 0.884489 0.184573
0.000000 0.883665 0.116030
0.000000 0.882994 0.000000
0.000000 0.885618 0.000000
0.152590 0.889860 0.000000
0.334661 0.893584 0.000000
0.449348 0.896574 0.000000
0.543236 0.898650 0.000000
0.625910 0.899840 0.000000
0.700771 0.900175 0.075227
0.769711 0.899657 0.136294
0.833677 0.898497 0.181704
0.893126 0.896788 0.222873
0.948516 0.894713 0.262089
0.979004 0.874662 0.318822
0.996826 0.853635 0.368353
1.000000 0.846403 0.395727
0.000000 0.916991 0.422736
0.000000 0.917205 0.422034
0.000000 0.917174 0.420996
0.000000 0.916869 0.418311
0.000000 0.916350 0.413886
0.000000 0.915862 0.408026
0.000000 0.915496 0.400855
0.000000 0.915282 0.391913
0.000000 0.915282 0.381598
0.000000 0.915465 0.368994
0.000000 0.915709 0.354223
0.000000 0.916075 0.336675
0.000000 0.916350 0.316320
0.000000 0.916503 0.291417
0.000000 0.916442 0.261479
0.000000 0.916258 0.223819
