assets/luts/Reds.cube
# Created by Adobe Lightroom plugin Export LUT (1.18.0)
# www.johnrellis.com/lightroom/exportlut.htm
# Preset: Reds
# Color profile: /Library/Application Support/Adobe/Color/Profiles/Recommended/AdobeRGB1998.icc
LUT_3D_SIZE 8
DOMAIN_MIN 0.000000 0.000000 0.000000
DOMAIN_MAX 0.903226 0.903226 0.903226
0.086702 0.104189 0.084962
0.109133 0.103029 0.084688
0.206271 0.107698 0.080476
0.348425 0.111177 0.067750
0.518730 0.108492 0.012024
0.704494 0.099855 0.000000
0.875547 0.090822 0.000000
0.987366 0.110475 0.000000
0.081971 0.128389 0.088624
0.107515 0.131960 0.082673
0.202426 0.145754 0.077516
0.339055 0.157870 0.063752
0.506889 0.165499 0.003449
0.685695 0.167819 0.000000
0.859190 0.164950 0.000000
0.979980 0.170748 0.000000
0.009308 0.229099 0.110353
0.025299 0.230259 0.093080
0.194278 0.239292 0.067445
0.348272 0.261997 0.037781
0.519493 0.285618 0.000000
0.700069 0.297856 0.000000
0.878264 0.305241 0.000000
0.988525 0.301793 0.000000
0.000000 0.359777 0.154147
0.000000 0.357794 0.137514
0.000000 0.355779 0.056031
0.343297 0.403204 0.000000
0.560784 0.432166 0.000000
0.729274 0.451667 0.000000
0.880430 0.450050 0.000000
0.984497 0.436133 0.000000
0.000000 0.510765 0.217594
0.000000 0.508659 0.203159
0.000000 0.505241 0.145205
0.141787 0.517205 0.000000
0.491127 0.554467 0.000000
0.715267 0.568353 0.000000
0.868437 0.580713 0.000000
0.977600 0.571160 0.062104
0.000000 0.652216 0.284459
0.000000 0.659846 0.277073
0.000000 0.654292 0.229923
0.000000 0.646082 0.108675
0.304204 0.667506 0.000000
0.646204 0.710719 0.000000
0.871092 0.710048 0.098939
0.974212 0.695827 0.166659
0.000000 0.814420 0.365240
0.000000 0.815549 0.356115
0.000000 0.810025 0.316167
0.000000 0.804501 0.231876
0.000000 0.795285 0.000000
0.461616 0.823728 0.000000
0.776516 0.841703 0.008331
0.963073 0.808652 0.254765
0.000000 0.942992 0.438849
0.000000 0.942657 0.430610
0.000000 0.942901 0.401160
0.000000 0.945922 0.342107
0.000000 0.936736 0.210391
0.000000 0.943877 0.000000
0.606226 0.945159 0.078004
0.870207 0.933837 0.269902
0.084199 0.104128 0.105623
0.108888 0.102327 0.107240
0.200229 0.094697 0.111360
0.337835 0.080964 0.107088
0.504662 0.066896 0.098207
0.677302 0.026398 0.084993
0.851469 0.000000 0.065003
0.974395 0.059846 0.079683
0.081605 0.129091 0.107698
0.109895 0.131411 0.108797
0.201450 0.136782 0.109377
0.336278 0.142824 0.105684
0.500969 0.144686 0.095857
0.669764 0.143099 0.081117
0.839506 0.136202 0.055940
0.966430 0.144778 0.068360
0.034791 0.227390 0.131777
0.090242 0.229984 0.131197
0.195224 0.238193 0.108248
0.342443 0.256748 0.104097
0.507744 0.273014 0.089265
0.676265 0.280339 0.072511
0.848814 0.284764 0.045533
0.972992 0.285801 0.081727
0.000000 0.355383 0.176974
0.000000 0.356115 0.169375
0.000000 0.357519 0.111513
0.328466 0.385779 0.093324
0.524681 0.406409 0.086213
0.685939 0.423499 0.060487
0.849424 0.429328 0.027466
0.969512 0.423255 0.090333
0.000000 0.510857 0.243351
0.000000 0.507622 0.229374
0.000000 0.501732 0.176974
0.126467 0.503655 0.031281
0.474586 0.536370 0.058961
0.692805 0.551263 0.078370
0.853178 0.569543 0.072969
0.968566 0.563012 0.122957
0.000000 0.644923 0.302159
0.000000 0.643946 0.291051
0.000000 0.639490 0.248173
0.000000 0.634394 0.148562
0.293950 0.655940 0.000000
0.640620 0.704005 0.000336
0.864347 0.704860 0.153750
0.968170 0.691249 0.197757
0.000000 0.800778 0.375616
0.000000 0.797543 0.364569
0.000000 0.794095 0.327489
0.000000 0.792508 0.251194
0.000000 0.786923 0.000000
0.452796 0.814206 0.000000
0.767575 0.832120 0.104982
0.955169 0.801663 0.264836
0.000000 0.936309 0.449439
0.000000 0.936980 0.442206
0.000000 0.937743 0.413916
0.000000 0.941283 0.357610
0.000000 0.943236 0.244450
0.000000 0.946014 0.000000
0.603967 0.943267 0.129274
0.868162 0.931212 0.285801
0.078950 0.100374 0.200443
0.116609 0.097780 0.202731
0.206790 0.091096 0.208164
0.345159 0.064302 0.225040
0.514122 0.000000 0.228122
0.695064 0.000000 0.218936
0.864591 0.000000 0.219974
0.980438 0.000000 0.232273
0.049714 0.130617 0.204471
0.105623 0.129580 0.205814
0.206668 0.133303 0.208835
0.342901 0.123476 0.219760
0.512261 0.061097 0.219272
0.686641 0.000000 0.212711
0.856260 0.000000 0.215549
0.976379 0.079133 0.228702
0.000000 0.236637 0.210666
0.092866 0.238315 0.211887
0.207736 0.240787 0.212711
0.350347 0.243748 0.212253
0.525597 0.249668 0.215396
0.692439 0.251835 0.216678
0.856718 0.253635 0.218814
0.974426 0.265812 0.233616
0.000000 0.372778 0.242405
0.000000 0.374701 0.243381
0.178408 0.380072 0.244175
0.345830 0.397253 0.214725
0.538598 0.412634 0.226841
0.701289 0.419135 0.226200
0.860075 0.421393 0.229923
0.973114 0.418799 0.248020
0.000000 0.523461 0.302434
0.000000 0.524132 0.301244
0.097353 0.523827 0.289281
0.130831 0.518395 0.196445
0.491402 0.548638 0.213596
0.703822 0.558679 0.234470
0.856870 0.571649 0.245274
0.968444 0.562432 0.270237
0.000000 0.657557 0.359045
0.000000 0.657740 0.357519
0.000000 0.654017 0.338293
0.000000 0.645502 0.259678
0.277012 0.653376 0.165469
0.640314 0.699794 0.217472
0.859800 0.703426 0.281956
0.966247 0.695552 0.319493
0.000000 0.812131 0.432288
0.000000 0.810056 0.429053
0.000000 0.804227 0.402655
0.000000 0.798398 0.334295
0.000000 0.790616 0.200992
0.444068 0.813169 0.152865
0.774319 0.835416 0.255680
0.956878 0.808835 0.374151
0.000000 0.937194 0.499611
0.000000 0.935576 0.497292
0.000000 0.935027 0.471656
0.000000 0.940307 0.423926
0.000000 0.941558 0.329168
0.000000 0.945373 0.103578
0.603937 0.943236 0.245792
0.872129 0.931731 0.374365
0.020996 0.092195 0.341558
0.107637 0.086976 0.346319
0.219913 0.070741 0.352422
0.348760 0.016907 0.360540
0.514183 0.000000 0.383307
0.685115 0.000000 0.391058
0.851438 0.000000 0.388495
0.971069 0.000000 0.383062
0.000000 0.125277 0.352819
0.080873 0.124727 0.354711
0.216464 0.120912 0.357641
0.351690 0.109804 0.364019
0.517144 0.058991 0.383307
0.682918 0.000000 0.386267
0.848081 0.000000 0.383215
0.969360 0.000000 0.380896
0.000000 0.245151 0.358221
0.000000 0.240574 0.360021
0.191348 0.230289 0.363378
0.355566 0.234653 0.370123
0.526757 0.234501 0.383154
0.697993 0.226017 0.387671
0.864164 0.228275 0.393408
0.973480 0.263920 0.398535
0.000000 0.390661 0.374060
0.000000 0.392065 0.375525
0.181308 0.395911 0.379339
0.363684 0.399207 0.382940
0.531579 0.400916 0.384405
0.696345 0.402960 0.387976
0.855650 0.407630 0.394781
0.968902 0.419379 0.408728
0.000000 0.552911 0.406806
0.000000 0.551110 0.405646
0.148470 0.548821 0.405890
0.334569 0.546410 0.412970
0.511742 0.557977 0.387549
0.709071 0.570184 0.410925
0.857725 0.574334 0.418219
0.964630 0.567224 0.430396
0.000000 0.687526 0.452583
0.000000 0.693996 0.457435
0.000000 0.687984 0.453315
0.277134 0.680446 0.443824
0.276799 0.666682 0.330724
0.657801 0.708980 0.390051
0.859586 0.710231 0.437263
0.960571 0.704433 0.465126
0.000000 0.825437 0.506828
0.000000 0.825650 0.506523
0.000000 0.823819 0.504509
0.183230 0.818692 0.485298
0.185306 0.811002 0.384833
0.436194 0.818112 0.314580
0.782712 0.837156 0.408118
0.952361 0.813352 0.495430
0.000000 0.944335 0.563348
0.000000 0.944121 0.563409
0.000000 0.941497 0.561273
0.084810 0.939361 0.539117
0.079438 0.940185 0.460853
0.087922 0.942870 0.326177
0.601801 0.941863 0.368902
0.877043 0.931029 0.485084
0.000000 0.070344 0.516045
0.048096 0.061128 0.518944
0.220127 0.000000 0.522210
0.362463 0.000000 0.529107
0.517540 0.000000 0.543084
0.683070 0.000000 0.556023
0.844999 0.000000 0.559655
0.963653 0.000000 0.546288
0.000000 0.116609 0.522057
0.000000 0.114107 0.525780
0.211063 0.102510 0.528099
0.360113 0.076417 0.531212
0.518181 0.000000 0.544030
0.684504 0.000000 0.555932
0.845579 0.000000 0.559075
0.963104 0.000000 0.546288
0.000000 0.235294 0.530541
0.000000 0.227024 0.532311
0.165011 0.222812 0.533257
0.352453 0.222843 0.539574
0.517845 0.219638 0.544915
0.680385 0.216587 0.549981
0.842161 0.210544 0.554040
0.958984 0.241032 0.543542
0.000000 0.393988 0.540337
0.000000 0.391608 0.540887
0.110475 0.384527 0.544610
0.340612 0.382330 0.549157
0.523095 0.390631 0.552300
0.687984 0.395117 0.556146
0.844816 0.392218 0.555749
0.958282 0.405005 0.549584
0.000000 0.550347 0.552514
0.000000 0.551354 0.553582
0.120363 0.552331 0.554498
0.348394 0.554040 0.556756
0.523766 0.551995 0.555169
0.692042 0.550164 0.554131
0.843931 0.552422 0.557610
0.953460 0.559228 0.565057
0.000000 0.703609 0.560327
0.000000 0.703090 0.560418
0.090639 0.697749 0.559442
0.321386 0.691402 0.562524
0.473854 0.680018 0.559930
0.662623 0.702052 0.543694
0.848020 0.711666 0.584802
0.949554 0.707607 0.599359
0.000000 0.838254 0.602228
0.000000 0.836637 0.601343
0.000000 0.832822 0.600305
0.272801 0.827604 0.599847
0.417670 0.817777 0.583246
0.399329 0.807950 0.451057
0.786160 0.831479 0.546319
0.941588 0.814115 0.611872
0.000000 0.943206 0.635920
0.000000 0.942260 0.635615
0.000000 0.939452 0.634791
0.256626 0.939330 0.638849
0.377295 0.933806 0.617334
0.355505 0.935454 0.514122
0.584924 0.936187 0.478401
0.880186 0.926146 0.598169
0.000000 0.000000 0.697139
0.000000 0.000000 0.698054
0.208255 0.000000 0.697627
0.369024 0.000000 0.705196
0.526329 0.000000 0.712917
0.684840 0.000000 0.718410
0.840452 0.000000 0.719417
0.955779 0.000000 0.698787
0.000000 0.099275 0.692317
0.000000 0.094392 0.692561
0.191012 0.072969 0.694087
0.360815 0.000000 0.701106
0.520317 0.000000 0.707942
0.680751 0.000000 0.714382
0.837980 0.000000 0.716945
0.954162 0.043214 0.697353
0.000000 0.219638 0.705653
0.000000 0.218723 0.705653
0.124544 0.215946 0.707424
0.346258 0.211185 0.711360
0.518608 0.205722 0.714199
0.684077 0.198245 0.718441
0.839322 0.211673 0.717586
0.952880 0.262211 0.698543
0.000000 0.390112 0.716304
0.000000 0.385687 0.715297
0.000000 0.374945 0.717403
0.328069 0.377752 0.725856
0.524987 0.385840 0.730068
0.696956 0.389899 0.732021
0.845029 0.401740 0.724300
0.952361 0.420661 0.703731
0.000000 0.548913 0.716152
0.000000 0.548150 0.716915
0.000000 0.545861 0.718929
0.310491 0.543114 0.722469
0.505058 0.537102 0.724147
0.689876 0.540612 0.725673
0.837491 0.550225 0.716945
0.943664 0.565789 0.707362
0.000000 0.704128 0.720211
0.000000 0.706630 0.722835
0.000000 0.707851 0.724117
0.326177 0.708797 0.725460
0.504570 0.708217 0.725246
0.692042 0.710170 0.727871
0.835386 0.715236 0.732296
0.935821 0.720943 0.737697
0.000000 0.856962 0.727565
0.000000 0.857939 0.728511
0.150240 0.856840 0.727474
0.353063 0.853361 0.727199
0.502281 0.843473 0.727840
0.645106 0.824491 0.725765
0.803128 0.832242 0.716304
0.930205 0.830564 0.755184
0.000000 0.949035 0.728725
0.000000 0.948028 0.728725
0.147463 0.945068 0.729305
0.325505 0.941802 0.731563
0.469062 0.934966 0.733028
0.591028 0.924376 0.726223
0.562249 0.928862 0.605676
0.888121 0.921538 0.730282
0.000000 0.000000 0.840909
0.000000 0.000000 0.842710
0.186587 0.000000 0.843809
0.358770 0.000000 0.846342
0.513603 0.000000 0.847837
0.666377 0.000000 0.849088
0.818814 0.000000 0.850462
0.940826 0.000000 0.829587
0.000000 0.065888 0.837186
0.000000 0.056123 0.838834
0.164553 0.000000 0.840055
0.348608 0.000000 0.841489
0.506523 0.000000 0.842771
0.660121 0.000000 0.843473
0.812345 0.000000 0.844327
0.935882 0.000000 0.824521
0.000000 0.206302 0.844175
0.000000 0.205020 0.844236
0.048371 0.200076 0.843961
0.326329 0.192294 0.844663
0.498116 0.181949 0.844572
0.658991 0.177218 0.845335
0.815885 0.178103 0.847807
0.938231 0.235355 0.827573
0.000000 0.364080 0.849729
0.000000 0.359258 0.848875
0.000000 0.350958 0.848295
0.296910 0.353552 0.849180
0.491279 0.356664 0.849027
0.661616 0.365606 0.850340
0.821225 0.372381 0.852689
0.938323 0.400610 0.829160
0.000000 0.526024 0.846494
0.000000 0.523613 0.845762
0.000000 0.517296 0.845212
0.264866 0.510857 0.846250
0.473884 0.508843 0.846860
0.653895 0.514733 0.847227
0.817350 0.522850 0.848692
0.932586 0.555749 0.829007
0.000000 0.680537 0.846677
0.000000 0.680232 0.846799
0.000000 0.679255 0.847318
0.287449 0.677913 0.848722
0.476570 0.674678 0.849821
0.668757 0.687343 0.850645
0.822690 0.700649 0.851804
0.924895 0.717556 0.839750
0.000000 0.831907 0.850523
0.000000 0.832639 0.851225
0.065736 0.833127 0.851621
0.330388 0.834043 0.852537
0.512688 0.833524 0.851957
0.686366 0.833310 0.851255
0.824491 0.833951 0.851347
0.918395 0.836820 0.853117
0.000000 0.947936 0.834165
0.000000 0.947570 0.833982
0.251682 0.947723 0.835233
0.408850 0.945006 0.835080
0.566644 0.938354 0.838132
0.690394 0.928008 0.845762
0.786130 0.914244 0.844816
0.898161 0.916869 0.843900
0.000000 0.000000 0.935729
0.000000 0.000000 0.936248
0.157443 0.000000 0.935760
0.333593 0.000000 0.936461
0.483345 0.000000 0.936919
0.628321 0.000000 0.937041
0.772122 0.000000 0.937407
0.912352 0.000000 0.936675
0.000000 0.000000 0.934478
0.000000 0.000000 0.934997
0.133577 0.000000 0.934813
0.325536 0.000000 0.935088
0.478828 0.000000 0.935515
0.625544 0.000000 0.935607
0.769863 0.000000 0.935607
0.910399 0.000000 0.934874
0.000000 0.187930 0.934417
0.000000 0.186770 0.934539
0.000000 0.180972 0.933776
0.301549 0.176333 0.935485
0.468177 0.168215 0.935241
0.620539 0.165042 0.934478
0.767788 0.178500 0.934295
0.909422 0.199252 0.933837
0.000000 0.324712 0.935149
0.000000 0.325475 0.935454
0.000000 0.325017 0.934874
0.266728 0.327489 0.935149
0.456306 0.331701 0.935058
0.617395 0.339239 0.934356
0.767849 0.352941 0.933928
0.909850 0.366125 0.933654
0.000000 0.486946 0.933135
0.000000 0.486213 0.933562
0.000000 0.481056 0.933349
0.226993 0.473915 0.933532
0.441779 0.477852 0.932738
0.611353 0.485084 0.931884
0.766537 0.500328 0.931609
0.909361 0.523064 0.932158
0.000000 0.637079 0.930999
0.000000 0.635981 0.930632
0.000000 0.632593 0.929900
0.236240 0.627619 0.929656
0.437873 0.626551 0.929656
0.627253 0.646876 0.929778
0.782925 0.673579 0.930449
0.911223 0.700160 0.931395
0.000000 0.781765 0.930327
0.000000 0.781399 0.930083
0.000000 0.780392 0.929564
0.304906 0.779812 0.929473
0.486854 0.782803 0.929076
0.662531 0.795377 0.928130
0.808957 0.817288 0.928130
0.909758 0.827787 0.927642
0.000000 0.919310 0.930358
0.082246 0.919127 0.930144
0.246525 0.918914 0.929870
0.401953 0.918853 0.929747
0.562280 0.918364 0.929168
0.707179 0.917540 0.928313
0.826902 0.916777 0.927672
0.912016 0.916320 0.927245
