assets/luts/Reds.cube
# Created by Adobe Lightroom plugin Export LUT (1.18.0)
# www.johnrellis.com/lightroom/exportlut.htm
# Preset: Reds
# Color profile: /Library/Application Support/Adobe/Color/Profiles/Recommended/AdobeRGB1998.icc
LUT_3D_SIZE 5
DOMAIN_MIN 0.000000 0.000000 0.000000
DOMAIN_MAX 0.903226 0.903226 0.903226
0.086702 0.104189 0.084962
0.177981 0.106416 0.081758
0.433509 0.111055 0.050446
0.755367 0.096376 0.000000
0.987366 0.110475 0.000000
0.050263 0.201480 0.103212
0.169100 0.209506 0.072663
0.429755 0.245548 0.007691
0.752224 0.267460 0.000000
0.991180 0.270146 0.000000
0.000000 0.433814 0.184024
0.000000 0.430304 0.127321
0.424201 0.486641 0.000000
0.762783 0.514244 0.000000
0.980316 0.503075 0.000000
0.000000 0.699611 0.307866
0.000000 0.697444 0.267796
0.000000 0.683253 0.000000
0.683925 0.748623 0.000000
0.971527 0.724331 0.185977
0.000000 0.942992 0.438849
0.000000 0.942565 0.410651
0.000000 0.935302 0.283787
0.289128 0.945464 0.000000
0.870207 0.933837 0.269902
0.081727 0.101472 0.169802
0.176913 0.095430 0.176730
0.424414 0.000000 0.192538
0.728481 0.000000 0.177737
0.975067 0.000000 0.189029
0.043366 0.205264 0.179599
0.178500 0.209079 0.181094
0.427985 0.214572 0.178988
0.729732 0.218265 0.177859
0.974792 0.232914 0.194430
0.000000 0.443427 0.251835
0.090150 0.443854 0.240848
0.411475 0.468666 0.174960
0.739101 0.495277 0.188968
0.973602 0.494057 0.223209
0.000000 0.707790 0.370489
0.000000 0.706813 0.349737
0.000000 0.691096 0.183047
0.683558 0.744839 0.189242
0.966613 0.724880 0.302708
0.000000 0.941588 0.493629
0.000000 0.941070 0.467506
0.000000 0.943267 0.362860
0.270970 0.948486 0.106416
0.873960 0.934264 0.361089
0.000000 0.083284 0.429603
0.189700 0.059724 0.435645
0.430915 0.000000 0.449561
0.729091 0.000000 0.477363
0.967590 0.000000 0.466102
0.000000 0.205905 0.444678
0.145571 0.194919 0.447364
0.439887 0.190555 0.460639
0.728908 0.165530 0.471107
0.967346 0.207858 0.469978
0.000000 0.473365 0.466407
0.072999 0.474830 0.467811
0.445380 0.477699 0.471534
0.735805 0.479835 0.475410
0.961822 0.492683 0.491005
0.000000 0.734981 0.519493
0.000000 0.728725 0.515557
0.368292 0.718685 0.510460
0.696345 0.743465 0.471351
0.951873 0.731228 0.530510
0.000000 0.941680 0.595392
0.000000 0.940917 0.596155
0.265537 0.936309 0.575311
0.238407 0.939025 0.374456
0.876738 0.927550 0.532830
0.000000 0.000000 0.731075
0.154452 0.000000 0.734371
0.444984 0.000000 0.745876
0.719783 0.000000 0.753750
0.950774 0.000000 0.731106
0.000000 0.182437 0.737179
0.000000 0.177005 0.739345
0.431647 0.157626 0.745846
0.716487 0.125277 0.750790
0.946715 0.203494 0.728023
0.000000 0.460273 0.744228
0.000000 0.451911 0.745266
0.400549 0.442603 0.747951
0.712978 0.445899 0.748165
0.942351 0.476417 0.729335
0.000000 0.744533 0.762417
0.000000 0.742611 0.760464
0.411780 0.743801 0.762112
0.729091 0.744747 0.763424
0.929381 0.749477 0.766842
0.000000 0.949981 0.752285
0.148104 0.947845 0.754147
0.424994 0.941131 0.760098
0.648646 0.922698 0.760372
0.889799 0.919829 0.759365
0.000000 0.000000 0.935729
0.087160 0.000000 0.935821
0.409583 0.000000 0.936828
0.664607 0.000000 0.937194
0.912352 0.000000 0.936675
0.000000 0.155062 0.935027
0.000000 0.148531 0.935027
0.392981 0.127047 0.935698
0.659297 0.111025 0.935027
0.910430 0.154635 0.934813
0.000000 0.407874 0.934173
0.000000 0.400122 0.934020
0.354467 0.401068 0.933257
0.650752 0.411017 0.931579
0.909300 0.439826 0.932738
0.000000 0.675654 0.932006
0.000000 0.673182 0.931243
0.356847 0.667536 0.930694
0.677089 0.693141 0.928740
0.910887 0.735744 0.930449
0.000000 0.919310 0.930358
0.208255 0.918944 0.929931
0.482979 0.918730 0.929564
0.739528 0.917357 0.928161
0.912016 0.916320 0.927245
